; generated by Slic3r 1.3.1-dev (Build 18ddd3a36dc69d81fb9b7440498bff9e1dde8b7e) on 2021-07-22 at 21:34:36

; external perimeters extrusion width = 0.49mm (3.88mm^3/s)
; perimeters extrusion width = 0.59mm (9.54mm^3/s)
; infill extrusion width = 0.56mm (11.95mm^3/s)
; solid infill extrusion width = 0.59mm (3.18mm^3/s)
; top infill extrusion width = 0.59mm (2.39mm^3/s)
; support material extrusion width = 0.49mm (7.75mm^3/s)

M107
G92 E0
M190 S45 ; set bed temperature and wait for it to be reached
M104 S226 ; set temperature
G28 ; home all axes
G1 Z5 F5000 ; lift nozzle

; Filament gcode

M109 S226 ; set temperature and wait for it to be reached
G21 ; set units to millimeters
G90 ; use absolute coordinates
M82 ; use absolute distances for extrusion
G92 E0
G1 E-3.00000 F2400.00000
G92 E0
G1 Z0.350 F5400.000
G1 X85.795 Y142.854 F5400.000
G1 E3.00000 F2400.00000
G1 F1800.000
G1 X86.745 Y142.307 E3.09967
G1 X87.351 Y141.999 E3.16151
G1 X88.351 Y141.551 E3.26117
G1 X89.378 Y141.168 E3.36084
G1 X89.774 Y141.039 E3.39868
G1 X90.830 Y140.746 E3.49835
G1 X91.631 Y140.568 E3.57295
G1 X118.014 Y135.255 E6.02007
G1 X118.957 Y135.100 E6.10699
G1 X120.047 Y134.984 E6.20666
G1 X236.196 Y130.759 E16.77502
G1 X237.292 Y130.737 E16.87469
G1 X238.387 Y130.785 E16.97436
G1 X239.477 Y130.901 E17.07403
G1 X240.557 Y131.085 E17.17369
G1 X241.624 Y131.337 E17.27336
G1 X242.673 Y131.655 E17.37303
G1 X243.700 Y132.039 E17.47270
G1 X244.324 Y132.309 E17.53454
G1 X245.306 Y132.795 E17.63420
G1 X246.256 Y133.342 E17.73387
G1 X247.170 Y133.947 E17.83354
G1 X248.044 Y134.608 E17.93321
G1 X248.875 Y135.323 E18.03287
G1 X249.178 Y135.608 E18.07072
G1 X249.944 Y136.392 E18.17039
G1 X250.659 Y137.223 E18.27006
G1 X251.320 Y138.097 E18.36972
G1 X251.703 Y138.660 E18.43156
G1 X252.272 Y139.597 E18.53123
G1 X252.781 Y140.567 E18.63089
G1 X253.228 Y141.568 E18.73056
G1 X253.612 Y142.595 E18.83023
G1 X253.930 Y143.643 E18.92990
G1 X254.034 Y144.047 E18.96774
G1 X254.260 Y145.119 E19.06741
G1 X254.367 Y145.791 E19.12925
G1 X254.483 Y146.881 E19.22891
G1 X254.530 Y147.976 E19.32858
G1 X254.509 Y149.072 E19.42825
G1 X252.610 Y175.717 E21.85723
G1 X252.481 Y176.958 E21.97070
G1 X252.297 Y178.039 E22.07037
G1 X252.149 Y178.702 E22.13220
G1 X251.855 Y179.758 E22.23187
G1 X251.496 Y180.794 E22.33154
G1 X251.073 Y181.805 E22.43121
G1 X250.587 Y182.788 E22.53087
G1 X250.040 Y183.738 E22.63054
G1 X249.435 Y184.651 E22.73021
G1 X248.774 Y185.526 E22.82988
G1 X248.509 Y185.846 E22.86772
G1 X247.774 Y186.660 E22.96739
G1 X246.990 Y187.425 E23.06706
G1 X246.159 Y188.140 E23.16673
G1 X245.285 Y188.802 E23.26640
G1 X244.371 Y189.407 E23.36606
G1 X243.421 Y189.954 E23.46573
G1 X242.438 Y190.440 E23.56540
G1 X241.427 Y190.863 E23.66507
G1 X240.392 Y191.222 E23.76473
G1 X239.336 Y191.515 E23.86440
G1 X238.494 Y191.701 E23.94275
G1 X208.646 Y197.519 E26.70793
G1 X207.743 Y197.666 E26.79110
G1 X206.653 Y197.782 E26.89077
G1 X205.434 Y197.832 E27.00168
G1 X93.001 Y199.266 E37.22604
G1 X92.029 Y199.241 E37.31447
G1 X90.936 Y199.151 E37.41414
G1 X90.523 Y199.099 E37.45198
G1 X89.443 Y198.915 E37.55165
G1 X88.376 Y198.663 E37.65132
G1 X87.723 Y198.473 E37.71315
G1 X86.687 Y198.114 E37.81282
G1 X85.676 Y197.691 E37.91249
G1 X85.300 Y197.514 E37.95033
G1 X84.329 Y197.004 E38.05000
G1 X83.392 Y196.435 E38.14967
G1 X82.830 Y196.053 E38.21150
G1 X81.956 Y195.392 E38.31117
G1 X81.125 Y194.677 E38.41084
G1 X80.341 Y193.911 E38.51051
G1 X80.056 Y193.607 E38.54835
G1 X79.606 Y193.097 E38.61019
G1 X78.924 Y192.239 E38.70985
G1 X78.297 Y191.340 E38.80952
G1 X77.728 Y190.403 E38.90919
G1 X77.528 Y190.039 E38.94704
G1 X77.219 Y189.433 E39.00887
G1 X76.772 Y188.432 E39.10854
G1 X76.388 Y187.405 E39.20821
G1 X76.259 Y187.010 E39.24605
G1 X75.966 Y185.953 E39.34572
G1 X75.740 Y184.881 E39.44539
G1 X75.633 Y184.209 E39.50722
G1 X75.517 Y183.119 E39.60689
G1 X75.470 Y182.024 E39.70656
G1 X75.512 Y180.575 E39.83838
G1 X77.568 Y156.393 E42.04518
G1 X77.684 Y155.303 E42.14485
G1 X77.791 Y154.631 E42.20669
G1 X78.017 Y153.559 E42.30636
G1 X78.121 Y153.156 E42.34420
G1 X78.439 Y152.107 E42.44387
G1 X78.822 Y151.080 E42.54354
G1 X79.093 Y150.456 E42.60537
G1 X79.270 Y150.080 E42.64322
G1 X79.779 Y149.109 E42.74288
G1 X80.125 Y148.524 E42.80472
G1 X80.730 Y147.610 E42.90439
G1 X80.975 Y147.273 E42.94223
G1 X81.657 Y146.415 E43.04190
G1 X82.107 Y145.905 E43.10374
G1 X82.873 Y145.121 E43.20340
G1 X83.686 Y144.386 E43.30307
G1 X84.007 Y144.121 E43.34092
G1 X84.881 Y143.459 E43.44058
G1 X85.738 Y142.890 E43.53411
G1 F4320.000
G1 X86.380 Y142.508 E43.13959
G1 F4320.000
G1 X86.745 Y142.307 E42.91993
G1 F4320.000
G1 X87.351 Y141.999 E42.56102
G1 F4320.000
G1 X87.727 Y141.821 E42.34138
G1 F4320.000
G1 X88.351 Y141.551 E41.98246
G1 F4320.000
G1 X88.738 Y141.398 E41.76281
G1 F4320.000
G1 X89.378 Y141.168 E41.40390
G1 F4320.000
G1 X89.774 Y141.039 E41.18424
G1 F4320.000
G1 X90.427 Y140.849 E40.82533
G1 F4320.000
G1 X90.686 Y140.783 E40.68411
G1 E40.53411 F2400.00000
G92 E0
G1 X96.844 Y161.684 F5400.000
G1 E3.00000 F2400.00000
G1 F450.000
G1 X96.063 Y161.965 E3.07542
G1 X95.244 Y162.094 E3.15084
G1 X94.440 Y162.069 E3.22396
G1 X93.872 Y161.961 E3.27654
G1 X93.322 Y161.782 E3.32911
G1 X92.606 Y161.417 E3.40223
G1 X91.951 Y160.909 E3.47765
G1 X91.402 Y160.287 E3.55307
G1 X90.980 Y159.573 E3.62850
G1 X90.699 Y158.792 E3.70392
G1 X90.573 Y157.998 E3.77704
G1 X90.573 Y157.420 E3.82961
G1 X90.646 Y156.846 E3.88219
G1 X90.870 Y156.074 E3.95530
G1 X91.246 Y155.335 E4.03073
G1 X91.755 Y154.679 E4.10615
G1 X92.377 Y154.131 E4.18157
G1 X93.091 Y153.709 E4.25699
G1 X93.871 Y153.428 E4.33241
G1 X94.666 Y153.302 E4.40553
G1 X95.244 Y153.302 E4.45811
G1 X95.817 Y153.374 E4.51068
G1 X96.590 Y153.599 E4.58380
G1 X97.329 Y153.975 E4.65922
G1 X97.984 Y154.484 E4.73464
G1 X98.533 Y155.106 E4.81007
G1 X98.955 Y155.820 E4.88549
G1 X99.236 Y156.600 E4.96091
G1 X99.366 Y157.419 E5.03633
G1 X99.340 Y158.223 E5.10945
G1 X99.232 Y158.791 E5.16203
G1 X99.053 Y159.341 E5.21460
G1 X98.688 Y160.058 E5.28772
G1 X98.180 Y160.713 E5.36314
G1 X97.558 Y161.261 E5.43856
G1 X96.902 Y161.649 E5.50785
G1 X96.576 Y161.116 F5400.000
G1 F450.000
G1 X95.907 Y161.357 E5.57253
G1 X95.205 Y161.468 E5.63721
G1 X94.509 Y161.446 E5.70048
G1 X94.028 Y161.354 E5.74501
G1 X93.562 Y161.203 E5.78954
G1 X92.942 Y160.887 E5.85281
G1 X92.380 Y160.451 E5.91749
G1 X91.910 Y159.918 E5.98217
G1 X91.548 Y159.305 E6.04685
G1 X91.307 Y158.636 E6.11153
G1 X91.198 Y157.949 E6.17481
G1 X91.198 Y157.459 E6.21934
G1 X91.259 Y156.973 E6.26386
G1 X91.453 Y156.305 E6.32714
G1 X91.776 Y155.671 E6.39182
G1 X92.212 Y155.109 E6.45650
G1 X92.746 Y154.639 E6.52118
G1 X93.358 Y154.277 E6.58586
G1 X94.027 Y154.036 E6.65054
G1 X94.715 Y153.927 E6.71381
G1 X95.204 Y153.927 E6.75834
G1 X95.690 Y153.988 E6.80287
G1 X96.359 Y154.182 E6.86614
G1 X96.992 Y154.505 E6.93082
G1 X97.554 Y154.941 E6.99550
G1 X98.025 Y155.475 E7.06018
G1 X98.387 Y156.087 E7.12486
G1 X98.628 Y156.756 E7.18954
G1 X98.739 Y157.459 E7.25422
G1 X98.717 Y158.154 E7.31750
G1 X98.625 Y158.635 E7.36202
G1 X98.474 Y159.101 E7.40655
G1 X98.158 Y159.721 E7.46983
G1 X97.722 Y160.283 E7.53451
G1 X97.189 Y160.754 E7.59919
G1 X96.635 Y161.081 E7.65773
G1 X96.309 Y160.548 F5400.000
G1 F450.000
G1 X95.751 Y160.749 E7.71167
G1 X95.165 Y160.842 E7.76560
G1 X94.578 Y160.823 E7.81904
G1 X94.184 Y160.748 E7.85552
G1 X93.802 Y160.624 E7.89200
G1 X93.279 Y160.357 E7.94543
G1 X92.810 Y159.994 E7.99937
G1 X92.418 Y159.549 E8.05331
G1 X92.116 Y159.038 E8.10724
G1 X91.915 Y158.480 E8.16118
G1 X91.823 Y157.900 E8.21461
G1 X91.823 Y157.498 E8.25109
G1 X91.873 Y157.100 E8.28757
G1 X92.037 Y156.536 E8.34101
G1 X92.306 Y156.008 E8.39494
G1 X92.670 Y155.539 E8.44888
G1 X93.115 Y155.147 E8.50282
G1 X93.625 Y154.845 E8.55676
G1 X94.184 Y154.644 E8.61069
G1 X94.764 Y154.552 E8.66413
G1 X95.165 Y154.552 E8.70061
G1 X95.563 Y154.602 E8.73709
G1 X96.127 Y154.766 E8.79052
G1 X96.656 Y155.035 E8.84446
G1 X97.125 Y155.399 E8.89840
G1 X97.517 Y155.844 E8.95233
G1 X97.819 Y156.354 E9.00627
G1 X98.020 Y156.912 E9.06021
G1 X98.113 Y157.498 E9.11414
G1 X98.094 Y158.086 E9.16758
G1 X98.019 Y158.480 E9.20406
G1 X97.895 Y158.861 E9.24054
G1 X97.628 Y159.385 E9.29397
G1 X97.265 Y159.854 E9.34791
G1 X96.820 Y160.246 E9.40185
G1 X96.367 Y160.513 E9.44965
G1 X96.309 Y160.548 F5400.000
G1 F4320.000
G1 X96.309 Y160.548 E9.41402
G1 F4320.000
G1 X95.751 Y160.749 E9.10096
G1 F4320.000
G1 X95.165 Y160.842 E8.78789
G1 F4320.000
G1 X94.578 Y160.823 E8.47775
G1 F4320.000
G1 X94.184 Y160.748 E8.26601
G1 F4320.000
G1 X93.802 Y160.624 E8.05427
G1 F4320.000
G1 X93.279 Y160.357 E7.74413
G1 F4320.000
G1 X92.810 Y159.994 E7.43106
G1 F4320.000
G1 X92.418 Y159.549 E7.11800
G1 F4320.000
G1 X92.116 Y159.038 E6.80493
G1 F4320.000
G1 X91.984 Y158.672 E6.59965
G1 E6.44965 F2400.00000
G92 E0
G1 X99.065 Y165.956 F5400.000
G1 E3.00000 F2400.00000
G1 F1800.000
G1 X98.363 Y166.273 E3.07001
G1 X97.818 Y166.469 E3.12271
G1 X97.261 Y166.631 E3.17540
G1 X96.696 Y166.757 E3.22809
G1 X96.123 Y166.848 E3.28079
G1 X95.547 Y166.902 E3.33348
G1 X94.967 Y166.921 E3.38617
G1 X94.388 Y166.902 E3.43887
G1 X93.811 Y166.848 E3.49156
G1 X93.239 Y166.757 E3.54425
G1 X92.673 Y166.631 E3.59694
G1 X92.117 Y166.469 E3.64964
G1 X91.572 Y166.273 E3.70233
G1 X91.040 Y166.043 E3.75502
G1 X90.523 Y165.780 E3.80772
G1 X90.025 Y165.485 E3.86041
G1 X89.545 Y165.159 E3.91310
G1 X89.087 Y164.804 E3.96580
G1 X88.653 Y164.421 E4.01849
G1 X88.243 Y164.011 E4.07118
G1 X87.860 Y163.576 E4.12388
G1 X87.505 Y163.118 E4.17657
G1 X87.179 Y162.639 E4.22926
G1 X86.884 Y162.140 E4.28195
G1 X86.621 Y161.624 E4.33465
G1 X86.391 Y161.092 E4.38734
G1 X86.194 Y160.547 E4.44003
G1 X86.033 Y159.990 E4.49273
G1 X85.906 Y159.425 E4.54542
G1 X85.816 Y158.852 E4.59811
G1 X85.761 Y158.275 E4.65081
G1 X85.743 Y157.696 E4.70350
G1 X85.761 Y157.117 E4.75619
G1 X85.816 Y156.540 E4.80888
G1 X85.906 Y155.968 E4.86158
G1 X86.033 Y155.402 E4.91427
G1 X86.194 Y154.846 E4.96696
G1 X86.391 Y154.300 E5.01966
G1 X86.621 Y153.769 E5.07235
G1 X86.884 Y153.252 E5.12504
G1 X87.179 Y152.753 E5.17774
G1 X87.505 Y152.274 E5.23043
G1 X87.860 Y151.816 E5.28312
G1 X88.243 Y151.382 E5.33581
G1 X88.653 Y150.972 E5.38851
G1 X89.087 Y150.589 E5.44120
G1 X89.545 Y150.233 E5.49389
G1 X90.025 Y149.908 E5.54659
G1 X90.523 Y149.613 E5.59928
G1 X91.040 Y149.350 E5.65197
G1 X91.572 Y149.120 E5.70467
G1 X92.117 Y148.923 E5.75736
G1 X92.673 Y148.762 E5.81005
G1 X93.239 Y148.635 E5.86275
G1 X93.811 Y148.544 E5.91544
G1 X94.388 Y148.490 E5.96813
G1 X94.967 Y148.472 E6.02082
G1 X95.547 Y148.490 E6.07352
G1 X96.123 Y148.544 E6.12621
G1 X96.696 Y148.635 E6.17890
G1 X97.261 Y148.762 E6.23160
G1 X97.818 Y148.923 E6.28429
G1 X98.363 Y149.120 E6.33698
G1 X98.895 Y149.350 E6.38968
G1 X99.411 Y149.613 E6.44237
G1 X99.910 Y149.908 E6.49506
G1 X100.389 Y150.233 E6.54776
G1 X100.847 Y150.589 E6.60045
G1 X101.282 Y150.972 E6.65314
G1 X101.692 Y151.382 E6.70583
G1 X102.075 Y151.816 E6.75853
G1 X102.430 Y152.274 E6.81122
G1 X102.756 Y152.753 E6.86391
G1 X103.051 Y153.252 E6.91661
G1 X103.314 Y153.769 E6.96930
G1 X103.544 Y154.300 E7.02199
G1 X103.740 Y154.846 E7.07469
G1 X103.902 Y155.402 E7.12738
G1 X104.028 Y155.968 E7.18007
G1 X104.119 Y156.540 E7.23276
G1 X104.174 Y157.117 E7.28546
G1 X104.192 Y157.696 E7.33815
G1 X104.174 Y158.275 E7.39084
G1 X104.119 Y158.852 E7.44354
G1 X104.028 Y159.425 E7.49623
G1 X103.902 Y159.990 E7.54892
G1 X103.740 Y160.547 E7.60162
G1 X103.544 Y161.092 E7.65431
G1 X103.314 Y161.624 E7.70700
G1 X103.051 Y162.140 E7.75969
G1 X102.756 Y162.639 E7.81239
G1 X102.430 Y163.118 E7.86508
G1 X102.075 Y163.576 E7.91777
G1 X101.692 Y164.011 E7.97047
G1 X101.282 Y164.421 E8.02316
G1 X100.847 Y164.804 E8.07585
G1 X100.389 Y165.159 E8.12855
G1 X99.910 Y165.485 E8.18124
G1 X99.411 Y165.780 E8.23393
G1 X99.125 Y165.925 E8.26314
G1 X99.349 Y166.513 F5400.000
G1 F1800.000
G1 X98.593 Y166.854 E8.33851
G1 X98.011 Y167.064 E8.39477
G1 X97.417 Y167.236 E8.45104
G1 X96.813 Y167.371 E8.50730
G1 X96.202 Y167.468 E8.56357
G1 X95.586 Y167.526 E8.61983
G1 X94.967 Y167.546 E8.67610
G1 X94.349 Y167.526 E8.73236
G1 X93.733 Y167.468 E8.78862
G1 X93.122 Y167.371 E8.84489
G1 X92.518 Y167.236 E8.90115
G1 X91.924 Y167.064 E8.95742
G1 X91.341 Y166.854 E9.01368
G1 X90.774 Y166.608 E9.06995
G1 X90.222 Y166.327 E9.12621
G1 X89.690 Y166.013 E9.18248
G1 X89.178 Y165.665 E9.23874
G1 X88.689 Y165.285 E9.29500
G1 X88.225 Y164.876 E9.35127
G1 X87.787 Y164.439 E9.40753
G1 X87.378 Y163.975 E9.46380
G1 X86.999 Y163.486 E9.52006
G1 X86.651 Y162.974 E9.57633
G1 X86.336 Y162.441 E9.63259
G1 X86.055 Y161.890 E9.68886
G1 X85.809 Y161.322 E9.74512
G1 X85.600 Y160.740 E9.80138
G1 X85.427 Y160.146 E9.85765
G1 X85.292 Y159.542 E9.91391
G1 X85.195 Y158.931 E9.97018
G1 X85.137 Y158.315 E10.02644
G1 X85.118 Y157.696 E10.08271
G1 X85.137 Y157.078 E10.13897
G1 X85.195 Y156.462 E10.19523
G1 X85.292 Y155.851 E10.25150
G1 X85.427 Y155.247 E10.30776
G1 X85.600 Y154.652 E10.36403
G1 X85.809 Y154.070 E10.42029
G1 X86.055 Y153.502 E10.47656
G1 X86.336 Y152.951 E10.53282
G1 X86.651 Y152.418 E10.58909
G1 X86.999 Y151.907 E10.64535
G1 X87.378 Y151.418 E10.70161
G1 X87.787 Y150.954 E10.75788
G1 X88.225 Y150.516 E10.81414
G1 X88.689 Y150.107 E10.87041
G1 X89.178 Y149.728 E10.92667
G1 X89.690 Y149.380 E10.98294
G1 X90.222 Y149.065 E11.03920
G1 X90.774 Y148.784 E11.09546
G1 X91.341 Y148.538 E11.15173
G1 X91.924 Y148.329 E11.20799
G1 X92.518 Y148.156 E11.26426
G1 X93.122 Y148.021 E11.32052
G1 X93.733 Y147.924 E11.37679
G1 X94.349 Y147.866 E11.43305
G1 X94.967 Y147.847 E11.48932
G1 X95.586 Y147.866 E11.54558
G1 X96.202 Y147.924 E11.60184
G1 X96.813 Y148.021 E11.65811
G1 X97.417 Y148.156 E11.71437
G1 X98.011 Y148.329 E11.77064
G1 X98.593 Y148.538 E11.82690
G1 X99.161 Y148.784 E11.88317
G1 X99.712 Y149.065 E11.93943
G1 X100.245 Y149.380 E11.99569
G1 X100.757 Y149.728 E12.05196
G1 X101.246 Y150.107 E12.10822
G1 X101.710 Y150.516 E12.16449
G1 X102.147 Y150.954 E12.22075
G1 X102.557 Y151.418 E12.27702
G1 X102.936 Y151.907 E12.33328
G1 X103.284 Y152.418 E12.38955
G1 X103.599 Y152.951 E12.44581
G1 X103.880 Y153.502 E12.50207
G1 X104.125 Y154.070 E12.55834
G1 X104.335 Y154.652 E12.61460
G1 X104.508 Y155.247 E12.67087
G1 X104.642 Y155.851 E12.72713
G1 X104.739 Y156.462 E12.78340
G1 X104.798 Y157.078 E12.83966
G1 X104.817 Y157.696 E12.89592
G1 X104.798 Y158.315 E12.95219
G1 X104.739 Y158.931 E13.00845
G1 X104.642 Y159.542 E13.06472
G1 X104.508 Y160.146 E13.12098
G1 X104.335 Y160.740 E13.17725
G1 X104.125 Y161.322 E13.23351
G1 X103.880 Y161.890 E13.28978
G1 X103.599 Y162.441 E13.34604
G1 X103.284 Y162.974 E13.40230
G1 X102.936 Y163.486 E13.45857
G1 X102.557 Y163.975 E13.51483
G1 X102.147 Y164.439 E13.57110
G1 X101.710 Y164.876 E13.62736
G1 X101.246 Y165.285 E13.68363
G1 X100.757 Y165.665 E13.73989
G1 X100.245 Y166.013 E13.79615
G1 X99.712 Y166.327 E13.85242
G1 X99.409 Y166.482 E13.88341
G1 X99.632 Y167.070 F5400.000
G1 F900.000
G1 X98.823 Y167.435 E13.96414
G1 X98.204 Y167.658 E14.02397
G1 X97.572 Y167.842 E14.08381
G1 X96.930 Y167.985 E14.14364
G1 X96.280 Y168.088 E14.20348
G1 X95.625 Y168.150 E14.26332
G1 X94.967 Y168.171 E14.32315
G1 X94.310 Y168.150 E14.38299
G1 X93.654 Y168.088 E14.44282
G1 X93.005 Y167.985 E14.50266
G1 X92.362 Y167.842 E14.56249
G1 X91.730 Y167.658 E14.62233
G1 X91.111 Y167.435 E14.68217
G1 X90.507 Y167.174 E14.74200
G1 X89.921 Y166.875 E14.80184
G1 X89.355 Y166.540 E14.86167
G1 X88.810 Y166.171 E14.92151
G1 X88.290 Y165.767 E14.98134
G1 X87.797 Y165.332 E15.04118
G1 X87.332 Y164.867 E15.10102
G1 X86.896 Y164.373 E15.16085
G1 X86.493 Y163.853 E15.22069
G1 X86.123 Y163.309 E15.28052
G1 X85.788 Y162.742 E15.34036
G1 X85.489 Y162.156 E15.40019
G1 X85.228 Y161.552 E15.46003
G1 X85.005 Y160.933 E15.51987
G1 X84.822 Y160.301 E15.57970
G1 X84.678 Y159.659 E15.63954
G1 X84.575 Y159.009 E15.69937
G1 X84.513 Y158.354 E15.75921
G1 X84.492 Y157.696 E15.81904
G1 X84.513 Y157.038 E15.87888
G1 X84.575 Y156.383 E15.93872
G1 X84.678 Y155.733 E15.99855
G1 X84.822 Y155.091 E16.05839
G1 X85.005 Y154.459 E16.11822
G1 X85.228 Y153.840 E16.17806
