; generated by Slic3r 1.3.1-dev (Build 18ddd3a36dc69d81fb9b7440498bff9e1dde8b7e) on 2021-07-21 at 14:04:54

; external perimeters extrusion width = 0.49mm (3.88mm^3/s)
; perimeters extrusion width = 0.59mm (9.54mm^3/s)
; infill extrusion width = 0.56mm (11.95mm^3/s)
; solid infill extrusion width = 0.59mm (3.18mm^3/s)
; top infill extrusion width = 0.59mm (2.39mm^3/s)
; support material extrusion width = 0.49mm (7.75mm^3/s)

M107
G92 E0
M190 S45 ; set bed temperature and wait for it to be reached
M104 S226 ; set temperature
G28 ; home all axes
G1 Z5 F5000 ; lift nozzle

; Filament gcode

M109 S226 ; set temperature and wait for it to be reached
G21 ; set units to millimeters
G90 ; use absolute coordinates
M82 ; use absolute distances for extrusion
G92 E0
G1 E-3.00000 F2400.00000
G92 E0
G1 Z0.350 F5400.000
G1 X110.413 Y142.911 F5400.000
G1 E3.00000 F2400.00000
G1 F1800.000
G1 X111.061 Y142.455 E3.07210
G1 X111.413 Y142.232 E3.10995
G1 X112.102 Y141.839 E3.18204
G1 X112.814 Y141.491 E3.25418
G1 X113.902 Y141.060 E3.36051
G1 X114.298 Y140.932 E3.39836
G1 X115.063 Y140.723 E3.47046
G1 X115.839 Y140.563 E3.54259
G1 X117.000 Y140.416 E3.64893
G1 X117.792 Y140.378 E3.72104
G1 X212.000 Y140.375 E12.28735
G1 X213.000 Y140.416 E12.37838
G1 X214.161 Y140.563 E12.48472
G1 X214.937 Y140.723 E12.55685
G1 X215.702 Y140.932 E12.62895
G1 X216.098 Y141.060 E12.66680
G1 X216.840 Y141.341 E12.73888
G1 X217.562 Y141.668 E12.81102
G1 X218.263 Y142.040 E12.88311
G1 X218.939 Y142.455 E12.95523
G1 X219.587 Y142.911 E13.02733
G1 X220.206 Y143.408 E13.09945
G1 X220.792 Y143.942 E13.17155
G1 X221.592 Y144.794 E13.27790
G1 X222.089 Y145.413 E13.35003
G1 X222.545 Y146.061 E13.42212
G1 X222.960 Y146.737 E13.49424
G1 X223.332 Y147.438 E13.56633
G1 X223.659 Y148.160 E13.63847
G1 X223.940 Y148.902 E13.71055
G1 X224.173 Y149.660 E13.78267
G1 X224.359 Y150.430 E13.85477
G1 X224.437 Y150.839 E13.89263
G1 X224.548 Y151.624 E13.96473
G1 X224.610 Y152.415 E14.03684
G1 X224.625 Y153.000 E14.09004
G1 X224.625 Y177.000 E16.27235
G1 X224.584 Y178.000 E16.36338
G1 X224.437 Y179.161 E16.46972
G1 X224.277 Y179.937 E16.54185
G1 X224.068 Y180.702 E16.61395
G1 X223.940 Y181.098 E16.65180
G1 X223.659 Y181.840 E16.72388
G1 X223.332 Y182.562 E16.79602
G1 X222.768 Y183.587 E16.90236
G1 X222.333 Y184.250 E16.97447
G1 X221.858 Y184.885 E17.04657
G1 X221.343 Y185.488 E17.11870
G1 X221.058 Y185.792 E17.15653
G1 X220.488 Y186.343 E17.22863
G1 X219.885 Y186.858 E17.30076
G1 X219.250 Y187.333 E17.37286
G1 X218.587 Y187.768 E17.44498
G1 X217.562 Y188.332 E17.55132
G1 X216.840 Y188.659 E17.62345
G1 X216.098 Y188.940 E17.69554
G1 X215.702 Y189.068 E17.73338
G1 X214.937 Y189.277 E17.80548
G1 X214.161 Y189.437 E17.87761
G1 X213.000 Y189.584 E17.98396
G1 X212.000 Y189.625 E18.07499
G1 X118.000 Y189.625 E26.62237
G1 X117.000 Y189.584 E26.71340
G1 X115.839 Y189.437 E26.81975
G1 X115.063 Y189.277 E26.89187
G1 X114.298 Y189.068 E26.96397
G1 X113.902 Y188.940 E27.00182
G1 X113.160 Y188.659 E27.07391
G1 X112.438 Y188.332 E27.14604
G1 X111.413 Y187.768 E27.25238
G1 X110.750 Y187.333 E27.32450
G1 X110.115 Y186.858 E27.39660
G1 X109.512 Y186.343 E27.46872
G1 X109.208 Y186.058 E27.50656
G1 X108.657 Y185.488 E27.57865
G1 X108.142 Y184.885 E27.65078
G1 X107.455 Y183.939 E27.75713
G1 X107.040 Y183.263 E27.82925
G1 X106.668 Y182.562 E27.90134
G1 X106.341 Y181.840 E27.97347
G1 X106.060 Y181.098 E28.04556
G1 X105.932 Y180.702 E28.08341
G1 X105.723 Y179.937 E28.15551
G1 X105.563 Y179.161 E28.22763
G1 X105.416 Y178.000 E28.33398
G1 X105.375 Y177.000 E28.42501
G1 X105.375 Y153.000 E30.60732
G1 X105.416 Y152.000 E30.69835
G1 X105.504 Y151.212 E30.77045
G1 X105.723 Y150.063 E30.87682
G1 X105.932 Y149.298 E30.94892
G1 X106.060 Y148.902 E30.98677
G1 X106.491 Y147.814 E31.09311
G1 X106.668 Y147.438 E31.13097
G1 X107.040 Y146.737 E31.20307
G1 X107.667 Y145.750 E31.30943
G1 X108.142 Y145.115 E31.38153
G1 X108.408 Y144.794 E31.41939
G1 X109.208 Y143.942 E31.52574
G1 X109.794 Y143.408 E31.59784
G1 X110.360 Y142.953 E31.66383
G1 F4320.000
G1 X110.750 Y142.667 E31.40863
G1 F4320.000
G1 X111.061 Y142.455 E31.20969
G1 F4320.000
G1 X111.413 Y142.232 E30.98999
G1 F4320.000
G1 X111.737 Y142.040 E30.79106
G1 F4320.000
G1 X112.102 Y141.839 E30.57150
G1 F4320.000
G1 X112.438 Y141.668 E30.37256
G1 F4320.000
G1 X112.814 Y141.491 E30.15277
G1 F4320.000
G1 X113.160 Y141.341 E29.95383
G1 F4320.000
G1 X113.547 Y141.188 E29.73432
G1 F4320.000
G1 X113.902 Y141.060 E29.53539
G1 F4320.000
G1 X114.298 Y140.932 E29.31570
G1 F4320.000
G1 X114.660 Y140.827 E29.11676
G1 F4320.000
G1 X115.063 Y140.723 E28.89714
G1 F4320.000
G1 X115.217 Y140.689 E28.81383
G1 E28.66383 F2400.00000
G92 E0
G1 X179.499 Y180.812 F5400.000
G1 E3.00000 F2400.00000
G1 F450.000
G1 X179.137 Y181.058 E3.03974
G1 X178.865 Y181.186 E3.06709
G1 X178.579 Y181.279 E3.09443
G1 X178.148 Y181.347 E3.13417
G1 X177.705 Y181.333 E3.17442
G1 X177.273 Y181.236 E3.21467
G1 X176.867 Y181.061 E3.25491
G1 X176.501 Y180.812 E3.29516
G1 X176.188 Y180.499 E3.33540
G1 X175.942 Y180.137 E3.37515
G1 X175.814 Y179.865 E3.40249
G1 X175.721 Y179.579 E3.42983
G1 X175.653 Y179.148 E3.46958
G1 X175.667 Y178.705 E3.50982
G1 X175.764 Y178.273 E3.55007
G1 X175.939 Y177.867 E3.59031
G1 X176.188 Y177.501 E3.63056
G1 X176.501 Y177.188 E3.67080
G1 X176.863 Y176.942 E3.71055
G1 X177.135 Y176.814 E3.73789
G1 X177.421 Y176.721 E3.76524
G1 X177.847 Y176.654 E3.80447
G1 X178.148 Y176.654 E3.83182
G1 X178.446 Y176.692 E3.85916
G1 X178.866 Y176.814 E3.89891
G1 X179.260 Y177.015 E3.93915
G1 X179.610 Y177.286 E3.97940
G1 X179.902 Y177.618 E4.01964
G1 X180.128 Y177.999 E4.05989
G1 X180.278 Y178.415 E4.10014
G1 X180.347 Y178.852 E4.14038
G1 X180.333 Y179.295 E4.18063
G1 X180.236 Y179.727 E4.22087
G1 X180.061 Y180.133 E4.26112
G1 X179.812 Y180.499 E4.30136
G1 X179.547 Y180.764 E4.33547
G1 X179.499 Y180.812 F5400.000
G1 F4320.000
G1 X179.499 Y180.812 E4.29985
G1 F4320.000
G1 X179.137 Y181.058 E4.06916
G1 F4320.000
G1 X178.865 Y181.186 E3.91045
G1 F4320.000
G1 X178.579 Y181.279 E3.75175
G1 F4320.000
G1 X178.148 Y181.347 E3.52107
G1 F4320.000
G1 X177.705 Y181.333 E3.28747
G1 F4320.000
G1 X177.273 Y181.236 E3.05387
G1 F4320.000
G1 X176.867 Y181.061 E2.82028
G1 F4320.000
G1 X176.501 Y180.812 E2.58668
G1 F4320.000
G1 X176.188 Y180.499 E2.35309
G1 F4320.000
G1 X175.942 Y180.137 E2.12241
G1 F4320.000
G1 X175.814 Y179.865 E1.96369
G1 F4320.000
G1 X175.721 Y179.579 E1.80498
G1 F4320.000
G1 X175.653 Y179.148 E1.57431
G1 F4320.000
G1 X175.658 Y178.979 E1.48547
G1 E1.33547 F2400.00000
G92 E0
G1 X192.363 Y173.000 F5400.000
G1 E3.00000 F2400.00000
G1 F1800.000
G1 X196.181 Y166.386 E3.69445
G1 X203.819 Y166.386 E4.38891
G1 X207.637 Y173.000 E5.08336
G1 X203.819 Y179.614 E5.77781
G1 X196.181 Y179.614 E6.47227
G1 X192.396 Y173.058 E7.16058
G1 X193.084 Y173.000 F5400.000
G1 F1800.000
G1 X196.542 Y167.011 E7.78942
G1 X203.458 Y167.011 E8.41826
G1 X206.916 Y173.000 E9.04711
G1 X203.458 Y178.989 E9.67595
G1 X196.542 Y178.989 E10.30479
G1 X193.118 Y173.058 E10.92750
G1 X193.806 Y173.000 F5400.000
G1 F450.000
G1 X196.903 Y167.636 E11.49073
G1 X203.097 Y167.636 E12.05396
G1 X206.194 Y173.000 E12.61719
G1 X203.097 Y178.364 E13.18042
G1 X196.903 Y178.364 E13.74365
G1 X193.840 Y173.058 E14.30074
G1 X193.416 Y172.775 F5400.000
G1 F4320.000
G1 X196.496 Y168.357 E11.45074
G1 E11.30074 F2400.00000
G92 E0
G1 X192.226 Y160.600 F5400.000
G1 E3.00000 F2400.00000
G1 F450.000
G1 X191.548 Y160.578 E3.06173
G1 X190.885 Y160.430 E3.12346
G1 X190.262 Y160.161 E3.18519
G1 X189.701 Y159.779 E3.24692
G1 X189.221 Y159.299 E3.30865
G1 X188.853 Y158.759 E3.36808
G1 X188.650 Y158.326 E3.41152
G1 X188.502 Y157.872 E3.45495
G1 X188.400 Y157.226 E3.51438
G1 X188.422 Y156.548 E3.57611
G1 X188.570 Y155.885 E3.63784
G1 X188.839 Y155.262 E3.69957
G1 X189.221 Y154.701 E3.76130
G1 X189.701 Y154.221 E3.82303
G1 X190.241 Y153.853 E3.88246
G1 X190.674 Y153.650 E3.92590
G1 X191.128 Y153.502 E3.96934
G1 X191.774 Y153.400 E4.02877
G1 X192.452 Y153.422 E4.09050
G1 X193.115 Y153.570 E4.15223
G1 X193.738 Y153.839 E4.21396
G1 X194.278 Y154.207 E4.27339
G1 X194.626 Y154.534 E4.31683
G1 X194.931 Y154.902 E4.36026
G1 X195.264 Y155.464 E4.41969
G1 X195.494 Y156.103 E4.48142
G1 X195.600 Y156.774 E4.54315
G1 X195.578 Y157.452 E4.60488
G1 X195.430 Y158.115 E4.66661
G1 X195.161 Y158.738 E4.72834
G1 X194.779 Y159.299 E4.79007
G1 X194.299 Y159.779 E4.85180
G1 X193.759 Y160.147 E4.91123
G1 X193.326 Y160.350 E4.95467
G1 X192.872 Y160.498 E4.99811
G1 X192.293 Y160.589 E5.05140
G1 X192.187 Y159.973 F5400.000
G1 F450.000
G1 X191.627 Y159.956 E5.10239
G1 X191.079 Y159.833 E5.15337
G1 X190.565 Y159.611 E5.20436
G1 X190.101 Y159.296 E5.25535
G1 X189.704 Y158.899 E5.30634
G1 X189.398 Y158.448 E5.35592
G1 X189.232 Y158.096 E5.39131
G1 X189.112 Y157.726 E5.42670
G1 X189.027 Y157.187 E5.47629
G1 X189.044 Y156.627 E5.52728
G1 X189.167 Y156.079 E5.57827
G1 X189.389 Y155.565 E5.62925
G1 X189.704 Y155.101 E5.68024
G1 X190.101 Y154.704 E5.73123
G1 X190.552 Y154.398 E5.78082
G1 X190.904 Y154.232 E5.81621
G1 X191.274 Y154.112 E5.85160
G1 X191.813 Y154.027 E5.90118
G1 X192.373 Y154.044 E5.95217
G1 X192.921 Y154.167 E6.00316
G1 X193.435 Y154.389 E6.05415
G1 X193.886 Y154.696 E6.10373
G1 X194.170 Y154.962 E6.13913
G1 X194.418 Y155.262 E6.17452
G1 X194.696 Y155.732 E6.22410
G1 X194.886 Y156.259 E6.27509
G1 X194.973 Y156.813 E6.32608
G1 X194.956 Y157.373 E6.37706
G1 X194.833 Y157.921 E6.42805
G1 X194.611 Y158.435 E6.47904
G1 X194.296 Y158.899 E6.53003
G1 X193.899 Y159.296 E6.58101
G1 X193.448 Y159.602 E6.63060
G1 X193.096 Y159.768 E6.66599
G1 X192.726 Y159.888 E6.70138
G1 X192.254 Y159.963 E6.74483
G1 X192.148 Y159.347 F5400.000
G1 F450.000
G1 X191.705 Y159.333 E6.78508
G1 X191.273 Y159.236 E6.82532
G1 X190.867 Y159.061 E6.86557
G1 X190.501 Y158.812 E6.90581
G1 X190.188 Y158.499 E6.94606
G1 X189.942 Y158.137 E6.98580
G1 X189.814 Y157.865 E7.01315
G1 X189.721 Y157.579 E7.04049
G1 X189.653 Y157.148 E7.08023
G1 X189.667 Y156.705 E7.12048
G1 X189.764 Y156.273 E7.16072
G1 X189.939 Y155.867 E7.20097
G1 X190.188 Y155.501 E7.24122
G1 X190.501 Y155.188 E7.28146
G1 X190.863 Y154.942 E7.32120
G1 X191.135 Y154.814 E7.34855
G1 X191.421 Y154.721 E7.37589
G1 X191.852 Y154.653 E7.41564
G1 X192.295 Y154.667 E7.45588
G1 X192.727 Y154.764 E7.49613
G1 X193.133 Y154.939 E7.53637
G1 X193.494 Y155.185 E7.57612
G1 X193.714 Y155.391 E7.60346
G1 X193.905 Y155.623 E7.63080
G1 X194.128 Y155.999 E7.67055
G1 X194.278 Y156.415 E7.71079
G1 X194.347 Y156.852 E7.75104
G1 X194.333 Y157.295 E7.79128
G1 X194.236 Y157.727 E7.83153
G1 X194.061 Y158.133 E7.87177
G1 X193.812 Y158.499 E7.91202
G1 X193.499 Y158.812 E7.95226
G1 X193.137 Y159.058 E7.99201
G1 X192.865 Y159.186 E8.01935
G1 X192.579 Y159.279 E8.04670
G1 X192.214 Y159.336 E8.08030
G1 X192.148 Y159.347 F5400.000
G1 F4320.000
G1 X192.148 Y159.347 E8.04468
G1 F4320.000
G1 X191.705 Y159.333 E7.81108
G1 F4320.000
G1 X191.273 Y159.236 E7.57748
G1 F4320.000
G1 X190.867 Y159.061 E7.34389
G1 F4320.000
G1 X190.501 Y158.812 E7.11029
G1 F4320.000
G1 X190.188 Y158.499 E6.87670
G1 F4320.000
G1 X189.942 Y158.137 E6.64602
G1 F4320.000
G1 X189.814 Y157.865 E6.48730
G1 F4320.000
G1 X189.721 Y157.579 E6.32859
G1 F4320.000
G1 X189.653 Y157.148 E6.09792
G1 F4320.000
G1 X189.667 Y156.705 E5.86433
G1 F4320.000
G1 X189.764 Y156.273 E5.63073
G1 F4320.000
G1 X189.939 Y155.867 E5.39714
G1 F4320.000
G1 X190.117 Y155.606 E5.23030
G1 E5.08030 F2400.00000
G92 E0
G1 X204.428 Y157.402 F5400.000
G1 E3.00000 F2400.00000
G1 F450.000
G1 X204.400 Y157.226 E3.01616
G1 X204.422 Y156.548 E3.07789
G1 X204.570 Y155.885 E3.13962
G1 X204.839 Y155.262 E3.20135
G1 X205.221 Y154.701 E3.26308
G1 X205.701 Y154.221 E3.32481
G1 X206.241 Y153.853 E3.38424
G1 X206.674 Y153.650 E3.42768
G1 X207.128 Y153.502 E3.47111
G1 X207.774 Y153.400 E3.53055
G1 X208.452 Y153.422 E3.59227
G1 X209.115 Y153.570 E3.65400
G1 X209.738 Y153.839 E3.71573
G1 X210.299 Y154.221 E3.77747
G1 X210.779 Y154.701 E3.83919
G1 X211.147 Y155.241 E3.89862
G1 X211.350 Y155.674 E3.94206
G1 X211.498 Y156.128 E3.98550
G1 X211.600 Y156.774 E4.04493
G1 X211.578 Y157.452 E4.10666
G1 X211.430 Y158.115 E4.16839
G1 X211.161 Y158.738 E4.23012
G1 X210.779 Y159.299 E4.29185
G1 X210.299 Y159.779 E4.35358
G1 X209.759 Y160.147 E4.41301
G1 X209.326 Y160.350 E4.45644
G1 X208.872 Y160.498 E4.49988
G1 X208.251 Y160.596 E4.55701
G1 X207.774 Y160.596 E4.60045
G1 X207.300 Y160.536 E4.64389
G1 X206.672 Y160.354 E4.70331
G1 X206.067 Y160.045 E4.76504
G1 X205.531 Y159.629 E4.82677
G1 X205.082 Y159.120 E4.88850
G1 X204.736 Y158.536 E4.95023
G1 X204.506 Y157.897 E5.01196
G1 X204.439 Y157.469 E5.05140
G1 X205.045 Y157.304 F5400.000
G1 F450.000
G1 X205.027 Y157.187 E5.06219
G1 X205.044 Y156.627 E5.11317
G1 X205.167 Y156.079 E5.16416
G1 X205.389 Y155.565 E5.21515
G1 X205.704 Y155.101 E5.26614
G1 X206.101 Y154.704 E5.31712
G1 X206.552 Y154.398 E5.36671
G1 X206.904 Y154.232 E5.40210
G1 X207.274 Y154.112 E5.43749
G1 X207.813 Y154.027 E5.48708
G1 X208.373 Y154.044 E5.53807
G1 X208.921 Y154.167 E5.58905
G1 X209.435 Y154.389 E5.64004
G1 X209.899 Y154.704 E5.69103
G1 X210.296 Y155.101 E5.74202
G1 X210.602 Y155.552 E5.79160
G1 X210.768 Y155.904 E5.82699
G1 X210.888 Y156.274 E5.86238
G1 X210.973 Y156.813 E5.91197
G1 X210.956 Y157.373 E5.96296
G1 X210.833 Y157.921 E6.01395
G1 X210.611 Y158.435 E6.06493
G1 X210.296 Y158.899 E6.11592
G1 X209.899 Y159.296 E6.16691
G1 X209.448 Y159.602 E6.21650
G1 X209.096 Y159.768 E6.25189
G1 X208.726 Y159.888 E6.28728
G1 X208.202 Y159.971 E6.33546
G1 X207.813 Y159.971 E6.37085
G1 X207.427 Y159.922 E6.40624
G1 X206.903 Y159.770 E6.45583
G1 X206.404 Y159.515 E6.50682
G1 X205.961 Y159.172 E6.55780
G1 X205.590 Y158.751 E6.60879
G1 X205.304 Y158.268 E6.65978
G1 X205.114 Y157.741 E6.71077
G1 X205.056 Y157.371 E6.74483
G1 X205.662 Y157.207 F5400.000
G1 F450.000
G1 X205.667 Y156.705 E6.79041
G1 X205.764 Y156.273 E6.83065
G1 X205.939 Y155.867 E6.87090
G1 X206.188 Y155.501 E6.91114
G1 X206.501 Y155.188 E6.95139
G1 X206.863 Y154.942 E6.99113
G1 X207.135 Y154.814 E7.01848
G1 X207.421 Y154.721 E7.04582
G1 X207.852 Y154.653 E7.08556
G1 X208.295 Y154.667 E7.12581
G1 X208.727 Y154.764 E7.16605
G1 X209.133 Y154.939 E7.20630
G1 X209.499 Y155.188 E7.24655
G1 X209.812 Y155.501 E7.28679
G1 X210.058 Y155.863 E7.32653
G1 X210.186 Y156.135 E7.35388
G1 X210.279 Y156.421 E7.38122
G1 X210.347 Y156.852 E7.42096
G1 X210.333 Y157.295 E7.46121
G1 X210.236 Y157.727 E7.50145
G1 X210.061 Y158.133 E7.54170
G1 X209.812 Y158.499 E7.58195
G1 X209.499 Y158.812 E7.62219
G1 X209.137 Y159.058 E7.66193
G1 X208.865 Y159.186 E7.68928
G1 X208.579 Y159.279 E7.71662
G1 X208.153 Y159.346 E7.75586
G1 X207.852 Y159.346 E7.78321
G1 X207.554 Y159.308 E7.81055
G1 X207.134 Y159.186 E7.85029
G1 X206.740 Y158.985 E7.89054
G1 X206.390 Y158.714 E7.93078
G1 X206.098 Y158.382 E7.97103
G1 X205.872 Y158.001 E8.01128
G1 X205.722 Y157.585 E8.05152
G1 X205.673 Y157.273 E8.08021
G1 X205.606 Y157.187 F5400.000
G1 F4320.000
G1 X205.653 Y157.148 E8.01313
G1 F4320.000
G1 X205.667 Y156.705 E7.77954
G1 F4320.000
G1 X205.764 Y156.273 E7.54594
G1 F4320.000
G1 X205.939 Y155.867 E7.31235
G1 F4320.000
G1 X206.188 Y155.501 E7.07875
G1 F4320.000
G1 X206.501 Y155.188 E6.84516
G1 F4320.000
G1 X206.863 Y154.942 E6.61448
G1 F4320.000
G1 X207.135 Y154.814 E6.45577
G1 F4320.000
G1 X207.421 Y154.721 E6.29705
G1 F4320.000
G1 X207.852 Y154.653 E6.06638
G1 F4320.000
G1 X208.295 Y154.667 E5.83279
G1 F4320.000
G1 X208.727 Y154.764 E5.59919
G1 F4320.000
G1 X209.133 Y154.939 E5.36560
G1 F4320.000
G1 X209.345 Y155.084 E5.23021
G1 E5.08021 F2400.00000
G92 E0
G1 X180.712 Y181.398 F5400.000
G1 E3.00000 F2400.00000
G1 F1800.000
G1 X181.161 Y180.738 E3.07262
G1 X181.430 Y180.115 E3.13435
G1 X181.578 Y179.452 E3.19608
G1 X181.600 Y178.774 E3.25781
G1 X181.494 Y178.103 E3.31954
G1 X181.264 Y177.464 E3.38127
G1 X180.918 Y176.880 E3.44300
G1 X180.469 Y176.371 E3.50473
G1 X179.933 Y175.955 E3.56646
G1 X179.328 Y175.646 E3.62819
G1 X178.700 Y175.464 E3.68762
G1 X178.226 Y175.404 E3.73106
G1 X177.749 Y175.404 E3.77449
G1 X177.128 Y175.502 E3.83162
