; generated by Slic3r 1.3.1-dev (Build 18ddd3a36dc69d81fb9b7440498bff9e1dde8b7e) on 2021-07-22 at 20:15:55

; external perimeters extrusion width = 0.49mm (3.88mm^3/s)
; perimeters extrusion width = 0.59mm (9.54mm^3/s)
; infill extrusion width = 0.56mm (11.95mm^3/s)
; solid infill extrusion width = 0.59mm (3.18mm^3/s)
; top infill extrusion width = 0.59mm (2.39mm^3/s)
; support material extrusion width = 0.49mm (7.75mm^3/s)

M107
G92 E0
M190 S45 ; set bed temperature and wait for it to be reached
M104 S226 ; set temperature
G28 ; home all axes
G1 Z5 F5000 ; lift nozzle

; Filament gcode

M109 S226 ; set temperature and wait for it to be reached
G21 ; set units to millimeters
G90 ; use absolute coordinates
M82 ; use absolute distances for extrusion
G92 E0
G1 E-3.00000 F2400.00000
G92 E0
G1 Z0.350 F5400.000
G1 X144.208 Y143.942 F5400.000
G1 E3.00000 F2400.00000
G1 F1800.000
G1 X144.794 Y143.408 E3.07210
G1 X145.115 Y143.142 E3.10996
G1 X145.750 Y142.667 E3.18206
G1 X146.413 Y142.232 E3.25418
G1 X147.438 Y141.668 E3.36052
G1 X148.160 Y141.341 E3.43265
G1 X148.902 Y141.060 E3.50473
G1 X149.298 Y140.932 E3.54258
G1 X150.430 Y140.641 E3.64894
G1 X150.839 Y140.563 E3.68680
G1 X151.624 Y140.452 E3.75889
G1 X152.415 Y140.390 E3.83101
G1 X153.000 Y140.375 E3.88420
G1 X177.000 Y140.375 E6.06651
G1 X177.585 Y140.390 E6.11971
G1 X178.376 Y140.452 E6.19183
G1 X179.161 Y140.563 E6.26392
G1 X179.570 Y140.641 E6.30178
G1 X180.702 Y140.932 E6.40813
G1 X181.098 Y141.060 E6.44598
G1 X181.840 Y141.341 E6.51807
G1 X182.898 Y141.839 E6.62445
G1 X183.587 Y142.232 E6.69654
G1 X183.939 Y142.455 E6.73439
G1 X184.885 Y143.142 E6.84074
G1 X185.488 Y143.657 E6.91287
G1 X186.058 Y144.208 E6.98497
G1 X186.592 Y144.794 E7.05706
G1 X186.858 Y145.115 E7.09493
G1 X187.333 Y145.750 E7.16702
G1 X187.768 Y146.413 E7.23914
G1 X188.332 Y147.438 E7.34548
G1 X188.659 Y148.160 E7.41761
G1 X188.940 Y148.902 E7.48970
G1 X189.068 Y149.298 E7.52755
G1 X189.359 Y150.430 E7.63390
G1 X189.437 Y150.839 E7.67176
G1 X189.548 Y151.624 E7.74386
G1 X189.610 Y152.415 E7.81597
G1 X189.625 Y153.000 E7.86917
G1 X189.625 Y177.000 E10.05148
G1 X189.610 Y177.585 E10.10468
G1 X189.548 Y178.376 E10.17679
G1 X189.437 Y179.161 E10.24889
G1 X189.359 Y179.570 E10.28675
G1 X189.068 Y180.702 E10.39310
G1 X188.940 Y181.098 E10.43094
G1 X188.659 Y181.840 E10.50303
G1 X188.161 Y182.898 E10.60941
G1 X187.768 Y183.587 E10.68151
G1 X187.545 Y183.939 E10.71936
G1 X187.089 Y184.587 E10.79146
G1 X186.592 Y185.206 E10.86358
G1 X185.792 Y186.058 E10.96993
G1 X185.206 Y186.592 E11.04203
G1 X184.885 Y186.858 E11.07989
G1 X184.250 Y187.333 E11.15199
G1 X183.587 Y187.768 E11.22411
G1 X182.562 Y188.332 E11.33045
G1 X181.840 Y188.659 E11.40258
G1 X181.098 Y188.940 E11.47467
G1 X180.702 Y189.068 E11.51252
G1 X179.570 Y189.359 E11.61886
G1 X179.161 Y189.437 E11.65673
G1 X178.376 Y189.548 E11.72882
G1 X177.585 Y189.610 E11.80094
G1 X177.000 Y189.625 E11.85413
G1 X153.000 Y189.625 E14.03644
G1 X152.415 Y189.610 E14.08964
G1 X151.624 Y189.548 E14.16175
G1 X150.839 Y189.437 E14.23385
G1 X150.430 Y189.359 E14.27171
G1 X149.298 Y189.068 E14.37806
G1 X148.902 Y188.940 E14.41591
G1 X148.160 Y188.659 E14.48800
G1 X147.102 Y188.161 E14.59438
G1 X146.413 Y187.768 E14.66647
G1 X146.061 Y187.545 E14.70432
G1 X145.413 Y187.089 E14.77642
G1 X144.794 Y186.592 E14.84855
G1 X143.942 Y185.792 E14.95490
G1 X143.408 Y185.206 E15.02699
G1 X143.142 Y184.885 E15.06486
G1 X142.667 Y184.250 E15.13696
G1 X142.232 Y183.587 E15.20907
G1 X141.668 Y182.562 E15.31541
G1 X141.341 Y181.840 E15.38755
G1 X141.060 Y181.098 E15.45963
G1 X140.932 Y180.702 E15.49748
G1 X140.641 Y179.570 E15.60383
G1 X140.563 Y179.161 E15.64169
G1 X140.452 Y178.376 E15.71379
G1 X140.390 Y177.585 E15.78590
G1 X140.375 Y177.000 E15.83910
G1 X140.375 Y153.000 E18.02141
G1 X140.390 Y152.415 E18.07461
G1 X140.452 Y151.624 E18.14672
G1 X140.563 Y150.839 E18.21882
G1 X140.641 Y150.430 E18.25668
G1 X140.932 Y149.298 E18.36303
G1 X141.060 Y148.902 E18.40088
G1 X141.341 Y148.160 E18.47296
G1 X141.839 Y147.102 E18.57934
G1 X142.232 Y146.413 E18.65144
G1 X142.455 Y146.061 E18.68929
G1 X143.142 Y145.115 E18.79564
G1 X143.657 Y144.512 E18.86776
G1 X144.160 Y143.989 E18.93373
G1 F4320.000
G1 X144.512 Y143.657 E18.67851
G1 F4320.000
G1 X144.794 Y143.408 E18.47958
G1 F4320.000
G1 X145.115 Y143.142 E18.25983
G1 F4320.000
G1 X145.413 Y142.911 E18.06089
G1 F4320.000
G1 X145.750 Y142.667 E17.84130
G1 F4320.000
G1 X146.061 Y142.455 E17.64236
G1 F4320.000
G1 X146.413 Y142.232 E17.42266
G1 F4320.000
G1 X146.737 Y142.040 E17.22373
G1 F4320.000
G1 X147.102 Y141.839 E17.00416
G1 F4320.000
G1 X147.438 Y141.668 E16.80523
G1 F4320.000
G1 X147.814 Y141.491 E16.58544
G1 F4320.000
G1 X148.160 Y141.341 E16.38650
G1 F4320.000
G1 X148.547 Y141.188 E16.16699
G1 F4320.000
G1 X148.696 Y141.135 E16.08373
G1 E15.93373 F2400.00000
G92 E0
G1 X167.957 Y175.777 F5400.000
G1 E3.00000 F2400.00000
G1 F450.000
G1 X167.385 Y176.282 E3.06943
G1 X166.727 Y176.671 E3.13886
G1 X166.009 Y176.929 E3.20829
G1 X165.255 Y177.049 E3.27773
G1 X164.492 Y177.025 E3.34716
G1 X163.746 Y176.858 E3.41659
G1 X163.046 Y176.555 E3.48602
G1 X162.435 Y176.140 E3.55315
G1 X162.046 Y175.774 E3.60173
G1 X161.705 Y175.363 E3.65031
G1 X161.329 Y174.727 E3.71744
G1 X161.071 Y174.009 E3.78687
G1 X160.951 Y173.255 E3.85630
G1 X160.974 Y172.517 E3.92343
G1 X161.074 Y171.992 E3.97201
G1 X161.239 Y171.484 E4.02058
G1 X161.575 Y170.826 E4.08771
G1 X162.043 Y170.223 E4.15714
G1 X162.615 Y169.718 E4.22658
G1 X163.273 Y169.329 E4.29601
G1 X163.991 Y169.071 E4.36544
G1 X164.745 Y168.951 E4.43487
G1 X165.508 Y168.975 E4.50430
G1 X166.229 Y169.136 E4.57143
G1 X166.726 Y169.333 E4.62001
G1 X167.194 Y169.590 E4.66859
G1 X167.777 Y170.043 E4.73572
G1 X168.282 Y170.615 E4.80515
G1 X168.671 Y171.273 E4.87458
G1 X168.929 Y171.991 E4.94401
G1 X169.045 Y172.720 E5.01114
G1 X169.045 Y173.254 E5.05972
G1 X168.978 Y173.784 E5.10830
G1 X168.772 Y174.493 E5.17543
G1 X168.425 Y175.174 E5.24486
G1 X167.999 Y175.724 E5.30815
G1 X167.500 Y175.347 F5400.000
G1 F450.000
G1 X167.016 Y175.774 E5.36684
G1 X166.460 Y176.103 E5.42553
G1 X165.853 Y176.321 E5.48422
G1 X165.215 Y176.422 E5.54291
G1 X164.570 Y176.402 E5.60160
G1 X163.940 Y176.261 E5.66029
G1 X163.348 Y176.005 E5.71898
G1 X162.827 Y175.651 E5.77626
G1 X162.502 Y175.346 E5.81679
G1 X162.218 Y175.002 E5.85733
G1 X161.897 Y174.460 E5.91461
G1 X161.679 Y173.853 E5.97330
G1 X161.578 Y173.215 E6.03199
G1 X161.597 Y172.586 E6.08928
G1 X161.681 Y172.148 E6.12981
G1 X161.819 Y171.724 E6.17034
G1 X162.105 Y171.163 E6.22762
G1 X162.500 Y170.653 E6.28631
G1 X162.984 Y170.226 E6.34500
G1 X163.540 Y169.897 E6.40369
G1 X164.147 Y169.678 E6.46238
G1 X164.785 Y169.578 E6.52107
G1 X165.430 Y169.598 E6.57976
G1 X166.045 Y169.735 E6.63705
G1 X166.459 Y169.899 E6.67758
G1 X166.850 Y170.114 E6.71811
G1 X167.347 Y170.500 E6.77540
G1 X167.774 Y170.984 E6.83408
G1 X168.103 Y171.540 E6.89277
G1 X168.321 Y172.147 E6.95146
G1 X168.420 Y172.769 E7.00875
G1 X168.420 Y173.215 E7.04928
G1 X168.364 Y173.657 E7.08981
G1 X168.188 Y174.262 E7.14710
G1 X167.895 Y174.837 E7.20579
G1 X167.541 Y175.294 E7.25834
G1 X167.042 Y174.918 F5400.000
G1 F450.000
G1 X166.647 Y175.267 E7.30629
G1 X166.193 Y175.535 E7.35423
G1 X165.697 Y175.714 E7.40218
G1 X165.176 Y175.796 E7.45013
G1 X164.649 Y175.779 E7.49807
G1 X164.134 Y175.664 E7.54602
G1 X163.650 Y175.455 E7.59397
G1 X163.219 Y175.162 E7.64141
G1 X162.958 Y174.917 E7.67390
G1 X162.731 Y174.642 E7.70638
G1 X162.465 Y174.193 E7.75382
G1 X162.286 Y173.697 E7.80177
G1 X162.204 Y173.176 E7.84972
G1 X162.220 Y172.654 E7.89716
G1 X162.287 Y172.303 E7.92964
G1 X162.398 Y171.964 E7.96213
G1 X162.635 Y171.499 E8.00957
G1 X162.958 Y171.082 E8.05752
G1 X163.353 Y170.733 E8.10547
G1 X163.807 Y170.465 E8.15341
G1 X164.303 Y170.286 E8.20136
G1 X164.824 Y170.204 E8.24931
G1 X165.351 Y170.221 E8.29725
G1 X165.860 Y170.334 E8.34470
G1 X166.192 Y170.466 E8.37718
G1 X166.506 Y170.638 E8.40967
G1 X166.918 Y170.958 E8.45711
G1 X167.267 Y171.353 E8.50506
G1 X167.535 Y171.807 E8.55300
G1 X167.714 Y172.303 E8.60095
G1 X167.795 Y172.819 E8.64839
G1 X167.795 Y173.176 E8.68088
G1 X167.750 Y173.530 E8.71336
G1 X167.605 Y174.031 E8.76080
G1 X167.365 Y174.501 E8.80875
G1 X167.084 Y174.864 E8.85056
G1 X167.042 Y174.918 F5400.000
G1 F4320.000
G1 X167.042 Y174.918 E8.81494
G1 F4320.000
G1 X166.647 Y175.267 E8.53664
G1 F4320.000
G1 X166.193 Y175.535 E8.25834
G1 F4320.000
G1 X165.697 Y175.714 E7.98005
G1 F4320.000
G1 X165.176 Y175.796 E7.70175
G1 F4320.000
G1 X164.649 Y175.779 E7.42345
G1 F4320.000
G1 X164.134 Y175.664 E7.14515
G1 F4320.000
G1 X163.650 Y175.455 E6.86686
G1 F4320.000
G1 X163.219 Y175.162 E6.59148
G1 F4320.000
G1 X162.958 Y174.917 E6.40294
G1 F4320.000
G1 X162.731 Y174.642 E6.21440
G1 F4320.000
G1 X162.524 Y174.293 E6.00056
G1 E5.85056 F2400.00000
G92 E0
G1 X158.759 Y160.147 F5400.000
G1 E3.00000 F2400.00000
G1 F450.000
G1 X158.326 Y160.350 E3.04344
G1 X157.872 Y160.498 E3.08687
G1 X157.226 Y160.600 E3.14630
G1 X156.548 Y160.578 E3.20803
G1 X155.885 Y160.430 E3.26976
G1 X155.262 Y160.161 E3.33149
G1 X154.701 Y159.779 E3.39322
G1 X154.221 Y159.299 E3.45495
G1 X153.853 Y158.759 E3.51438
G1 X153.650 Y158.326 E3.55782
G1 X153.502 Y157.872 E3.60126
G1 X153.400 Y157.226 E3.66069
G1 X153.422 Y156.548 E3.72242
G1 X153.570 Y155.885 E3.78415
G1 X153.839 Y155.262 E3.84588
G1 X154.221 Y154.701 E3.90761
G1 X154.701 Y154.221 E3.96934
G1 X155.241 Y153.853 E4.02877
G1 X155.674 Y153.650 E4.07220
G1 X156.128 Y153.502 E4.11564
G1 X156.774 Y153.400 E4.17507
G1 X157.452 Y153.422 E4.23680
G1 X158.115 Y153.570 E4.29853
G1 X158.738 Y153.839 E4.36026
G1 X159.299 Y154.221 E4.42199
G1 X159.779 Y154.701 E4.48372
G1 X160.147 Y155.241 E4.54315
G1 X160.350 Y155.674 E4.58659
G1 X160.498 Y156.128 E4.63002
G1 X160.600 Y156.774 E4.68945
G1 X160.578 Y157.452 E4.75118
G1 X160.430 Y158.115 E4.81291
G1 X160.161 Y158.738 E4.87464
G1 X159.779 Y159.299 E4.93638
G1 X159.299 Y159.779 E4.99810
G1 X158.814 Y160.109 E5.05140
G1 X158.448 Y159.602 F5400.000
G1 F450.000
G1 X158.096 Y159.768 E5.08679
G1 X157.726 Y159.888 E5.12218
G1 X157.187 Y159.973 E5.17176
G1 X156.627 Y159.956 E5.22275
G1 X156.079 Y159.833 E5.27374
G1 X155.565 Y159.611 E5.32473
G1 X155.101 Y159.296 E5.37572
G1 X154.704 Y158.899 E5.42670
G1 X154.398 Y158.448 E5.47629
G1 X154.232 Y158.096 E5.51168
G1 X154.112 Y157.726 E5.54707
G1 X154.027 Y157.187 E5.59666
G1 X154.044 Y156.627 E5.64764
G1 X154.167 Y156.079 E5.69863
G1 X154.389 Y155.565 E5.74962
G1 X154.704 Y155.101 E5.80061
G1 X155.101 Y154.704 E5.85159
G1 X155.552 Y154.398 E5.90118
G1 X155.904 Y154.232 E5.93657
G1 X156.274 Y154.112 E5.97196
G1 X156.813 Y154.027 E6.02155
G1 X157.373 Y154.044 E6.07254
G1 X157.921 Y154.167 E6.12352
G1 X158.435 Y154.389 E6.17451
G1 X158.899 Y154.704 E6.22550
G1 X159.296 Y155.101 E6.27649
G1 X159.602 Y155.552 E6.32607
G1 X159.768 Y155.904 E6.36146
G1 X159.888 Y156.274 E6.39685
G1 X159.973 Y156.813 E6.44644
G1 X159.956 Y157.373 E6.49743
G1 X159.833 Y157.921 E6.54842
G1 X159.611 Y158.435 E6.59940
G1 X159.296 Y158.899 E6.65039
G1 X158.899 Y159.296 E6.70138
G1 X158.504 Y159.564 E6.74483
G1 X158.137 Y159.058 F5400.000
G1 F450.000
G1 X157.865 Y159.186 E6.77217
G1 X157.579 Y159.279 E6.79952
G1 X157.148 Y159.347 E6.83926
G1 X156.705 Y159.333 E6.87950
G1 X156.273 Y159.236 E6.91975
G1 X155.867 Y159.061 E6.95999
G1 X155.501 Y158.812 E7.00024
G1 X155.188 Y158.499 E7.04049
G1 X154.942 Y158.137 E7.08023
G1 X154.814 Y157.865 E7.10757
G1 X154.721 Y157.579 E7.13492
G1 X154.653 Y157.148 E7.17466
G1 X154.667 Y156.705 E7.21490
G1 X154.764 Y156.273 E7.25515
G1 X154.939 Y155.867 E7.29540
G1 X155.188 Y155.501 E7.33564
G1 X155.501 Y155.188 E7.37589
G1 X155.863 Y154.942 E7.41563
G1 X156.135 Y154.814 E7.44297
G1 X156.421 Y154.721 E7.47032
G1 X156.852 Y154.653 E7.51006
G1 X157.295 Y154.667 E7.55031
G1 X157.727 Y154.764 E7.59055
G1 X158.133 Y154.939 E7.63080
G1 X158.499 Y155.188 E7.67104
G1 X158.812 Y155.501 E7.71129
G1 X159.058 Y155.863 E7.75103
G1 X159.186 Y156.135 E7.77838
G1 X159.279 Y156.421 E7.80572
G1 X159.347 Y156.852 E7.84546
G1 X159.333 Y157.295 E7.88571
G1 X159.236 Y157.727 E7.92595
G1 X159.061 Y158.133 E7.96620
G1 X158.812 Y158.499 E8.00644
G1 X158.499 Y158.812 E8.04669
G1 X158.193 Y159.020 E8.08029
G1 X158.137 Y159.058 F5400.000
G1 F4320.000
G1 X158.137 Y159.058 E8.04467
G1 F4320.000
G1 X157.865 Y159.186 E7.88595
G1 F4320.000
G1 X157.579 Y159.279 E7.72724
G1 F4320.000
G1 X157.148 Y159.347 E7.49657
G1 F4320.000
G1 X156.705 Y159.333 E7.26298
G1 F4320.000
G1 X156.273 Y159.236 E7.02938
G1 F4320.000
G1 X155.867 Y159.061 E6.79579
G1 F4320.000
G1 X155.501 Y158.812 E6.56219
G1 F4320.000
G1 X155.188 Y158.499 E6.32860
G1 F4320.000
G1 X154.942 Y158.137 E6.09792
G1 F4320.000
G1 X154.814 Y157.865 E5.93920
G1 F4320.000
G1 X154.721 Y157.579 E5.78049
G1 F4320.000
G1 X154.653 Y157.148 E5.54982
G1 F4320.000
G1 X154.667 Y156.705 E5.31623
G1 F4320.000
G1 X154.703 Y156.546 E5.23029
G1 E5.08029 F2400.00000
G92 E0
G1 X169.408 Y157.273 F5400.000
G1 E3.00000 F2400.00000
G1 F450.000
G1 X169.422 Y156.548 E3.06591
G1 X169.570 Y155.885 E3.12764
G1 X169.839 Y155.262 E3.18937
G1 X170.221 Y154.701 E3.25110
G1 X170.701 Y154.221 E3.31283
G1 X171.241 Y153.853 E3.37226
G1 X171.674 Y153.650 E3.41569
G1 X172.128 Y153.502 E3.45913
G1 X172.774 Y153.400 E3.51856
G1 X173.452 Y153.422 E3.58029
G1 X174.115 Y153.570 E3.64202
G1 X174.738 Y153.839 E3.70375
G1 X175.299 Y154.221 E3.76548
G1 X175.779 Y154.701 E3.82721
G1 X176.147 Y155.241 E3.88664
G1 X176.350 Y155.674 E3.93008
G1 X176.498 Y156.128 E3.97351
G1 X176.600 Y156.774 E4.03295
G1 X176.578 Y157.452 E4.09468
G1 X176.430 Y158.115 E4.15640
G1 X176.161 Y158.738 E4.21813
G1 X175.779 Y159.299 E4.27987
G1 X175.299 Y159.779 E4.34159
G1 X174.759 Y160.147 E4.40102
G1 X174.326 Y160.350 E4.44446
G1 X173.872 Y160.498 E4.48790
G1 X173.226 Y160.600 E4.54733
G1 X172.548 Y160.578 E4.60906
G1 X171.885 Y160.430 E4.67079
G1 X171.262 Y160.161 E4.73252
G1 X170.722 Y159.793 E4.79195
G1 X170.374 Y159.466 E4.83539
G1 X170.069 Y159.098 E4.87882
G1 X169.736 Y158.536 E4.93825
G1 X169.506 Y157.897 E4.99998
G1 X169.418 Y157.339 E5.05133
G1 X170.027 Y157.187 F5400.000
G1 F450.000
G1 X170.044 Y156.627 E5.10232
G1 X170.167 Y156.079 E5.15330
G1 X170.389 Y155.565 E5.20429
G1 X170.704 Y155.101 E5.25528
G1 X171.101 Y154.704 E5.30627
G1 X171.552 Y154.398 E5.35585
G1 X171.904 Y154.232 E5.39124
G1 X172.274 Y154.112 E5.42664
G1 X172.813 Y154.027 E5.47622
G1 X173.373 Y154.044 E5.52721
G1 X173.921 Y154.167 E5.57820
G1 X174.435 Y154.389 E5.62918
G1 X174.899 Y154.704 E5.68017
G1 X175.296 Y155.101 E5.73116
G1 X175.602 Y155.552 E5.78075
G1 X175.768 Y155.904 E5.81614
G1 X175.888 Y156.274 E5.85153
G1 X175.973 Y156.813 E5.90111
G1 X175.956 Y157.373 E5.95210
G1 X175.833 Y157.921 E6.00309
G1 X175.611 Y158.435 E6.05408
G1 X175.296 Y158.899 E6.10507
G1 X174.899 Y159.296 E6.15605
G1 X174.448 Y159.602 E6.20564
G1 X174.096 Y159.768 E6.24103
G1 X173.726 Y159.888 E6.27642
G1 X173.187 Y159.973 E6.32601
G1 X172.627 Y159.956 E6.37699
G1 X172.079 Y159.833 E6.42798
G1 X171.565 Y159.611 E6.47897
G1 X171.114 Y159.304 E6.52856
G1 X170.830 Y159.038 E6.56395
G1 X170.582 Y158.738 E6.59934
G1 X170.304 Y158.268 E6.64892
G1 X170.114 Y157.741 E6.69991
G1 X170.037 Y157.254 E6.74476
G1 X170.653 Y157.148 F5400.000
G1 F450.000
G1 X170.667 Y156.705 E6.78501
G1 X170.764 Y156.273 E6.82525
G1 X170.939 Y155.867 E6.86550
G1 X171.188 Y155.501 E6.90574
G1 X171.501 Y155.188 E6.94599
G1 X171.863 Y154.942 E6.98573
G1 X172.135 Y154.814 E7.01308
G1 X172.421 Y154.721 E7.04042
G1 X172.852 Y154.653 E7.08016
G1 X173.295 Y154.667 E7.12041
G1 X173.727 Y154.764 E7.16065
G1 X174.133 Y154.939 E7.20090
G1 X174.499 Y155.188 E7.24115
G1 X174.812 Y155.501 E7.28139
G1 X175.058 Y155.863 E7.32113
G1 X175.186 Y156.135 E7.34848
G1 X175.279 Y156.421 E7.37582
G1 X175.347 Y156.852 E7.41556
G1 X175.333 Y157.295 E7.45581
G1 X175.236 Y157.727 E7.49606
G1 X175.061 Y158.133 E7.53630
G1 X174.812 Y158.499 E7.57655
G1 X174.499 Y158.812 E7.61679
G1 X174.137 Y159.058 E7.65653
G1 X173.865 Y159.186 E7.68388
