; generated by Slic3r 1.3.1-dev (Build 18ddd3a36dc69d81fb9b7440498bff9e1dde8b7e) on 2021-07-22 at 10:09:33

; external perimeters extrusion width = 0.49mm (3.88mm^3/s)
; perimeters extrusion width = 0.59mm (9.54mm^3/s)
; infill extrusion width = 0.56mm (11.95mm^3/s)
; solid infill extrusion width = 0.59mm (3.18mm^3/s)
; top infill extrusion width = 0.59mm (2.39mm^3/s)
; support material extrusion width = 0.49mm (7.75mm^3/s)

M107
G92 E0
M190 S45 ; set bed temperature and wait for it to be reached
M104 S226 ; set temperature
G28 ; home all axes
G1 Z5 F5000 ; lift nozzle

; Filament gcode

M109 S226 ; set temperature and wait for it to be reached
G21 ; set units to millimeters
G90 ; use absolute coordinates
M82 ; use absolute distances for extrusion
G92 E0
G1 E-3.00000 F2400.00000
G92 E0
G1 Z0.350 F5400.000
G1 X136.277 Y135.979 F5400.000
G1 E3.00000 F2400.00000
G1 F1800.000
G1 X136.580 Y135.694 E3.03784
G1 X137.415 Y134.976 E3.13801
G1 X137.956 Y134.555 E3.20035
G1 X138.860 Y133.925 E3.30051
G1 X139.212 Y133.702 E3.33836
G1 X140.166 Y133.153 E3.43853
G1 X140.777 Y132.842 E3.50086
G1 X141.783 Y132.392 E3.60103
G1 X142.815 Y132.007 E3.70120
G1 X143.869 Y131.687 E3.80136
G1 X144.272 Y131.584 E3.83921
G1 X144.941 Y131.434 E3.90155
G1 X146.027 Y131.249 E4.00171
G1 X146.440 Y131.197 E4.03956
G1 X147.538 Y131.106 E4.13972
G1 X148.431 Y131.081 E4.22098
G1 X176.431 Y131.081 E6.76701
G1 X177.740 Y131.132 E6.88610
G1 X178.835 Y131.249 E6.98626
G1 X179.512 Y131.356 E7.04860
G1 X180.590 Y131.584 E7.14877
G1 X181.652 Y131.878 E7.24894
G1 X182.692 Y132.239 E7.34910
G1 X183.709 Y132.665 E7.44927
G1 X184.696 Y133.153 E7.54944
G1 X185.651 Y133.702 E7.64961
G1 X186.002 Y133.925 E7.68745
G1 X186.906 Y134.555 E7.78762
G1 X187.768 Y135.241 E7.88779
G1 X188.586 Y135.979 E7.98795
G1 X217.071 Y164.464 E11.65092
G1 X217.355 Y164.767 E11.68876
G1 X218.074 Y165.602 E11.78893
G1 X218.494 Y166.144 E11.85126
G1 X219.124 Y167.048 E11.95143
G1 X219.696 Y167.989 E12.05160
G1 X220.208 Y168.965 E12.15177
G1 X220.657 Y169.970 E12.25194
G1 X220.811 Y170.357 E12.28978
G1 X221.171 Y171.398 E12.38995
G1 X221.466 Y172.460 E12.49012
G1 X221.694 Y173.537 E12.59028
G1 X221.853 Y174.627 E12.69045
G1 X221.918 Y175.310 E12.75279
G1 X221.965 Y176.410 E12.85295
G1 X221.944 Y177.512 E12.95312
G1 X221.853 Y178.610 E13.05329
G1 X221.801 Y179.023 E13.09113
G1 X221.616 Y180.109 E13.19130
G1 X221.363 Y181.181 E13.29147
G1 X221.043 Y182.235 E13.39164
G1 X220.811 Y182.880 E13.45397
G1 X220.385 Y183.896 E13.55414
G1 X219.897 Y184.883 E13.65431
G1 X219.347 Y185.838 E13.75448
G1 X218.739 Y186.756 E13.85464
G1 X218.074 Y187.635 E13.95481
G1 X217.809 Y187.956 E13.99266
G1 X217.071 Y188.773 E14.09282
G1 X216.282 Y189.543 E14.19299
G1 X215.447 Y190.261 E14.29316
G1 X214.569 Y190.926 E14.39333
G1 X213.651 Y191.535 E14.49349
G1 X213.061 Y191.884 E14.55583
G1 X212.085 Y192.395 E14.65600
G1 X211.079 Y192.845 E14.75617
G1 X210.047 Y193.230 E14.85633
G1 X208.993 Y193.550 E14.95650
G1 X208.590 Y193.654 E14.99435
G1 X207.512 Y193.881 E15.09451
G1 X206.422 Y194.040 E15.19468
G1 X205.516 Y194.122 E15.27745
G1 X126.653 Y198.885 E22.46143
G1 X125.777 Y198.916 E22.54117
G1 X124.676 Y198.894 E22.64134
G1 X124.260 Y198.868 E22.67919
G1 X123.165 Y198.751 E22.77936
G1 X122.079 Y198.566 E22.87952
G1 X121.007 Y198.313 E22.97969
G1 X120.348 Y198.122 E23.04203
G1 X119.308 Y197.761 E23.14219
G1 X118.292 Y197.335 E23.24236
G1 X117.304 Y196.847 E23.34253
G1 X116.349 Y196.298 E23.44270
G1 X115.431 Y195.689 E23.54287
G1 X115.094 Y195.445 E23.58071
G1 X114.232 Y194.759 E23.68088
G1 X113.414 Y194.021 E23.78104
G1 X112.929 Y193.536 E23.84338
G1 X112.191 Y192.718 E23.94355
G1 X111.506 Y191.856 E24.04372
G1 X111.261 Y191.519 E24.08156
G1 X110.653 Y190.601 E24.18173
G1 X110.103 Y189.646 E24.28189
G1 X109.792 Y189.035 E24.34423
G1 X109.615 Y188.659 E24.38207
G1 X109.189 Y187.643 E24.48224
G1 X108.957 Y186.998 E24.54458
G1 X108.637 Y185.944 E24.64474
G1 X108.384 Y184.871 E24.74491
G1 X108.306 Y184.463 E24.78276
G1 X108.147 Y183.373 E24.88293
G1 X108.082 Y182.690 E24.94526
G1 X108.035 Y181.590 E25.04543
G1 X108.056 Y180.488 E25.14560
G1 X108.082 Y180.073 E25.18344
G1 X108.199 Y178.977 E25.28361
G1 X108.306 Y178.300 E25.34594
G1 X108.534 Y177.222 E25.44611
G1 X108.637 Y176.819 E25.48396
G1 X108.957 Y175.765 E25.58412
G1 X109.343 Y174.733 E25.68429
G1 X109.792 Y173.727 E25.78446
G1 X110.103 Y173.117 E25.84680
G1 X110.653 Y172.162 E25.94696
G1 X111.261 Y171.244 E26.04713
G1 X134.170 Y138.413 E29.68731
G1 X135.053 Y137.282 E29.81787
G1 X135.507 Y136.767 E29.88020
G1 X136.229 Y136.027 E29.97423
G1 F4320.000
G1 X136.580 Y135.694 E29.71897
G1 F4320.000
G1 X137.094 Y135.241 E29.35715
G1 F4320.000
G1 X137.415 Y134.976 E29.13750
G1 F4320.000
G1 X137.956 Y134.555 E28.77569
G1 F4320.000
G1 X138.293 Y134.311 E28.55604
G1 F4320.000
G1 X138.860 Y133.925 E28.19423
G1 F4320.000
G1 X139.212 Y133.702 E27.97457
G1 F4320.000
G1 X139.802 Y133.354 E27.61276
G1 F4320.000
G1 X140.166 Y133.153 E27.39311
G1 F4320.000
G1 X140.620 Y132.922 E27.12423
G1 E26.97423 F2400.00000
G92 E0
G1 X207.644 Y179.635 F5400.000
G1 E3.00000 F2400.00000
G1 F450.000
G1 X207.021 Y180.184 E3.07542
G1 X206.307 Y180.606 E3.15084
G1 X205.527 Y180.887 E3.22627
G1 X204.708 Y181.017 E3.30169
G1 X203.904 Y180.991 E3.37481
G1 X203.336 Y180.883 E3.42738
G1 X202.786 Y180.704 E3.47995
G1 X202.070 Y180.339 E3.55307
G1 X201.414 Y179.831 E3.62850
G1 X200.866 Y179.209 E3.70392
G1 X200.444 Y178.495 E3.77934
G1 X200.163 Y177.714 E3.85476
G1 X200.037 Y176.920 E3.92788
G1 X200.037 Y176.342 E3.98046
G1 X200.109 Y175.768 E4.03303
G1 X200.334 Y174.996 E4.10615
G1 X200.710 Y174.257 E4.18157
G1 X201.219 Y173.602 E4.25699
G1 X201.841 Y173.053 E4.33241
G1 X202.555 Y172.631 E4.40784
G1 X203.335 Y172.350 E4.48326
G1 X204.129 Y172.224 E4.55638
G1 X204.708 Y172.224 E4.60895
G1 X205.281 Y172.297 E4.66153
G1 X206.053 Y172.521 E4.73464
G1 X206.792 Y172.898 E4.81007
G1 X207.448 Y173.406 E4.88549
G1 X207.996 Y174.028 E4.96091
G1 X208.419 Y174.742 E5.03633
G1 X208.700 Y175.523 E5.11175
G1 X208.829 Y176.342 E5.18718
G1 X208.804 Y177.146 E5.26030
G1 X208.696 Y177.714 E5.31287
G1 X208.517 Y178.263 E5.36544
G1 X208.152 Y178.980 E5.43856
G1 X207.685 Y179.582 E5.50785
G1 X207.186 Y179.206 F5400.000
G1 F450.000
G1 X206.653 Y179.676 E5.57253
G1 X206.040 Y180.038 E5.63721
G1 X205.371 Y180.279 E5.70189
G1 X204.668 Y180.390 E5.76656
G1 X203.973 Y180.368 E5.82984
G1 X203.492 Y180.277 E5.87437
G1 X203.026 Y180.125 E5.91890
G1 X202.406 Y179.809 E5.98217
G1 X201.844 Y179.373 E6.04685
G1 X201.374 Y178.840 E6.11153
G1 X201.012 Y178.228 E6.17621
G1 X200.771 Y177.558 E6.24089
G1 X200.662 Y176.871 E6.30417
G1 X200.662 Y176.381 E6.34869
G1 X200.723 Y175.896 E6.39322
G1 X200.917 Y175.227 E6.45650
G1 X201.240 Y174.594 E6.52118
G1 X201.676 Y174.031 E6.58586
G1 X202.210 Y173.561 E6.65054
G1 X202.822 Y173.199 E6.71522
G1 X203.491 Y172.958 E6.77990
G1 X204.179 Y172.849 E6.84317
G1 X204.668 Y172.849 E6.88770
G1 X205.154 Y172.911 E6.93223
G1 X205.822 Y173.105 E6.99550
G1 X206.456 Y173.428 E7.06018
G1 X207.018 Y173.864 E7.12486
G1 X207.489 Y174.397 E7.18954
G1 X207.851 Y175.009 E7.25422
G1 X208.092 Y175.679 E7.31890
G1 X208.203 Y176.381 E7.38358
G1 X208.181 Y177.077 E7.44686
G1 X208.089 Y177.558 E7.49138
G1 X207.938 Y178.024 E7.53591
G1 X207.622 Y178.644 E7.59919
G1 X207.227 Y179.152 E7.65773
G1 X206.729 Y178.776 F5400.000
G1 F450.000
G1 X206.284 Y179.168 E7.71167
G1 X205.773 Y179.470 E7.76560
G1 X205.215 Y179.671 E7.81954
G1 X204.629 Y179.764 E7.87348
G1 X204.042 Y179.745 E7.92691
G1 X203.648 Y179.670 E7.96339
G1 X203.266 Y179.546 E7.99987
G1 X202.742 Y179.279 E8.05331
G1 X202.274 Y178.916 E8.10724
G1 X201.881 Y178.471 E8.16118
G1 X201.580 Y177.960 E8.21512
G1 X201.379 Y177.402 E8.26905
G1 X201.287 Y176.822 E8.32249
G1 X201.287 Y176.421 E8.35897
G1 X201.337 Y176.023 E8.39545
G1 X201.501 Y175.458 E8.44888
G1 X201.770 Y174.930 E8.50282
G1 X202.134 Y174.461 E8.55676
G1 X202.579 Y174.069 E8.61069
G1 X203.089 Y173.767 E8.66463
G1 X203.647 Y173.566 E8.71857
G1 X204.228 Y173.474 E8.77200
G1 X204.629 Y173.474 E8.80848
G1 X205.027 Y173.524 E8.84496
G1 X205.591 Y173.688 E8.89840
G1 X206.120 Y173.958 E8.95233
G1 X206.589 Y174.321 E9.00627
G1 X206.981 Y174.766 E9.06021
G1 X207.283 Y175.277 E9.11414
G1 X207.484 Y175.835 E9.16808
G1 X207.576 Y176.421 E9.22202
G1 X207.558 Y177.008 E9.27545
G1 X207.483 Y177.402 E9.31193
G1 X207.359 Y177.784 E9.34841
G1 X207.092 Y178.307 E9.40185
G1 X206.770 Y178.723 E9.44965
G1 X206.729 Y178.776 F5400.000
G1 F4320.000
G1 X206.729 Y178.776 E9.41402
G1 F4320.000
G1 X206.284 Y179.168 E9.10096
G1 F4320.000
G1 X205.773 Y179.470 E8.78789
G1 F4320.000
G1 X205.215 Y179.671 E8.47483
G1 F4320.000
G1 X204.629 Y179.764 E8.16176
G1 F4320.000
G1 X204.042 Y179.745 E7.85162
G1 F4320.000
G1 X203.648 Y179.670 E7.63988
G1 F4320.000
G1 X203.266 Y179.546 E7.42814
G1 F4320.000
G1 X202.742 Y179.279 E7.11800
G1 F4320.000
G1 X202.274 Y178.916 E6.80493
G1 F4320.000
G1 X202.017 Y178.624 E6.59965
G1 E6.44965 F2400.00000
G92 E0
G1 X211.082 Y183.130 F5400.000
G1 E3.00000 F2400.00000
G1 F1800.000
G1 X210.806 Y183.407 E3.03560
G1 X210.367 Y183.794 E3.08879
G1 X209.905 Y184.152 E3.14198
G1 X209.421 Y184.481 E3.19518
G1 X208.917 Y184.779 E3.24837
G1 X208.396 Y185.044 E3.30156
G1 X207.859 Y185.277 E3.35475
G1 X207.309 Y185.475 E3.40795
G1 X206.747 Y185.638 E3.46114
G1 X206.176 Y185.766 E3.51433
G1 X205.598 Y185.857 E3.56753
G1 X205.016 Y185.912 E3.62072
G1 X204.431 Y185.930 E3.67391
G1 X203.846 Y185.912 E3.72711
G1 X203.264 Y185.857 E3.78030
G1 X202.686 Y185.766 E3.83349
G1 X202.115 Y185.638 E3.88668
G1 X201.554 Y185.475 E3.93988
G1 X201.003 Y185.277 E3.99307
G1 X200.466 Y185.044 E4.04626
G1 X199.945 Y184.779 E4.09945
G1 X199.442 Y184.481 E4.15265
G1 X198.958 Y184.152 E4.20584
G1 X198.495 Y183.794 E4.25903
G1 X198.057 Y183.407 E4.31223
G1 X197.643 Y182.993 E4.36542
G1 X197.256 Y182.554 E4.41861
G1 X196.898 Y182.092 E4.47181
G1 X196.569 Y181.608 E4.52500
G1 X196.271 Y181.105 E4.57819
G1 X196.005 Y180.583 E4.63138
G1 X195.773 Y180.046 E4.68458
G1 X195.575 Y179.496 E4.73777
G1 X195.412 Y178.934 E4.79096
G1 X195.284 Y178.363 E4.84416
G1 X195.193 Y177.786 E4.89735
G1 X195.138 Y177.203 E4.95054
G1 X195.119 Y176.619 E5.00373
G1 X195.138 Y176.034 E5.05693
G1 X195.193 Y175.451 E5.11012
G1 X195.284 Y174.874 E5.16331
G1 X195.412 Y174.303 E5.21651
G1 X195.575 Y173.741 E5.26970
G1 X195.773 Y173.191 E5.32289
G1 X196.005 Y172.654 E5.37608
G1 X196.271 Y172.132 E5.42928
G1 X196.569 Y171.629 E5.48247
G1 X196.898 Y171.145 E5.53566
G1 X197.256 Y170.683 E5.58886
G1 X197.643 Y170.244 E5.64205
G1 X198.057 Y169.830 E5.69524
G1 X198.495 Y169.444 E5.74843
G1 X198.958 Y169.085 E5.80163
G1 X199.442 Y168.756 E5.85482
G1 X199.945 Y168.458 E5.90801
G1 X200.466 Y168.193 E5.96121
G1 X201.003 Y167.961 E6.01440
G1 X201.554 Y167.762 E6.06759
G1 X202.115 Y167.599 E6.12078
G1 X202.686 Y167.472 E6.17398
G1 X203.264 Y167.380 E6.22717
G1 X203.846 Y167.325 E6.28036
G1 X204.431 Y167.307 E6.33356
G1 X205.016 Y167.325 E6.38675
G1 X205.598 Y167.380 E6.43994
G1 X206.176 Y167.472 E6.49313
G1 X206.747 Y167.599 E6.54633
G1 X207.309 Y167.762 E6.59952
G1 X207.859 Y167.961 E6.65271
G1 X208.396 Y168.193 E6.70591
G1 X208.917 Y168.458 E6.75910
G1 X209.421 Y168.756 E6.81229
G1 X209.905 Y169.085 E6.86548
G1 X210.367 Y169.444 E6.91868
G1 X210.806 Y169.830 E6.97187
G1 X211.219 Y170.244 E7.02506
G1 X211.606 Y170.683 E7.07826
G1 X211.965 Y171.145 E7.13145
G1 X212.293 Y171.629 E7.18464
G1 X212.591 Y172.132 E7.23784
G1 X212.857 Y172.654 E7.29103
G1 X213.089 Y173.191 E7.34422
G1 X213.287 Y173.741 E7.39741
G1 X213.451 Y174.303 E7.45061
G1 X213.578 Y174.874 E7.50380
G1 X213.670 Y175.451 E7.55699
G1 X213.725 Y176.034 E7.61018
G1 X213.743 Y176.619 E7.66338
G1 X213.725 Y177.203 E7.71657
G1 X213.670 Y177.786 E7.76976
G1 X213.578 Y178.363 E7.82296
G1 X213.451 Y178.934 E7.87615
G1 X213.287 Y179.496 E7.92934
G1 X213.089 Y180.046 E7.98254
G1 X212.857 Y180.583 E8.03573
G1 X212.591 Y181.105 E8.08892
G1 X212.293 Y181.608 E8.14211
G1 X211.965 Y182.092 E8.19531
G1 X211.606 Y182.554 E8.24850
G1 X211.130 Y183.082 E8.31313
G1 X211.524 Y183.572 F5400.000
G1 F1800.000
G1 X211.234 Y183.862 E8.35051
G1 X210.765 Y184.275 E8.40728
G1 X210.272 Y184.658 E8.46404
G1 X209.756 Y185.009 E8.52081
G1 X209.218 Y185.327 E8.57757
G1 X208.662 Y185.610 E8.63434
G1 X208.089 Y185.858 E8.69110
G1 X207.502 Y186.069 E8.74786
G1 X206.902 Y186.243 E8.80463
G1 X206.293 Y186.380 E8.86139
G1 X205.677 Y186.477 E8.91816
G1 X205.055 Y186.536 E8.97492
G1 X204.431 Y186.556 E9.03168
G1 X203.807 Y186.536 E9.08845
G1 X203.186 Y186.477 E9.14521
G1 X202.569 Y186.380 E9.20198
G1 X201.960 Y186.243 E9.25874
G1 X201.360 Y186.069 E9.31551
G1 X200.773 Y185.858 E9.37227
G1 X200.200 Y185.610 E9.42903
G1 X199.644 Y185.327 E9.48580
G1 X199.107 Y185.009 E9.54256
G1 X198.590 Y184.658 E9.59933
G1 X198.097 Y184.275 E9.65609
G1 X197.629 Y183.862 E9.71286
G1 X197.187 Y183.421 E9.76962
G1 X196.774 Y182.953 E9.82638
G1 X196.392 Y182.459 E9.88315
G1 X196.041 Y181.943 E9.93991
G1 X195.723 Y181.406 E9.99668
G1 X195.440 Y180.850 E10.05344
G1 X195.192 Y180.277 E10.11020
G1 X194.980 Y179.689 E10.16697
G1 X194.806 Y179.090 E10.22373
G1 X194.670 Y178.481 E10.28050
G1 X194.572 Y177.864 E10.33726
G1 X194.514 Y177.242 E10.39403
G1 X194.494 Y176.619 E10.45079
G1 X194.514 Y175.995 E10.50755
G1 X194.572 Y175.373 E10.56432
G1 X194.670 Y174.757 E10.62108
G1 X194.806 Y174.147 E10.67785
G1 X194.980 Y173.548 E10.73461
G1 X195.192 Y172.960 E10.79138
G1 X195.440 Y172.388 E10.84814
G1 X195.723 Y171.831 E10.90490
G1 X196.041 Y171.294 E10.96167
G1 X196.392 Y170.778 E11.01843
G1 X196.774 Y170.284 E11.07520
G1 X197.187 Y169.816 E11.13196
G1 X197.629 Y169.375 E11.18872
G1 X198.097 Y168.962 E11.24549
G1 X198.590 Y168.579 E11.30225
G1 X199.107 Y168.228 E11.35902
G1 X199.644 Y167.911 E11.41578
G1 X200.200 Y167.627 E11.47255
G1 X200.773 Y167.379 E11.52931
G1 X201.360 Y167.168 E11.58607
G1 X201.960 Y166.994 E11.64284
G1 X202.569 Y166.857 E11.69960
G1 X203.186 Y166.760 E11.75637
G1 X203.807 Y166.701 E11.81313
G1 X204.431 Y166.681 E11.86990
G1 X205.055 Y166.701 E11.92666
G1 X205.677 Y166.760 E11.98342
G1 X206.293 Y166.857 E12.04019
G1 X206.902 Y166.994 E12.09695
G1 X207.502 Y167.168 E12.15372
G1 X208.089 Y167.379 E12.21048
G1 X208.662 Y167.627 E12.26724
G1 X209.218 Y167.911 E12.32401
G1 X209.756 Y168.228 E12.38077
G1 X210.272 Y168.579 E12.43754
G1 X210.765 Y168.962 E12.49430
G1 X211.234 Y169.375 E12.55107
G1 X211.675 Y169.816 E12.60783
G1 X212.088 Y170.284 E12.66459
G1 X212.470 Y170.778 E12.72136
G1 X212.821 Y171.294 E12.77812
G1 X213.139 Y171.831 E12.83489
G1 X213.423 Y172.388 E12.89165
G1 X213.670 Y172.960 E12.94842
G1 X213.882 Y173.548 E13.00518
G1 X214.056 Y174.147 E13.06194
G1 X214.192 Y174.757 E13.11871
G1 X214.290 Y175.373 E13.17547
G1 X214.349 Y175.995 E13.23224
G1 X214.368 Y176.619 E13.28900
G1 X214.349 Y177.242 E13.34576
G1 X214.290 Y177.864 E13.40253
G1 X214.192 Y178.481 E13.45929
G1 X214.056 Y179.090 E13.51606
G1 X213.882 Y179.689 E13.57282
G1 X213.670 Y180.277 E13.62959
G1 X213.423 Y180.850 E13.68635
G1 X213.139 Y181.406 E13.74311
G1 X212.821 Y181.943 E13.79988
G1 X212.470 Y182.459 E13.85664
G1 X212.088 Y182.953 E13.91341
G1 X211.572 Y183.524 E13.98339
G1 X211.966 Y184.014 F5400.000
G1 F900.000
G1 X211.662 Y184.318 E14.02256
G1 X211.164 Y184.757 E14.08290
G1 X210.640 Y185.164 E14.14323
G1 X210.091 Y185.537 E14.20357
G1 X209.520 Y185.874 E14.26390
G1 X208.928 Y186.176 E14.32424
G1 X208.319 Y186.439 E14.38458
G1 X207.695 Y186.664 E14.44491
G1 X207.058 Y186.849 E14.50525
G1 X206.410 Y186.994 E14.56558
G1 X205.755 Y187.098 E14.62592
G1 X205.094 Y187.160 E14.68625
G1 X204.431 Y187.181 E14.74659
G1 X203.768 Y187.160 E14.80692
G1 X203.107 Y187.098 E14.86726
G1 X202.452 Y186.994 E14.92760
G1 X201.804 Y186.849 E14.98793
G1 X201.167 Y186.664 E15.04827
G1 X200.543 Y186.439 E15.10860
G1 X199.934 Y186.176 E15.16894
G1 X199.343 Y185.874 E15.22927
G1 X198.772 Y185.537 E15.28961
G1 X198.223 Y185.164 E15.34994
G1 X197.698 Y184.757 E15.41028
G1 X197.201 Y184.318 E15.47062
