; generated by Slic3r 1.3.1-dev (Build 18ddd3a36dc69d81fb9b7440498bff9e1dde8b7e) on 2021-07-20 at 19:11:04

; external perimeters extrusion width = 0.49mm (3.88mm^3/s)
; perimeters extrusion width = 0.59mm (9.54mm^3/s)
; infill extrusion width = 0.56mm (11.95mm^3/s)
; solid infill extrusion width = 0.59mm (3.18mm^3/s)
; top infill extrusion width = 0.59mm (2.39mm^3/s)
; support material extrusion width = 0.49mm (7.75mm^3/s)

M107
G92 E0
M190 S45 ; set bed temperature and wait for it to be reached
M104 S226 ; set temperature
G28 ; home all axes
G1 Z5 F5000 ; lift nozzle

; Filament gcode

M109 S226 ; set temperature and wait for it to be reached
G21 ; set units to millimeters
G90 ; use absolute coordinates
M82 ; use absolute distances for extrusion
G92 E0
G1 E-3.00000 F2400.00000
G92 E0
G1 Z0.350 F5400.000
G1 X138.785 Y110.297 F5400.000
G1 E3.00000 F2400.00000
G1 F1800.000
G1 X139.607 Y109.555 E3.10067
G1 X139.928 Y109.290 E3.13851
G1 X140.811 Y108.621 E3.23918
G1 X141.382 Y108.233 E3.30201
G1 X142.328 Y107.658 E3.40268
G1 X143.309 Y107.144 E3.50335
G1 X143.685 Y106.967 E3.54119
G1 X144.707 Y106.539 E3.64186
G1 X145.357 Y106.305 E3.70470
G1 X146.416 Y105.984 E3.80536
G1 X146.819 Y105.880 E3.84321
G1 X147.902 Y105.652 E3.94387
G1 X148.585 Y105.543 E4.00671
G1 X149.686 Y105.426 E4.10738
G1 X151.000 Y105.375 E4.22696
G1 X179.000 Y105.375 E6.77299
G1 X179.899 Y105.400 E6.85475
G1 X181.002 Y105.491 E6.95542
G1 X181.415 Y105.543 E6.99326
G1 X182.506 Y105.729 E7.09393
G1 X183.181 Y105.880 E7.15676
G1 X184.247 Y106.177 E7.25743
G1 X184.643 Y106.305 E7.29528
G1 X185.680 Y106.692 E7.39594
G1 X186.315 Y106.967 E7.45878
G1 X187.307 Y107.458 E7.55945
G1 X187.672 Y107.658 E7.59729
G1 X188.618 Y108.233 E7.69796
G1 X189.189 Y108.621 E7.76079
G1 X190.072 Y109.290 E7.86146
G1 X190.393 Y109.555 E7.89930
G1 X191.215 Y110.297 E7.99997
G1 X219.215 Y138.297 E11.60060
G1 X219.703 Y138.785 E11.66344
G1 X220.445 Y139.607 E11.76410
G1 X221.134 Y140.474 E11.86477
G1 X221.767 Y141.382 E11.96544
G1 X222.342 Y142.328 E12.06611
G1 X222.542 Y142.693 E12.10395
G1 X223.033 Y143.685 E12.20462
G1 X223.308 Y144.320 E12.26745
G1 X223.695 Y145.357 E12.36812
G1 X224.016 Y146.416 E12.46879
G1 X224.120 Y146.819 E12.50663
G1 X224.271 Y147.494 E12.56947
G1 X224.457 Y148.585 E12.67014
G1 X224.574 Y149.686 E12.77080
G1 X224.600 Y150.101 E12.80865
G1 X224.625 Y151.000 E12.89040
G1 X224.625 Y179.000 E15.43643
G1 X224.600 Y179.899 E15.51819
G1 X224.509 Y181.002 E15.61886
G1 X224.348 Y182.098 E15.71953
G1 X224.120 Y183.181 E15.82019
G1 X224.016 Y183.584 E15.85804
G1 X223.695 Y184.643 E15.95870
G1 X223.308 Y185.680 E16.05937
G1 X222.856 Y186.691 E16.16004
G1 X222.342 Y187.672 E16.26071
G1 X221.990 Y188.266 E16.32354
G1 X221.379 Y189.189 E16.42421
G1 X220.710 Y190.072 E16.52488
G1 X220.445 Y190.393 E16.56272
G1 X219.703 Y191.215 E16.66339
G1 X191.215 Y219.703 E20.32685
G1 X190.911 Y219.988 E20.36470
G1 X190.072 Y220.710 E20.46536
G1 X189.526 Y221.134 E20.52820
G1 X188.618 Y221.767 E20.62887
G1 X187.672 Y222.342 E20.72953
G1 X187.307 Y222.542 E20.76738
G1 X186.315 Y223.033 E20.86805
G1 X185.680 Y223.308 E20.93088
G1 X184.643 Y223.695 E21.03155
G1 X183.584 Y224.016 E21.13222
G1 X183.181 Y224.120 E21.17006
G1 X182.506 Y224.271 E21.23290
G1 X181.415 Y224.457 E21.33356
G1 X180.314 Y224.574 E21.43423
G1 X179.899 Y224.600 E21.47208
G1 X179.000 Y224.625 E21.55383
G1 X151.000 Y224.625 E24.09986
G1 X150.101 Y224.600 E24.18162
G1 X148.998 Y224.509 E24.28229
G1 X147.902 Y224.348 E24.38295
G1 X146.819 Y224.120 E24.48362
G1 X146.416 Y224.016 E24.52147
G1 X145.357 Y223.695 E24.62213
G1 X144.320 Y223.308 E24.72280
G1 X143.309 Y222.856 E24.82347
G1 X142.328 Y222.342 E24.92414
G1 X141.734 Y221.990 E24.98697
G1 X140.811 Y221.379 E25.08764
G1 X139.928 Y220.710 E25.18831
G1 X139.607 Y220.445 E25.22615
G1 X138.785 Y219.703 E25.32682
G1 X110.297 Y191.215 E28.99028
G1 X110.012 Y190.911 E29.02812
G1 X109.290 Y190.072 E29.12879
G1 X108.866 Y189.526 E29.19163
G1 X108.233 Y188.618 E29.29230
G1 X108.010 Y188.266 E29.33014
G1 X107.458 Y187.307 E29.43081
G1 X106.967 Y186.315 E29.53147
G1 X106.692 Y185.680 E29.59431
G1 X106.539 Y185.293 E29.63215
G1 X106.177 Y184.247 E29.73282
G1 X105.880 Y183.181 E29.83349
G1 X105.729 Y182.506 E29.89633
G1 X105.652 Y182.098 E29.93417
G1 X105.491 Y181.002 E30.03484
G1 X105.400 Y179.899 E30.13550
G1 X105.375 Y179.000 E30.21726
G1 X105.375 Y151.000 E32.76329
G1 X105.400 Y150.101 E32.84505
G1 X105.491 Y148.998 E32.94571
G1 X105.543 Y148.585 E32.98356
G1 X105.652 Y147.902 E33.04639
G1 X105.880 Y146.819 E33.14706
G1 X106.177 Y145.753 E33.24773
G1 X106.305 Y145.357 E33.28557
G1 X106.692 Y144.320 E33.38624
G1 X106.967 Y143.685 E33.44908
G1 X107.458 Y142.693 E33.54975
G1 X108.010 Y141.734 E33.65041
G1 X108.233 Y141.382 E33.68825
G1 X108.621 Y140.811 E33.75109
G1 X109.290 Y139.928 E33.85176
G1 X109.555 Y139.607 E33.88960
G1 X110.297 Y138.785 E33.99027
G1 X138.738 Y110.345 E37.64760
G1 F4320.000
G1 X139.089 Y110.012 E37.39233
G1 F4320.000
G1 X139.607 Y109.555 E37.02761
G1 F4320.000
G1 X139.928 Y109.290 E36.80797
G1 F4320.000
G1 X140.474 Y108.866 E36.44325
G1 F4320.000
G1 X140.811 Y108.621 E36.22360
G1 F4320.000
G1 X141.382 Y108.233 E35.85888
G1 F4320.000
G1 X141.734 Y108.010 E35.63923
G1 F4320.000
G1 X142.328 Y107.658 E35.27452
G1 F4320.000
G1 X142.693 Y107.458 E35.05487
G1 F4320.000
G1 X143.127 Y107.237 E34.79760
G1 E34.64760 F2400.00000
G92 E0
G1 X154.381 Y125.799 F5400.000
G1 E3.00000 F2400.00000
G1 F450.000
G1 X154.212 Y126.017 E3.02507
G1 X153.590 Y126.565 E3.10049
G1 X152.876 Y126.987 E3.17591
G1 X152.096 Y127.268 E3.25133
G1 X151.277 Y127.398 E3.32675
G1 X150.473 Y127.373 E3.39987
G1 X149.905 Y127.265 E3.45245
G1 X149.355 Y127.086 E3.50502
G1 X148.639 Y126.721 E3.57814
G1 X147.983 Y126.212 E3.65356
G1 X147.435 Y125.590 E3.72898
G1 X147.013 Y124.876 E3.80441
G1 X146.732 Y124.096 E3.87983
G1 X146.606 Y123.302 E3.95295
G1 X146.606 Y122.724 E4.00552
G1 X146.678 Y122.150 E4.05809
G1 X146.903 Y121.378 E4.13121
G1 X147.279 Y120.639 E4.20664
G1 X147.787 Y119.983 E4.28206
G1 X148.410 Y119.435 E4.35748
G1 X149.124 Y119.013 E4.43290
G1 X149.904 Y118.732 E4.50832
G1 X150.698 Y118.606 E4.58144
G1 X151.276 Y118.606 E4.63402
G1 X151.850 Y118.678 E4.68659
G1 X152.622 Y118.903 E4.75971
G1 X153.361 Y119.279 E4.83513
G1 X154.017 Y119.787 E4.91055
G1 X154.565 Y120.410 E4.98598
G1 X154.987 Y121.124 E5.06140
G1 X155.268 Y121.904 E5.13682
G1 X155.398 Y122.723 E5.21224
G1 X155.373 Y123.527 E5.28536
G1 X155.265 Y124.095 E5.33794
G1 X155.086 Y124.645 E5.39051
G1 X154.721 Y125.361 E5.46363
G1 X154.423 Y125.746 E5.50785
G1 X153.888 Y125.416 F5400.000
G1 F450.000
G1 X153.755 Y125.587 E5.52754
G1 X153.221 Y126.057 E5.59222
G1 X152.609 Y126.420 E5.65690
G1 X151.940 Y126.660 E5.72158
G1 X151.237 Y126.772 E5.78626
G1 X150.542 Y126.750 E5.84954
G1 X150.061 Y126.658 E5.89406
G1 X149.595 Y126.507 E5.93859
G1 X148.975 Y126.191 E6.00187
G1 X148.413 Y125.755 E6.06655
G1 X147.943 Y125.221 E6.13123
G1 X147.580 Y124.609 E6.19591
G1 X147.339 Y123.940 E6.26059
G1 X147.231 Y123.253 E6.32386
G1 X147.231 Y122.763 E6.36839
G1 X147.292 Y122.277 E6.41292
G1 X147.486 Y121.609 E6.47619
G1 X147.809 Y120.975 E6.54087
G1 X148.245 Y120.413 E6.60555
G1 X148.779 Y119.943 E6.67023
G1 X149.391 Y119.580 E6.73491
G1 X150.060 Y119.339 E6.79959
G1 X150.747 Y119.231 E6.86287
G1 X151.237 Y119.231 E6.90739
G1 X151.723 Y119.292 E6.95192
G1 X152.391 Y119.486 E7.01520
G1 X153.025 Y119.809 E7.07988
G1 X153.587 Y120.245 E7.14456
G1 X154.057 Y120.779 E7.20924
G1 X154.420 Y121.391 E7.27392
G1 X154.660 Y122.060 E7.33860
G1 X154.772 Y122.763 E7.40327
G1 X154.750 Y123.458 E7.46655
G1 X154.658 Y123.939 E7.51108
G1 X154.507 Y124.405 E7.55561
G1 X154.191 Y125.025 E7.61888
G1 X153.929 Y125.363 E7.65773
G1 X153.394 Y125.033 F5400.000
G1 F450.000
G1 X153.297 Y125.157 E7.67205
G1 X152.852 Y125.550 E7.72599
G1 X152.342 Y125.852 E7.77993
G1 X151.784 Y126.053 E7.83386
G1 X151.198 Y126.145 E7.88780
G1 X150.611 Y126.127 E7.94124
G1 X150.216 Y126.052 E7.97772
G1 X149.835 Y125.928 E8.01420
G1 X149.311 Y125.661 E8.06763
G1 X148.843 Y125.297 E8.12157
G1 X148.450 Y124.852 E8.17550
G1 X148.148 Y124.342 E8.22944
G1 X147.947 Y123.784 E8.28338
G1 X147.856 Y123.203 E8.33681
G1 X147.856 Y122.802 E8.37329
G1 X147.906 Y122.404 E8.40977
G1 X148.070 Y121.840 E8.46321
G1 X148.339 Y121.311 E8.51714
G1 X148.703 Y120.843 E8.57108
G1 X149.148 Y120.450 E8.62502
G1 X149.658 Y120.148 E8.67895
G1 X150.216 Y119.947 E8.73289
G1 X150.797 Y119.856 E8.78633
G1 X151.198 Y119.856 E8.82281
G1 X151.596 Y119.906 E8.85929
G1 X152.160 Y120.070 E8.91272
G1 X152.689 Y120.339 E8.96666
G1 X153.157 Y120.703 E9.02059
G1 X153.550 Y121.148 E9.07453
G1 X153.852 Y121.658 E9.12847
G1 X154.053 Y122.216 E9.18241
G1 X154.145 Y122.802 E9.23634
G1 X154.127 Y123.389 E9.28978
G1 X154.052 Y123.784 E9.32626
G1 X153.928 Y124.165 E9.36274
G1 X153.661 Y124.689 E9.41617
G1 X153.435 Y124.980 E9.44965
G1 X153.459 Y125.177 F5400.000
G1 F4320.000
G1 X153.297 Y125.157 E9.33088
G1 F4320.000
G1 X152.852 Y125.550 E9.01782
G1 F4320.000
G1 X152.342 Y125.852 E8.70475
G1 F4320.000
G1 X151.784 Y126.053 E8.39169
G1 F4320.000
G1 X151.198 Y126.145 E8.07862
G1 F4320.000
G1 X150.611 Y126.127 E7.76848
G1 F4320.000
G1 X150.216 Y126.052 E7.55674
G1 F4320.000
G1 X149.835 Y125.928 E7.34500
G1 F4320.000
G1 X149.311 Y125.661 E7.03486
G1 F4320.000
G1 X148.843 Y125.297 E6.72179
G1 F4320.000
G1 X148.690 Y125.124 E6.59965
G1 E6.44965 F2400.00000
G92 E0
G1 X158.086 Y129.169 F5400.000
G1 E3.00000 F2400.00000
G1 F1800.000
G1 X157.852 Y129.434 E3.03214
G1 X157.434 Y129.852 E3.08583
G1 X156.991 Y130.242 E3.13952
G1 X156.525 Y130.604 E3.19322
G1 X156.036 Y130.936 E3.24691
G1 X155.528 Y131.237 E3.30060
G1 X155.002 Y131.505 E3.35430
G1 X154.460 Y131.739 E3.40799
G1 X153.905 Y131.939 E3.46168
G1 X153.338 Y132.104 E3.51537
G1 X152.761 Y132.233 E3.56907
G1 X152.178 Y132.325 E3.62276
G1 X151.590 Y132.381 E3.67645
G1 X151.000 Y132.399 E3.73014
G1 X150.410 Y132.381 E3.78384
G1 X149.822 Y132.325 E3.83753
G1 X149.239 Y132.233 E3.89122
G1 X148.662 Y132.104 E3.94491
G1 X148.095 Y131.939 E3.99861
G1 X147.540 Y131.739 E4.05230
G1 X146.998 Y131.505 E4.10599
G1 X146.472 Y131.237 E4.15969
G1 X145.964 Y130.936 E4.21338
G1 X145.475 Y130.604 E4.26707
G1 X145.009 Y130.242 E4.32076
G1 X144.566 Y129.852 E4.37446
G1 X144.148 Y129.434 E4.42815
G1 X143.758 Y128.991 E4.48184
G1 X143.396 Y128.525 E4.53553
G1 X143.064 Y128.036 E4.58923
G1 X142.763 Y127.528 E4.64292
G1 X142.495 Y127.002 E4.69661
G1 X142.261 Y126.460 E4.75031
G1 X142.061 Y125.905 E4.80400
G1 X141.896 Y125.338 E4.85769
G1 X141.767 Y124.761 E4.91138
G1 X141.675 Y124.178 E4.96508
G1 X141.619 Y123.590 E5.01877
G1 X141.601 Y123.000 E5.07246
G1 X141.619 Y122.410 E5.12615
G1 X141.675 Y121.822 E5.17985
G1 X141.767 Y121.239 E5.23354
G1 X141.896 Y120.662 E5.28723
G1 X142.061 Y120.095 E5.34093
G1 X142.261 Y119.540 E5.39462
G1 X142.495 Y118.998 E5.44831
G1 X142.763 Y118.472 E5.50200
G1 X143.064 Y117.964 E5.55570
G1 X143.396 Y117.475 E5.60939
G1 X143.758 Y117.009 E5.66308
G1 X144.148 Y116.566 E5.71677
G1 X144.566 Y116.148 E5.77047
G1 X145.009 Y115.758 E5.82416
G1 X145.475 Y115.396 E5.87785
G1 X145.964 Y115.064 E5.93155
G1 X146.472 Y114.763 E5.98524
G1 X146.998 Y114.495 E6.03893
G1 X147.540 Y114.261 E6.09262
G1 X148.095 Y114.061 E6.14632
G1 X148.662 Y113.896 E6.20001
G1 X149.239 Y113.767 E6.25370
G1 X149.822 Y113.675 E6.30739
G1 X150.410 Y113.619 E6.36109
G1 X151.000 Y113.601 E6.41478
G1 X151.590 Y113.619 E6.46847
G1 X152.178 Y113.675 E6.52216
G1 X152.761 Y113.767 E6.57586
G1 X153.338 Y113.896 E6.62955
G1 X153.905 Y114.061 E6.68324
G1 X154.460 Y114.261 E6.73694
G1 X155.002 Y114.495 E6.79063
G1 X155.528 Y114.763 E6.84432
G1 X156.036 Y115.064 E6.89801
G1 X156.525 Y115.396 E6.95171
G1 X156.991 Y115.758 E7.00540
G1 X157.434 Y116.148 E7.05909
G1 X157.852 Y116.566 E7.11278
G1 X158.242 Y117.009 E7.16648
G1 X158.604 Y117.475 E7.22017
G1 X158.936 Y117.964 E7.27386
G1 X159.237 Y118.472 E7.32756
G1 X159.505 Y118.998 E7.38125
G1 X159.739 Y119.540 E7.43494
G1 X159.939 Y120.095 E7.48863
G1 X160.104 Y120.662 E7.54233
G1 X160.233 Y121.239 E7.59602
G1 X160.325 Y121.822 E7.64971
G1 X160.381 Y122.410 E7.70340
G1 X160.399 Y123.000 E7.75710
G1 X160.381 Y123.590 E7.81079
G1 X160.325 Y124.178 E7.86448
G1 X160.233 Y124.761 E7.91818
G1 X160.104 Y125.338 E7.97187
G1 X159.939 Y125.905 E8.02556
G1 X159.739 Y126.460 E8.07925
G1 X159.505 Y127.002 E8.13295
G1 X159.237 Y127.528 E8.18664
G1 X158.936 Y128.036 E8.24033
G1 X158.604 Y128.525 E8.29402
G1 X158.130 Y129.119 E8.36311
G1 X158.554 Y129.582 F5400.000
G1 F1800.000
G1 X158.308 Y129.862 E8.39703
G1 X157.862 Y130.308 E8.45430
G1 X157.390 Y130.724 E8.51156
G1 X156.892 Y131.110 E8.56883
G1 X156.371 Y131.464 E8.62609
G1 X155.829 Y131.785 E8.68335
G1 X155.268 Y132.071 E8.74062
G1 X154.690 Y132.321 E8.79788
G1 X154.098 Y132.534 E8.85515
G1 X153.493 Y132.710 E8.91241
G1 X152.878 Y132.847 E8.96967
G1 X152.256 Y132.946 E9.02694
G1 X151.629 Y133.005 E9.08420
G1 X151.000 Y133.025 E9.14147
G1 X150.371 Y133.005 E9.19873
G1 X149.744 Y132.946 E9.25599
G1 X149.122 Y132.847 E9.31326
G1 X148.507 Y132.710 E9.37052
G1 X147.902 Y132.534 E9.42779
G1 X147.310 Y132.321 E9.48505
G1 X146.732 Y132.071 E9.54231
G1 X146.171 Y131.785 E9.59958
G1 X145.629 Y131.464 E9.65684
G1 X145.108 Y131.110 E9.71411
G1 X144.610 Y130.724 E9.77137
G1 X144.138 Y130.308 E9.82863
G1 X143.692 Y129.862 E9.88590
G1 X143.276 Y129.390 E9.94316
G1 X142.890 Y128.892 E10.00043
G1 X142.536 Y128.371 E10.05769
G1 X142.215 Y127.829 E10.11495
G1 X141.929 Y127.268 E10.17222
G1 X141.679 Y126.690 E10.22948
G1 X141.466 Y126.098 E10.28675
G1 X141.290 Y125.493 E10.34401
G1 X141.153 Y124.878 E10.40127
G1 X141.054 Y124.256 E10.45854
G1 X140.995 Y123.629 E10.51580
G1 X140.975 Y123.000 E10.57307
G1 X140.995 Y122.371 E10.63033
G1 X141.054 Y121.744 E10.68759
G1 X141.153 Y121.122 E10.74486
G1 X141.290 Y120.507 E10.80212
G1 X141.466 Y119.902 E10.85939
G1 X141.679 Y119.310 E10.91665
G1 X141.929 Y118.732 E10.97392
G1 X142.215 Y118.171 E11.03118
G1 X142.536 Y117.629 E11.08844
G1 X142.890 Y117.108 E11.14571
G1 X143.276 Y116.610 E11.20297
G1 X143.692 Y116.138 E11.26024
G1 X144.138 Y115.692 E11.31750
G1 X144.610 Y115.276 E11.37476
G1 X145.108 Y114.890 E11.43203
G1 X145.629 Y114.536 E11.48929
G1 X146.171 Y114.215 E11.54656
G1 X146.732 Y113.929 E11.60382
G1 X147.310 Y113.679 E11.66108
G1 X147.902 Y113.466 E11.71835
G1 X148.507 Y113.290 E11.77561
G1 X149.122 Y113.153 E11.83288
G1 X149.744 Y113.054 E11.89014
G1 X150.371 Y112.995 E11.94740
G1 X151.000 Y112.975 E12.00467
G1 X151.629 Y112.995 E12.06193
G1 X152.256 Y113.054 E12.11920
G1 X152.878 Y113.153 E12.17646
G1 X153.493 Y113.290 E12.23372
G1 X154.098 Y113.466 E12.29099
G1 X154.690 Y113.679 E12.34825
G1 X155.268 Y113.929 E12.40552
G1 X155.829 Y114.215 E12.46278
G1 X156.371 Y114.536 E12.52004
G1 X156.892 Y114.890 E12.57731
G1 X157.390 Y115.276 E12.63457
G1 X157.862 Y115.692 E12.69184
G1 X158.308 Y116.138 E12.74910
G1 X158.724 Y116.610 E12.80636
G1 X159.110 Y117.108 E12.86363
G1 X159.464 Y117.629 E12.92089
G1 X159.785 Y118.171 E12.97816
G1 X160.071 Y118.732 E13.03542
G1 X160.321 Y119.310 E13.09268
G1 X160.534 Y119.902 E13.14995
G1 X160.710 Y120.507 E13.20721
G1 X160.847 Y121.122 E13.26448
G1 X160.946 Y121.744 E13.32174
G1 X161.005 Y122.371 E13.37901
G1 X161.025 Y123.000 E13.43627
G1 X161.005 Y123.629 E13.49353
G1 X160.946 Y124.256 E13.55080
G1 X160.847 Y124.878 E13.60806
G1 X160.710 Y125.493 E13.66533
G1 X160.534 Y126.098 E13.72259
G1 X160.321 Y126.690 E13.77985
G1 X160.071 Y127.268 E13.83712
G1 X159.785 Y127.829 E13.89438
G1 X159.464 Y128.371 E13.95165
G1 X159.110 Y128.892 E14.00891
G1 X158.599 Y129.532 E14.08335
G1 X159.023 Y129.996 F5400.000
G1 F900.000
G1 X158.763 Y130.290 E14.11906
G1 X158.290 Y130.763 E14.17989
G1 X157.788 Y131.206 E14.24073
G1 X157.260 Y131.616 E14.30157
G1 X156.706 Y131.992 E14.36240
G1 X156.131 Y132.333 E14.42324
G1 X155.534 Y132.636 E14.48407
G1 X154.920 Y132.902 E14.54491
G1 X154.291 Y133.129 E14.60574
G1 X153.649 Y133.315 E14.66658
G1 X152.996 Y133.461 E14.72741
