; generated by Slic3r 1.3.1-dev (Build 18ddd3a36dc69d81fb9b7440498bff9e1dde8b7e) on 2021-07-19 at 18:18:26

; external perimeters extrusion width = 0.49mm (3.88mm^3/s)
; perimeters extrusion width = 0.59mm (9.54mm^3/s)
; infill extrusion width = 0.56mm (11.95mm^3/s)
; solid infill extrusion width = 0.59mm (3.18mm^3/s)
; top infill extrusion width = 0.59mm (2.39mm^3/s)
; support material extrusion width = 0.49mm (7.75mm^3/s)

M107
G92 E0
M190 S45 ; set bed temperature and wait for it to be reached
M104 S226 ; set temperature
G28 ; home all axes
G1 Z5 F5000 ; lift nozzle

; Filament gcode

M109 S226 ; set temperature and wait for it to be reached
G21 ; set units to millimeters
G90 ; use absolute coordinates
M82 ; use absolute distances for extrusion
G92 E0
G1 E-3.00000 F2400.00000
G92 E0
G1 Z0.350 F5400.000
G1 X149.381 Y117.906 F5400.000
G1 E3.00000 F2400.00000
G1 F1800.000
G1 X150.913 Y116.200 E3.20854
G1 X152.936 Y115.118 E3.41708
G1 X154.921 Y114.788 E3.60004
G1 X161.251 Y114.711 E4.17568
G1 X169.353 Y114.712 E4.91240
G1 X175.087 Y114.788 E5.43384
G1 X177.340 Y115.215 E5.64238
G1 X179.313 Y116.385 E5.85092
G1 X180.768 Y118.157 E6.05946
G1 X181.478 Y120.033 E6.24177
G1 X197.725 Y196.326 E13.33468
G1 X197.870 Y197.706 E13.46085
G1 X197.870 Y204.999 E14.12399
G1 X197.473 Y207.258 E14.33254
G1 X196.491 Y209.045 E14.51797
G1 X195.241 Y210.666 E14.70404
G1 X194.201 Y211.738 E14.83988
G1 X192.952 Y212.765 E14.98697
G1 X190.954 Y213.892 E15.19551
G1 X188.854 Y214.270 E15.38953
G1 X142.292 Y215.034 E19.62398
G1 X140.027 Y214.674 E19.83252
G1 X137.978 Y213.529 E20.04601
G1 X135.676 Y211.637 E20.31695
G1 X134.763 Y210.724 E20.43429
G1 X133.862 Y209.628 E20.56338
G1 X133.136 Y208.542 E20.68213
G1 X132.911 Y208.119 E20.72568
G1 X132.130 Y204.999 E21.01814
G1 X132.130 Y197.706 E21.68129
G1 X132.275 Y196.326 E21.80745
G1 X148.522 Y120.033 E28.90037
G1 X149.356 Y117.969 E29.10277
G1 F4320.000
G1 X150.913 Y116.200 E27.85879
G1 F4320.000
G1 X152.936 Y115.118 E26.64836
G1 F4320.000
G1 X153.675 Y114.995 E26.25277
G1 E26.10277 F2400.00000
G92 E0
G1 X179.481 Y197.649 F5400.000
G1 E3.00000 F2400.00000
G1 F1800.000
G1 X179.311 Y198.081 E3.04224
G1 X179.008 Y198.658 E3.10149
G1 X178.753 Y199.034 E3.14280
G1 X178.473 Y199.373 E3.18275
G1 X178.162 Y199.678 E3.22238
G1 X177.824 Y199.947 E3.26171
G1 X177.459 Y200.175 E3.30079
G1 X177.059 Y200.365 E3.34109
G1 X176.460 Y200.543 E3.39788
G1 X175.873 Y200.600 E3.45155
G1 X153.946 Y200.595 E5.44531
G1 X153.347 Y200.497 E5.50049
G1 X152.914 Y200.354 E5.54203
G1 X152.355 Y200.069 E5.59904
G1 X151.847 Y199.688 E5.65677
G1 X151.519 Y199.364 E5.69870
G1 X151.117 Y198.856 E5.75762
G1 X150.785 Y198.285 E5.81761
G1 X150.593 Y197.853 E5.86060
G1 X150.388 Y197.221 E5.92102
G1 X150.287 Y196.752 E5.96464
G1 X150.209 Y196.082 E6.02600
G1 X150.200 Y195.609 E6.06902
G1 X150.227 Y195.137 E6.11203
G1 X150.332 Y194.462 E6.17416
G1 X150.515 Y193.810 E6.23570
G1 X150.677 Y193.398 E6.27595
G1 X161.606 Y168.800 E8.72352
G1 X161.828 Y168.398 E8.76528
G1 X162.201 Y167.876 E8.82353
G1 X162.513 Y167.535 E8.86556
G1 X162.990 Y167.135 E8.92225
G1 X163.366 Y166.900 E8.96254
G1 X163.766 Y166.710 E9.00282
G1 X164.350 Y166.537 E9.05817
G1 X164.787 Y166.480 E9.09827
G1 X165.228 Y166.480 E9.13839
G1 X165.842 Y166.580 E9.19495
G1 X166.443 Y166.800 E9.25314
G1 X166.999 Y167.126 E9.31168
G1 X167.487 Y167.535 E9.36965
G1 X167.799 Y167.876 E9.41168
G1 X168.172 Y168.398 E9.46993
G1 X168.394 Y168.800 E9.51170
G1 X179.402 Y193.587 E11.97794
G1 X179.552 Y194.018 E12.01936
G1 X179.669 Y194.471 E12.06195
G1 X179.773 Y195.137 E12.12319
G1 X179.800 Y195.609 E12.16620
G1 X179.791 Y196.082 E12.20923
G1 X179.713 Y196.752 E12.27059
G1 X179.614 Y197.212 E12.31330
G1 X179.501 Y197.585 E12.34874
G1 X178.891 Y197.444 F5400.000
G1 F900.000
G1 X178.742 Y197.821 E12.38558
G1 X178.472 Y198.337 E12.43854
G1 X178.253 Y198.659 E12.47391
G1 X178.012 Y198.950 E12.50828
G1 X177.748 Y199.210 E12.54200
G1 X177.462 Y199.436 E12.57512
G1 X177.159 Y199.626 E12.60768
G1 X176.835 Y199.780 E12.64027
G1 X176.340 Y199.927 E12.68724
G1 X175.842 Y199.975 E12.73269
G1 X153.997 Y199.970 E14.71909
G1 X153.497 Y199.889 E14.76517
G1 X153.155 Y199.776 E14.79788
G1 X152.687 Y199.537 E14.84566
G1 X152.256 Y199.213 E14.89468
G1 X151.985 Y198.947 E14.92924
G1 X151.635 Y198.503 E14.98060
G1 X151.343 Y198.001 E15.03348
G1 X151.178 Y197.630 E15.07039
G1 X150.993 Y197.058 E15.12499
G1 X150.904 Y196.650 E15.16297
G1 X150.833 Y196.040 E15.21882
G1 X150.825 Y195.621 E15.25692
G1 X150.850 Y195.203 E15.29500
G1 X150.944 Y194.594 E15.35100
G1 X151.108 Y194.009 E15.40625
G1 X151.254 Y193.640 E15.44238
G1 X162.166 Y169.078 E17.88626
G1 X162.358 Y168.731 E17.92229
G1 X162.687 Y168.270 E17.97380
G1 X162.946 Y167.988 E18.00865
G1 X163.359 Y167.641 E18.05766
G1 X163.666 Y167.449 E18.09065
G1 X163.990 Y167.295 E18.12324
G1 X164.480 Y167.150 E18.16969
G1 X164.828 Y167.105 E18.20157
G1 X165.178 Y167.105 E18.23341
G1 X165.683 Y167.187 E18.27999
G1 X166.176 Y167.367 E18.32766
G1 X166.637 Y167.638 E18.37630
G1 X167.054 Y167.988 E18.42578
G1 X167.313 Y168.270 E18.46062
G1 X167.642 Y168.731 E18.51214
G1 X167.834 Y169.078 E18.54816
G1 X178.821 Y193.817 E21.00954
G1 X178.953 Y194.199 E21.04627
G1 X179.056 Y194.598 E21.08375
G1 X179.150 Y195.203 E21.13944
G1 X179.175 Y195.621 E21.17751
G1 X179.167 Y196.040 E21.21562
G1 X179.096 Y196.650 E21.27147
G1 X179.008 Y197.055 E21.30912
G1 X178.910 Y197.379 E21.33994
G1 X178.891 Y197.444 F5400.000
G1 F4320.000
G1 X178.891 Y197.444 E21.30432
G1 F4320.000
G1 X178.742 Y197.821 E21.09049
G1 F4320.000
G1 X178.472 Y198.337 E20.78305
G1 F4320.000
G1 X178.253 Y198.659 E20.57777
G1 F4320.000
G1 X178.012 Y198.950 E20.37831
G1 F4320.000
G1 X177.748 Y199.210 E20.18254
G1 F4320.000
G1 X177.462 Y199.436 E19.99034
G1 F4320.000
G1 X177.159 Y199.626 E19.80133
G1 F4320.000
G1 X176.835 Y199.780 E19.61220
G1 F4320.000
G1 X176.340 Y199.927 E19.33958
G1 F4320.000
G1 X175.842 Y199.975 E19.07577
G1 F4320.000
G1 X174.732 Y199.975 E18.48994
G1 E18.33994 F2400.00000
G92 E0
G1 X181.181 Y194.786 F5400.000
G1 E3.00000 F2400.00000
G1 F1800.000
G1 X180.695 Y195.629 E3.08848
G1 X180.423 Y195.564 E3.11387
G1 X180.395 Y195.071 E3.15882
G1 X180.282 Y194.345 E3.22561
G1 X180.150 Y193.837 E3.27332
G1 X179.984 Y193.358 E3.31943
G1 X168.954 Y168.521 E5.79053
G1 X168.701 Y168.064 E5.83804
G1 X168.286 Y167.482 E5.90303
G1 X167.920 Y167.083 E5.95224
G1 X167.360 Y166.613 E6.01870
G1 X166.711 Y166.232 E6.08716
G1 X166.414 Y166.124 E6.11592
G1 X166.469 Y165.814 E6.14450
G1 X168.819 Y165.814 E6.35818
G1 X172.637 Y159.200 E7.05263
G1 X168.819 Y152.586 E7.74709
G1 X161.181 Y152.586 E8.44154
G1 X157.363 Y159.200 E9.13599
G1 X161.181 Y165.814 E9.83045
G1 X163.515 Y165.814 E10.04260
G1 X163.580 Y166.107 E10.06988
G1 X163.066 Y166.350 E10.12166
G1 X162.622 Y166.628 E10.16924
G1 X162.080 Y167.083 E10.23360
G1 X161.714 Y167.482 E10.28281
G1 X161.299 Y168.064 E10.34781
G1 X161.046 Y168.521 E10.39531
G1 X150.101 Y193.157 E12.84656
G1 X149.922 Y193.611 E12.89093
G1 X149.721 Y194.329 E12.95877
G1 X149.605 Y195.071 E13.02702
G1 X149.577 Y195.564 E13.07197
G1 X149.305 Y195.629 E13.09736
G1 X148.819 Y194.786 E13.18584
G1 X143.274 Y194.786 E13.69002
G1 X156.600 Y166.668 E16.51936
G1 X156.600 Y130.200 E19.83542
G1 X173.400 Y130.200 E21.36308
G1 X173.400 Y166.668 E24.67913
G1 X186.726 Y194.786 E27.50847
G1 X181.249 Y194.786 E28.00652
G1 F4320.000
G1 X180.695 Y195.629 E27.47424
G1 F4320.000
G1 X180.423 Y195.564 E27.32688
G1 F4320.000
G1 X180.395 Y195.071 E27.06598
G1 F4320.000
G1 X180.282 Y194.345 E26.67830
G1 F4320.000
G1 X180.150 Y193.837 E26.40140
G1 F4320.000
G1 X179.984 Y193.358 E26.13375
G1 F4320.000
G1 X179.233 Y191.666 E25.15652
G1 E25.00652 F2400.00000
G92 E0
G1 X168.458 Y165.189 F5400.000
G1 E3.00000 F2400.00000
G1 F1800.000
G1 X161.542 Y165.189 E3.62884
G1 X158.084 Y159.200 E4.25768
G1 X161.542 Y153.211 E4.88653
G1 X168.458 Y153.211 E5.51537
G1 X171.916 Y159.200 E6.14421
G1 X168.492 Y165.131 E6.76691
G1 X168.097 Y164.564 F5400.000
G1 F450.000
G1 X161.903 Y164.564 E7.33014
G1 X158.806 Y159.200 E7.89338
G1 X161.903 Y153.836 E8.45661
G1 X168.097 Y153.836 E9.01984
G1 X171.194 Y159.200 E9.58307
G1 X168.131 Y164.506 E10.14016
G1 X168.097 Y165.014 F5400.000
G1 F4320.000
G1 X162.731 Y164.557 E7.29016
G1 E7.14016 F2400.00000
G92 E0
G1 X177.363 Y201.400 F5400.000
G1 E3.00000 F2400.00000
G1 F1800.000
G1 X179.903 Y205.800 E3.46201
G1 X150.097 Y205.800 E6.17229
G1 X152.637 Y201.400 E6.63430
G1 X152.295 Y200.807 E6.69652
G1 X153.198 Y201.106 E6.78298
G1 X153.895 Y201.220 E6.84726
G1 X175.903 Y201.225 E8.84838
G1 X176.580 Y201.159 E8.91027
G1 X177.692 Y200.829 E9.01576
G1 X177.396 Y201.342 E9.06959
G1 X178.084 Y201.400 F5400.000
G1 F1800.000
G1 X180.986 Y206.425 E9.59721
G1 X149.014 Y206.425 E12.50433
G1 X151.916 Y201.400 E13.03195
G1 X148.458 Y195.411 E13.66079
G1 X142.286 Y195.411 E14.22198
G1 X155.975 Y166.528 E17.12834
G1 X155.975 Y129.575 E20.48843
G1 X174.025 Y129.575 E22.12973
G1 X174.025 Y166.528 E25.48983
G1 X187.714 Y195.411 E28.39619
G1 X181.542 Y195.411 E28.95738
G1 X178.118 Y201.342 E29.58008
G1 X178.806 Y201.400 F5400.000
G1 F900.000
G1 X182.068 Y207.050 E30.17331
G1 X147.932 Y207.050 E33.27726
G1 X151.194 Y201.400 E33.87049
G1 X148.097 Y196.036 E34.43372
G1 X141.299 Y196.036 E35.05191
G1 X155.350 Y166.387 E38.03530
G1 X155.350 Y128.950 E41.43944
G1 X174.650 Y128.950 E43.19438
G1 X174.650 Y166.387 E46.59851
G1 X188.701 Y196.036 E49.58190
G1 X181.903 Y196.036 E50.20009
G1 X178.840 Y201.342 E50.75718
G1 X178.414 Y201.622 F5400.000
G1 F4320.000
G1 X181.498 Y206.042 E47.90718
G1 E47.75718 F2400.00000
G92 E0
G1 X181.985 Y206.907 F5400.000
G1 E3.00000 F2400.00000
G1 F900.000
G1 X184.976 Y206.907 E3.38045
G1 X185.715 Y206.871 E3.47463
G1 F900.000
G1 X186.085 Y206.853 E3.51781
G1 X186.358 Y206.812 E3.55002
G1 F900.000
G1 X186.904 Y206.731 E3.60692
G1 F900.000
G1 X187.451 Y206.650 E3.65626
G1 F900.000
G1 X187.997 Y206.569 E3.69807
G1 F4320.000
G1 X187.451 Y206.650 E3.40656
G1 E0.69807 F2400.00000
G92 E0
G1 X148.015 Y206.907 F5400.000
G1 E3.00000 F2400.00000
G1 F900.000
G1 X145.024 Y206.907 E3.39624
G1 X144.285 Y206.871 E3.49433
G1 F900.000
G1 X143.915 Y206.853 E3.53946
G1 X143.642 Y206.812 E3.57314
G1 F900.000
G1 X143.096 Y206.731 E3.63380
G1 F900.000
G1 X142.549 Y206.650 E3.68692
G1 F900.000
G1 X142.003 Y206.569 E3.73250
G1 F4320.000
G1 X142.549 Y206.650 E3.44099
G1 E0.73250 F2400.00000
G92 E0
G1 X151.482 Y200.024 F5400.000
G1 E3.00000 F2400.00000
G1 F600.000
G1 X151.651 Y200.112 E3.00540
G1 F600.000
G1 X151.989 Y200.289 E3.01165
G1 F600.000
G1 X152.321 Y200.446 E3.01315
G1 X151.857 Y200.333 F5400.000
G1 F600.000
G1 X151.394 Y199.759 E3.02619
G1 F600.000
G1 X151.303 Y199.642 E3.02716
G1 X150.165 Y197.668 F5400.000
G1 F600.000
G1 X150.010 Y197.319 E3.02960
G1 F600.000
G1 X149.917 Y197.078 E3.03413
G1 F600.000
G1 X149.491 Y195.906 E3.07052
G1 X148.876 Y194.404 F5400.000
G1 F600.000
G1 X149.362 Y193.918 E3.13357
G1 X149.572 Y193.168 E3.20496
G1 X149.808 Y192.580 E3.26305
G1 X147.984 Y194.404 E3.49954
G1 X147.093 Y194.404 E3.58126
G1 X150.521 Y190.977 E4.02572
G1 X151.233 Y189.373 E4.18663
G1 X146.202 Y194.404 E4.83905
G1 X145.311 Y194.404 E4.92077
G1 X151.946 Y187.769 E5.78115
G1 X152.658 Y186.166 E5.94207
G1 X144.420 Y194.404 E7.01042
G1 X144.018 Y194.404 E7.04720
G1 X144.460 Y193.473 E7.14172
G1 X153.371 Y184.562 E8.29724
G1 X154.083 Y182.958 E8.45816
G1 X145.263 Y191.779 E9.60196
G1 X146.066 Y190.085 E9.77386
G1 X154.796 Y181.355 E10.90595
G1 X155.508 Y179.751 E11.06687
G1 X146.869 Y188.391 E12.18724
G1 X147.671 Y186.696 E12.35914
G1 X156.221 Y178.147 E13.46779
G1 X156.933 Y176.544 E13.62871
G1 X148.474 Y185.002 E14.72564
G1 X149.277 Y183.308 E14.89755
G1 X157.646 Y174.940 E15.98277
G1 X158.358 Y173.336 E16.14368
G1 X150.080 Y181.614 E17.21718
G1 X150.883 Y179.920 E17.38908
G1 X159.071 Y171.732 E18.45087
G1 X159.783 Y170.129 E18.61178
G1 X151.686 Y178.226 E19.66185
G1 X152.489 Y176.532 E19.83375
G1 X160.496 Y168.525 E20.87210
G1 X160.729 Y167.999 E20.92485
G1 X161.013 Y167.487 E20.97854
G1 X161.471 Y166.845 E21.05088
G1 X161.876 Y166.403 E21.10581
G1 X161.803 Y166.327 E21.11550
G1 X153.291 Y174.838 E22.21921
G1 X154.094 Y173.144 E22.39111
G1 X161.056 Y166.182 E23.29389
G1 X160.730 Y165.618 E23.35371
G1 X154.897 Y171.450 E24.11007
G1 X155.700 Y169.756 E24.28197
G1 X160.403 Y165.053 E24.89191
G1 X160.077 Y164.488 E24.95173
G1 X156.503 Y168.062 E25.41526
G1 X156.982 Y167.052 E25.51777
G1 X156.982 Y166.692 E25.55076
G1 X159.751 Y163.923 E25.90990
G1 X159.425 Y163.358 E25.96972
G1 X156.982 Y165.801 E26.28657
G1 X156.982 Y164.910 E26.36829
G1 X159.099 Y162.793 E26.64283
G1 X158.773 Y162.228 E26.70265
G1 X156.982 Y164.018 E26.93489
G1 X156.982 Y163.127 E27.01661
G1 X158.446 Y161.663 E27.20655
G1 X158.120 Y161.098 E27.26637
G1 X156.982 Y162.236 E27.41401
G1 X156.982 Y161.345 E27.49573
G1 X157.794 Y160.533 E27.60107
G1 X157.468 Y159.968 E27.66089
G1 X156.982 Y160.454 E27.72392
G1 F4320.000
G1 X157.468 Y159.968 E27.36114
G1 F4320.000
G1 X157.794 Y160.533 E27.01682
G1 F4320.000
G1 X156.982 Y161.345 E26.41052
G1 F4320.000
G1 X156.982 Y162.236 E25.94017
G1 F4320.000
G1 X158.120 Y161.098 E25.09041
G1 F4320.000
G1 X158.325 Y161.453 E24.87392
G1 E24.72392 F2400.00000
G92 E0
G1 X162.411 Y166.333 F5400.000
G1 E3.00000 F2400.00000
G1 F600.000
G1 X162.300 Y166.439 E3.00054
G1 X162.411 Y166.333 F5400.000
G1 F600.000
G1 X162.659 Y166.127 E3.00422
G1 X163.946 Y166.309 F5400.000
G1 F600.000
G1 X164.223 Y165.869 E3.05395
G1 X164.481 Y165.852 E3.07862
G1 F600.000
G1 X165.308 Y165.837 E3.15024
G1 F600.000
G1 X166.136 Y165.904 E3.23108
G1 X167.337 Y166.127 F5400.000
G1 F600.000
G1 X167.452 Y166.219 E3.23279
G1 F600.000
G1 X167.700 Y166.439 E3.23405
G1 F4320.000
G1 X167.452 Y166.219 E3.05899
G1 E0.23405 F2400.00000
G92 E0
G1 X172.532 Y160.454 F5400.000
G1 E3.00000 F2400.00000
G1 F600.000
G1 X173.018 Y159.968 E3.06260
G1 X173.018 Y160.853 E3.14322
G1 X171.323 Y162.548 E3.36159
G1 X170.114 Y164.643 E3.58185
G1 X173.018 Y161.738 E3.95596
G1 X173.018 Y162.623 E4.03658
G1 X168.425 Y167.217 E4.62826
G1 X168.529 Y167.331 E4.64235
G1 X168.807 Y167.720 E4.68587
G1 X173.018 Y163.508 E5.22833
G1 X173.018 Y164.393 E5.30895
G1 X169.148 Y168.264 E5.80744
G1 X169.271 Y168.486 E5.83053
G1 X169.437 Y168.860 E5.86784
G1 X173.018 Y165.279 E6.32911
G1 X173.018 Y166.164 E6.40973
G1 X169.709 Y169.473 E6.83595
G1 X169.982 Y170.086 E6.89703
G1 X173.174 Y166.894 E7.30819
G1 X173.458 Y167.494 E7.36872
G1 X170.254 Y170.699 E7.78148
G1 X170.526 Y171.312 E7.84256
G1 X173.743 Y168.095 E8.25692
G1 X174.028 Y168.695 E8.31745
G1 X170.798 Y171.925 E8.73341
G1 X171.070 Y172.538 E8.79449
G1 X174.312 Y169.296 E9.21204
G1 X174.597 Y169.896 E9.27257
G1 X171.343 Y173.150 E9.69172
G1 X171.615 Y173.763 E9.75280
G1 X174.881 Y170.497 E10.17355
G1 X175.166 Y171.097 E10.23408
G1 X171.887 Y174.376 E10.65642
G1 X172.159 Y174.989 E10.71750
G1 X175.451 Y171.698 E11.14144
G1 X175.735 Y172.298 E11.20197
G1 X172.431 Y175.602 E11.62751
G1 X172.704 Y176.215 E11.68859
G1 X176.020 Y172.899 E12.11573
G1 X176.305 Y173.500 E12.17626
G1 X172.976 Y176.828 E12.60499
G1 X173.248 Y177.441 E12.66607
G1 X176.589 Y174.100 E13.09640
G1 X176.874 Y174.701 E13.15693
G1 X173.520 Y178.054 E13.58885
G1 X173.793 Y178.667 E13.64994
G1 X177.158 Y175.301 E14.08346
G1 X177.443 Y175.902 E14.14399
G1 X174.065 Y179.280 E14.57911
G1 X174.337 Y179.893 E14.64019
G1 X177.728 Y176.502 E15.07691
G1 X178.012 Y177.103 E15.13744
G1 X174.609 Y180.506 E15.57575
G1 X174.881 Y181.119 E15.63683
G1 X178.297 Y177.703 E16.07675
G1 X178.581 Y178.304 E16.13727
G1 X175.154 Y181.732 E16.57878
G1 X175.426 Y182.345 E16.63987
G1 X178.866 Y178.904 E17.08297
G1 X179.151 Y179.505 E17.14350
G1 X175.698 Y182.958 E17.58820
G1 X175.970 Y183.570 E17.64928
G1 X179.435 Y180.105 E18.09559
G1 X179.720 Y180.706 E18.15611
G1 X176.243 Y184.183 E18.60401
G1 X176.515 Y184.796 E18.66509
G1 X180.005 Y181.307 E19.11459
G1 X180.289 Y181.907 E19.17511
G1 X176.787 Y185.409 E19.62621
G1 X177.059 Y186.022 E19.68729
G1 X180.574 Y182.508 E20.13998
