; generated by Slic3r 1.3.1-dev (Build 18ddd3a36dc69d81fb9b7440498bff9e1dde8b7e) on 2021-07-20 at 20:16:33

; external perimeters extrusion width = 0.49mm (3.88mm^3/s)
; perimeters extrusion width = 0.59mm (9.54mm^3/s)
; infill extrusion width = 0.56mm (11.95mm^3/s)
; solid infill extrusion width = 0.59mm (3.18mm^3/s)
; top infill extrusion width = 0.59mm (2.39mm^3/s)
; support material extrusion width = 0.49mm (7.75mm^3/s)

M107
G92 E0
M190 S45 ; set bed temperature and wait for it to be reached
M104 S226 ; set temperature
G28 ; home all axes
G1 Z5 F5000 ; lift nozzle

; Filament gcode

M109 S226 ; set temperature and wait for it to be reached
G21 ; set units to millimeters
G90 ; use absolute coordinates
M82 ; use absolute distances for extrusion
G92 E0
G1 E-3.00000 F2400.00000
G92 E0
G1 Z0.350 F5400.000
G1 X135.014 Y90.684 F5400.000
G1 E3.00000 F2400.00000
G1 F1800.000
G1 X135.739 Y89.598 E3.11876
G1 X136.136 Y89.116 E3.17552
G1 X136.563 Y88.643 E3.23346
G1 X137.639 Y87.565 E3.37198
G1 X138.079 Y87.162 E3.42620
G1 X139.548 Y85.952 E3.59926
G1 X141.545 Y84.825 E3.80781
G1 X143.718 Y84.446 E4.00838
G1 X189.591 Y84.200 E8.17959
G1 X191.851 Y84.585 E8.38813
G1 X193.832 Y85.706 E8.59506
G1 X195.451 Y87.037 E8.78564
G1 X195.934 Y87.475 E8.84497
G1 X197.184 Y88.727 E9.00584
G1 X197.614 Y89.201 E9.06401
G1 X197.939 Y89.598 E9.11066
G1 X198.665 Y90.684 E9.22942
G1 X199.329 Y91.927 E9.35761
G1 X199.824 Y93.122 E9.47514
G1 X200.084 Y93.978 E9.55650
G1 X200.370 Y95.890 E9.73228
G1 X200.658 Y232.186 E22.12569
G1 X200.626 Y232.849 E22.18601
G1 X200.488 Y234.253 E22.31428
G1 X200.233 Y235.530 E22.43270
G1 X200.084 Y236.022 E22.47951
G1 X199.669 Y237.063 E22.58135
G1 X198.419 Y239.559 E22.83517
G1 X197.184 Y241.273 E23.02726
G1 X195.934 Y242.525 E23.18813
G1 X195.451 Y242.963 E23.24745
G1 X193.832 Y244.294 E23.43804
G1 X191.835 Y245.421 E23.64658
G1 X189.590 Y245.800 E23.85352
G1 X143.718 Y245.554 E28.02471
G1 X141.462 Y245.145 E28.23326
G1 X139.548 Y244.048 E28.43383
G1 X137.548 Y242.405 E28.66925
G1 X136.635 Y241.492 E28.78661
G1 X136.136 Y240.884 E28.85811
G1 X135.405 Y239.789 E28.97780
G1 X134.155 Y237.440 E29.21979
G1 X133.666 Y236.255 E29.33640
G1 X133.445 Y235.530 E29.40528
G1 X133.191 Y234.253 E29.52370
G1 X133.043 Y232.707 E29.66487
G1 X132.661 Y226.549 E30.22589
G1 X130.551 Y173.575 E35.04665
G1 X130.536 Y172.997 E35.09919
G1 X130.536 Y156.991 E36.55459
G1 X132.674 Y103.243 E41.44581
G1 X133.043 Y97.293 E41.98784
G1 X133.191 Y95.747 E42.12902
G1 X133.445 Y94.470 E42.24743
G1 X133.855 Y93.122 E42.37559
G1 X134.350 Y91.927 E42.49313
G1 X134.982 Y90.743 E42.61518
G1 F4320.000
G1 X135.739 Y89.598 E41.89043
G1 F4320.000
G1 X136.136 Y89.116 E41.56094
G1 F4320.000
G1 X136.563 Y88.643 E41.22468
G1 F4320.000
G1 X137.639 Y87.565 E40.42068
G1 F4320.000
G1 X138.079 Y87.162 E40.10596
G1 F4320.000
G1 X138.253 Y87.016 E39.98621
G1 F4320.000
G1 X138.298 Y86.979 E39.95514
G1 F4320.000
G1 X138.576 Y86.750 E39.76518
G1 E39.61518 F2400.00000
G92 E0
G1 X169.672 Y129.626 F5400.000
G1 E3.00000 F2400.00000
G1 F900.000
G1 X169.381 Y130.124 E3.05250
G1 X169.150 Y130.433 E3.08756
G1 X168.897 Y130.709 E3.12160
G1 X168.622 Y130.952 E3.15501
G1 X168.327 Y131.161 E3.18784
G1 X168.015 Y131.332 E3.22016
G1 X167.685 Y131.464 E3.25255
G1 X167.183 Y131.579 E3.29931
G1 X166.667 Y131.596 E3.34627
G1 X166.156 Y131.513 E3.39337
G1 X165.663 Y131.333 E3.44104
G1 X165.202 Y131.062 E3.48968
G1 X164.782 Y130.709 E3.53956
G1 X164.411 Y130.284 E3.59085
G1 X164.099 Y129.800 E3.64326
G1 X163.925 Y129.449 E3.67889
G1 X153.093 Y105.060 E6.10541
G1 X152.947 Y104.691 E6.14153
G1 X152.784 Y104.109 E6.19647
G1 X152.712 Y103.696 E6.23458
G1 X152.665 Y103.082 E6.29055
G1 X152.673 Y102.660 E6.32896
G1 X152.744 Y102.050 E6.38481
G1 X152.832 Y101.642 E6.42279
G1 X153.017 Y101.070 E6.47739
G1 X153.182 Y100.699 E6.51430
G1 X153.473 Y100.201 E6.56680
G1 X153.707 Y99.889 E6.60226
G1 X154.088 Y99.493 E6.65225
G1 X154.381 Y99.261 E6.68623
G1 X154.833 Y98.995 E6.73394
G1 X155.169 Y98.861 E6.76680
G1 X155.665 Y98.747 E6.81305
G1 X156.003 Y98.725 E6.84386
G1 X177.843 Y98.730 E8.82975
G1 X178.348 Y98.812 E8.87633
G1 X178.836 Y98.991 E8.92354
G1 X179.156 Y99.166 E8.95679
G1 X179.584 Y99.487 E9.00534
G1 X179.854 Y99.753 E9.03989
G1 X180.204 Y100.197 E9.09126
G1 X180.499 Y100.703 E9.14448
G1 X180.729 Y101.252 E9.19868
G1 X180.848 Y101.645 E9.23597
G1 X180.935 Y102.050 E9.27363
G1 X181.006 Y102.660 E9.32948
G1 X181.014 Y103.079 E9.36758
G1 X180.990 Y103.497 E9.40566
G1 X180.895 Y104.106 E9.46166
G1 X180.731 Y104.691 E9.51691
G1 X180.586 Y105.060 E9.55304
G1 X169.699 Y129.564 E11.99114
G1 X169.672 Y129.626 F5400.000
G1 F4320.000
G1 X169.672 Y129.626 E11.95552
G1 F4320.000
G1 X169.381 Y130.124 E11.65079
G1 F4320.000
G1 X169.150 Y130.433 E11.44730
G1 F4320.000
G1 X168.897 Y130.709 E11.24973
G1 F4320.000
G1 X168.622 Y130.952 E11.05578
G1 F4320.000
G1 X168.327 Y131.161 E10.86525
G1 F4320.000
G1 X168.015 Y131.332 E10.67767
G1 F4320.000
G1 X167.685 Y131.464 E10.48964
G1 F4320.000
G1 X167.183 Y131.579 E10.21826
G1 F4320.000
G1 X166.667 Y131.596 E9.94570
G1 F4320.000
G1 X166.156 Y131.513 E9.67230
G1 F4320.000
G1 X165.663 Y131.333 E9.39559
G1 F4320.000
G1 X165.248 Y131.089 E9.14114
G1 E8.99114 F2400.00000
G92 E0
G1 X179.205 Y97.795 F5400.000
G1 E3.00000 F2400.00000
G1 F1800.000
G1 X178.666 Y97.598 E3.05218
G1 X177.944 Y97.480 E3.11872
G1 X155.962 Y97.475 E5.11749
G1 X155.483 Y97.506 E5.16114
G1 X154.794 Y97.664 E5.22540
G1 X154.473 Y97.793 E5.25692
G1 X151.936 Y93.400 E5.71822
G1 X181.743 Y93.400 E8.42850
G1 X179.239 Y97.736 E8.88383
G1 X179.924 Y97.800 F5400.000
G1 F1800.000
G1 X180.937 Y99.556 E9.06819
G1 X180.649 Y99.752 E9.09991
G1 X180.321 Y99.336 E9.14808
G1 X179.992 Y99.012 E9.19000
G1 X179.496 Y98.640 E9.24642
G1 X179.095 Y98.420 E9.28801
G1 X178.507 Y98.205 E9.34490
G1 X177.893 Y98.105 E9.40146
G1 X155.983 Y98.100 E11.39379
G1 X155.574 Y98.127 E11.43102
G1 X154.982 Y98.262 E11.48628
G1 X154.558 Y98.432 E11.52783
G1 X154.027 Y98.744 E11.58379
G1 X153.667 Y99.029 E11.62554
G1 X153.230 Y99.483 E11.68280
G1 X153.059 Y99.711 E11.70876
G1 X152.764 Y99.517 E11.74087
G1 X153.755 Y97.800 E11.92109
G1 X150.854 Y92.775 E12.44871
G1 X182.825 Y92.775 E15.35583
G1 X179.957 Y97.742 E15.87731
G1 F4320.000
G1 X180.937 Y99.556 E14.78900
G1 F4320.000
G1 X180.649 Y99.752 E14.60490
G1 F4320.000
G1 X180.321 Y99.336 E14.32534
G1 F4320.000
G1 X179.992 Y99.012 E14.08201
G1 F4320.000
G1 X179.496 Y98.640 E13.75454
G1 F4320.000
G1 X179.095 Y98.420 E13.51311
G1 F4320.000
G1 X178.507 Y98.205 E13.18292
G1 F4320.000
G1 X178.216 Y98.158 E13.02731
G1 E12.87731 F2400.00000
G92 E0
G1 X167.871 Y135.367 F5400.000
G1 E3.00000 F2400.00000
G1 F450.000
G1 X168.178 Y135.470 E3.02944
G1 X168.476 Y135.597 E3.05888
G1 X168.986 Y135.891 E3.11237
G1 X169.457 Y136.275 E3.16765
G1 X169.847 Y136.716 E3.22115
G1 X170.042 Y136.998 E3.25238
G1 X170.315 Y137.519 E3.30587
G1 X170.508 Y138.096 E3.36115
G1 X170.602 Y138.677 E3.41465
G1 X170.615 Y139.000 E3.44408
G1 X170.602 Y139.323 E3.47352
G1 X170.508 Y139.904 E3.52701
G1 X170.315 Y140.481 E3.58230
G1 X170.042 Y141.002 E3.63579
G1 X169.847 Y141.284 E3.66702
G1 X169.457 Y141.725 E3.72051
G1 X169.001 Y142.097 E3.77401
G1 X168.711 Y142.280 E3.80523
G1 X168.179 Y142.533 E3.85873
G1 X167.595 Y142.702 E3.91401
G1 X166.992 Y142.775 E3.96930
G1 X166.384 Y142.751 E4.02459
G1 X165.808 Y142.633 E4.07808
G1 X165.482 Y142.524 E4.10931
G1 X164.968 Y142.280 E4.16101
G1 X164.678 Y142.097 E4.19223
G1 X164.222 Y141.725 E4.24573
G1 X163.832 Y141.284 E4.29922
G1 X163.637 Y141.002 E4.33045
G1 X163.364 Y140.481 E4.38394
G1 X163.177 Y139.923 E4.43743
G1 X163.109 Y139.586 E4.46866
G1 X163.063 Y139.020 E4.52036
G1 X163.077 Y138.677 E4.55158
G1 X163.171 Y138.096 E4.60508
G1 X163.364 Y137.519 E4.66036
G1 X163.637 Y136.998 E4.71386
G1 X163.832 Y136.716 E4.74508
G1 X164.222 Y136.275 E4.79858
G1 X164.693 Y135.891 E4.85386
G1 X165.220 Y135.587 E4.90915
G1 X165.770 Y135.378 E4.96264
G1 X166.103 Y135.296 E4.99387
G1 X166.687 Y135.225 E5.04736
G1 X167.295 Y135.249 E5.10265
G1 X167.805 Y135.354 E5.15000
G1 X167.709 Y135.972 F5400.000
G1 F450.000
G1 X168.196 Y136.157 E5.19739
G1 X168.629 Y136.407 E5.24286
G1 X169.022 Y136.727 E5.28897
G1 X169.354 Y137.102 E5.33444
G1 X169.506 Y137.322 E5.35879
G1 X169.738 Y137.765 E5.40426
G1 X169.899 Y138.246 E5.45037
G1 X169.979 Y138.739 E5.49584
G1 X169.979 Y139.261 E5.54322
G1 X169.899 Y139.754 E5.58869
G1 X169.738 Y140.235 E5.63480
G1 X169.506 Y140.678 E5.68027
G1 X169.354 Y140.898 E5.70463
G1 X169.022 Y141.273 E5.75009
G1 X168.635 Y141.589 E5.79556
G1 X168.409 Y141.732 E5.81992
G1 X167.957 Y141.946 E5.86539
G1 X167.470 Y142.087 E5.91150
G1 X166.966 Y142.149 E5.95761
G1 X166.460 Y142.128 E6.00372
G1 X165.970 Y142.028 E6.04919
G1 X165.716 Y141.943 E6.07354
G1 X165.270 Y141.732 E6.11837
G1 X165.044 Y141.589 E6.14272
G1 X164.657 Y141.273 E6.18819
G1 X164.325 Y140.898 E6.23366
G1 X164.173 Y140.678 E6.25801
G1 X163.940 Y140.235 E6.30348
G1 X163.782 Y139.761 E6.34895
G1 X163.728 Y139.498 E6.37330
G1 X163.689 Y139.007 E6.41813
G1 X163.700 Y138.739 E6.44248
G1 X163.780 Y138.246 E6.48795
G1 X163.940 Y137.765 E6.53406
G1 X164.173 Y137.322 E6.57953
G1 X164.325 Y137.102 E6.60388
G1 X164.657 Y136.727 E6.64935
G1 X165.049 Y136.407 E6.69546
G1 X165.489 Y136.153 E6.74158
G1 X165.956 Y135.976 E6.78705
G1 X166.216 Y135.912 E6.81140
G1 X166.712 Y135.851 E6.85687
G1 X167.219 Y135.872 E6.90298
G1 X167.643 Y135.958 E6.94231
G1 X167.709 Y135.972 F5400.000
G1 F4320.000
G1 X167.709 Y135.972 E6.90669
G1 F4320.000
G1 X167.956 Y136.054 E6.76906
G1 F4320.000
G1 X168.196 Y136.157 E6.63144
G1 F4320.000
G1 X168.629 Y136.407 E6.36752
G1 F4320.000
G1 X169.022 Y136.727 E6.09988
G1 F4320.000
G1 X169.354 Y137.102 E5.83597
G1 F4320.000
G1 X169.506 Y137.322 E5.69461
G1 F4320.000
G1 X169.738 Y137.765 E5.43070
G1 F4320.000
G1 X169.899 Y138.246 E5.16305
G1 F4320.000
G1 X169.979 Y138.739 E4.89915
G1 F4320.000
G1 X169.990 Y139.000 E4.76152
G1 F4320.000
G1 X169.979 Y139.261 E4.62389
G1 F4320.000
G1 X169.899 Y139.754 E4.35998
G1 F4320.000
G1 X169.738 Y140.235 E4.09233
G1 F4320.000
G1 X169.738 Y140.235 E4.09231
G1 E3.94231 F2400.00000
G92 E0
G1 X150.445 Y150.021 F5400.000
G1 E3.00000 F2400.00000
G1 F450.000
G1 X150.735 Y150.411 E3.04425
G1 X150.996 Y150.857 E3.09118
G1 X151.195 Y151.296 E3.13505
G1 X151.347 Y151.754 E3.17890
G1 X151.457 Y152.258 E3.22584
G1 X151.509 Y152.742 E3.27008
G1 X151.509 Y153.258 E3.31702
G1 X151.457 Y153.742 E3.36127
G1 X151.347 Y154.245 E3.40808
G1 X151.206 Y154.672 E3.44902
G1 X150.981 Y155.172 E3.49883
G1 X150.730 Y155.596 E3.54362
G1 X150.420 Y156.008 E3.59056
G1 X150.092 Y156.360 E3.63427
G1 X149.728 Y156.678 E3.67827
G1 X149.305 Y156.974 E3.72521
G1 X148.883 Y157.207 E3.76904
G1 X148.438 Y157.395 E3.81292
G1 X147.944 Y157.545 E3.85986
G1 X147.469 Y157.634 E3.90381
G1 X146.990 Y157.674 E3.94757
G1 X146.474 Y157.663 E3.99451
G1 X145.985 Y157.598 E4.03934
G1 X145.454 Y157.466 E4.08910
G1 X145.031 Y157.313 E4.12999
G1 X144.567 Y157.088 E4.17687
G1 X144.155 Y156.830 E4.22111
G1 X143.749 Y156.510 E4.26805
G1 X143.404 Y156.173 E4.31192
G1 X143.095 Y155.803 E4.35576
G1 X142.809 Y155.373 E4.40270
G1 X142.585 Y154.942 E4.44695
G1 X142.396 Y154.461 E4.49388
G1 X142.269 Y153.991 E4.53813
G1 X142.188 Y153.483 E4.58496
G1 X142.164 Y153.033 E4.62588
G1 X142.191 Y152.486 E4.67568
G1 X142.270 Y152.000 E4.72048
G1 X142.409 Y151.503 E4.76742
G1 X142.586 Y151.056 E4.81115
G1 X142.809 Y150.627 E4.85513
G1 X143.095 Y150.197 E4.90207
G1 X143.404 Y149.827 E4.94591
G1 X143.749 Y149.490 E4.98979
G1 X144.155 Y149.170 E5.03672
G1 X144.565 Y148.914 E5.08068
G1 X144.997 Y148.702 E5.12444
G1 X145.481 Y148.524 E5.17137
G1 X145.960 Y148.406 E5.21620
G1 X146.503 Y148.336 E5.26596
G1 X146.952 Y148.324 E5.30687
G1 X147.466 Y148.365 E5.35373
G1 X147.944 Y148.455 E5.39798
G1 X148.438 Y148.605 E5.44491
G1 X148.883 Y148.793 E5.48879
G1 X149.305 Y149.026 E5.53263
G1 X149.728 Y149.322 E5.57957
G1 X150.094 Y149.642 E5.62381
G1 X150.399 Y149.971 E5.66461
G1 X149.963 Y150.420 F5400.000
G1 F450.000
G1 X150.213 Y150.757 E5.70274
G1 X150.440 Y151.144 E5.74359
G1 X150.612 Y151.524 E5.78149
G1 X150.744 Y151.920 E5.81938
G1 X150.840 Y152.358 E5.86023
G1 X150.884 Y152.775 E5.89836
G1 X150.884 Y153.225 E5.93921
G1 X150.840 Y153.642 E5.97734
G1 X150.744 Y154.080 E6.01812
G1 X150.623 Y154.445 E6.05315
G1 X150.426 Y154.884 E6.09683
G1 X150.210 Y155.247 E6.13529
G1 X149.940 Y155.606 E6.17614
G1 X149.657 Y155.911 E6.21395
G1 X149.342 Y156.186 E6.25193
G1 X148.974 Y156.443 E6.29278
G1 X148.609 Y156.644 E6.33066
G1 X148.225 Y156.807 E6.36857
G1 X147.795 Y156.937 E6.40942
G1 X147.385 Y157.014 E6.44737
G1 X146.971 Y157.049 E6.48521
G1 X146.521 Y157.039 E6.52606
G1 X146.102 Y156.984 E6.56455
G1 X145.636 Y156.867 E6.60818
G1 X145.274 Y156.736 E6.64320
G1 X144.870 Y156.540 E6.68401
G1 X144.515 Y156.318 E6.72214
G1 X144.162 Y156.040 E6.76299
G1 X143.864 Y155.749 E6.80089
G1 X143.597 Y155.429 E6.83878
G1 X143.348 Y155.055 E6.87963
G1 X143.154 Y154.683 E6.91776
G1 X142.991 Y154.264 E6.95861
G1 X142.880 Y153.860 E6.99674
G1 X142.810 Y153.417 E7.03752
G1 X142.789 Y153.032 E7.07255
G1 X142.813 Y152.553 E7.11622
G1 X142.881 Y152.135 E7.15469
G1 X143.002 Y151.702 E7.19554
G1 X143.155 Y151.316 E7.23335
G1 X143.348 Y150.945 E7.27133
G1 X143.597 Y150.571 E7.31217
G1 X143.864 Y150.251 E7.35006
G1 X144.162 Y149.960 E7.38796
G1 X144.515 Y149.682 E7.42881
G1 X144.869 Y149.461 E7.46677
G1 X145.242 Y149.277 E7.50460
G1 X145.664 Y149.123 E7.54545
G1 X146.075 Y149.022 E7.58394
G1 X146.551 Y148.960 E7.62758
G1 X146.936 Y148.950 E7.66260
G1 X147.383 Y148.985 E7.70340
G1 X147.795 Y149.063 E7.74153
G1 X148.225 Y149.193 E7.78238
G1 X148.609 Y149.356 E7.82029
G1 X148.974 Y149.557 E7.85817
G1 X149.342 Y149.814 E7.89902
G1 X149.658 Y150.090 E7.93715
G1 X149.917 Y150.371 E7.97187
G1 X149.481 Y150.820 F5400.000
G1 F450.000
G1 X149.691 Y151.102 E8.00388
G1 X149.885 Y151.432 E8.03864
G1 X150.029 Y151.752 E8.07058
G1 X150.140 Y152.085 E8.10251
G1 X150.222 Y152.459 E8.13727
G1 X150.259 Y152.809 E8.16929
G1 X150.259 Y153.191 E8.20405
G1 X150.222 Y153.541 E8.23607
G1 X150.140 Y153.914 E8.27080
G1 X150.040 Y154.219 E8.29994
G1 X149.870 Y154.595 E8.33748
G1 X149.690 Y154.899 E8.36961
G1 X149.460 Y155.205 E8.40437
G1 X149.221 Y155.462 E8.43627
G1 X148.957 Y155.693 E8.46823
G1 X148.643 Y155.912 E8.50300
G1 X148.336 Y156.081 E8.53492
G1 X148.012 Y156.218 E8.56686
G1 X147.647 Y156.329 E8.60162
G1 X147.301 Y156.394 E8.63358
G1 X146.951 Y156.423 E8.66549
G1 X146.569 Y156.415 E8.70025
G1 X146.219 Y156.369 E8.73239
G1 X145.818 Y156.269 E8.76992
G1 X145.517 Y156.160 E8.79904
G1 X145.173 Y155.993 E8.83379
G1 X144.875 Y155.806 E8.86581
G1 X144.575 Y155.570 E8.90057
G1 X144.323 Y155.324 E8.93251
G1 X144.099 Y155.054 E8.96444
G1 X143.887 Y154.736 E8.99920
G1 X143.724 Y154.424 E9.03122
G1 X143.585 Y154.068 E9.06598
G1 X143.492 Y153.728 E9.09799
G1 X143.432 Y153.351 E9.13273
G1 X143.415 Y153.031 E9.16186
G1 X143.435 Y152.619 E9.19940
G1 X143.493 Y152.270 E9.23154
G1 X143.595 Y151.902 E9.26630
G1 X143.724 Y151.575 E9.29820
G1 X143.887 Y151.264 E9.33016
G1 X144.099 Y150.946 E9.36492
G1 X144.323 Y150.676 E9.39685
G1 X144.575 Y150.430 E9.42879
G1 X144.875 Y150.194 E9.46355
G1 X145.173 Y150.007 E9.49551
G1 X145.488 Y149.853 E9.52741
G1 X145.847 Y149.721 E9.56217
G1 X146.190 Y149.637 E9.59432
G1 X146.599 Y149.584 E9.63185
G1 X146.920 Y149.576 E9.66097
G1 X147.301 Y149.606 E9.69572
G1 X147.647 Y149.671 E9.72774
G1 X148.012 Y149.782 E9.76250
G1 X148.336 Y149.919 E9.79444
G1 X148.643 Y150.088 E9.82636
G1 X148.957 Y150.307 E9.86112
G1 X149.222 Y150.539 E9.89314
G1 X149.436 Y150.770 E9.92177
G1 X149.481 Y150.820 F5400.000
G1 F4320.000
G1 X149.481 Y150.820 E9.88614
G1 F4320.000
G1 X149.691 Y151.102 E9.70030
G1 F4320.000
G1 X149.885 Y151.432 E9.49854
G1 F4320.000
G1 X150.029 Y151.752 E9.31318
G1 F4320.000
G1 X150.140 Y152.085 E9.12785
G1 F4320.000
G1 X150.222 Y152.459 E8.92609
G1 F4320.000
G1 X150.259 Y152.809 E8.74025
G1 F4320.000
G1 X150.259 Y153.191 E8.53848
G1 F4320.000
G1 X150.222 Y153.541 E8.35264
