; generated by Slic3r 1.3.1-dev (Build 18ddd3a36dc69d81fb9b7440498bff9e1dde8b7e) on 2021-07-21 at 15:19:40

; external perimeters extrusion width = 0.49mm (3.88mm^3/s)
; perimeters extrusion width = 0.59mm (9.54mm^3/s)
; infill extrusion width = 0.56mm (11.95mm^3/s)
; solid infill extrusion width = 0.59mm (3.18mm^3/s)
; top infill extrusion width = 0.59mm (2.39mm^3/s)
; support material extrusion width = 0.49mm (7.75mm^3/s)

M107
G92 E0
M190 S45 ; set bed temperature and wait for it to be reached
M104 S226 ; set temperature
G28 ; home all axes
G1 Z5 F5000 ; lift nozzle

; Filament gcode

M109 S226 ; set temperature and wait for it to be reached
G21 ; set units to millimeters
G90 ; use absolute coordinates
M82 ; use absolute distances for extrusion
G92 E0
G1 E-3.00000 F2400.00000
G92 E0
G1 Z0.350 F5400.000
G1 X126.698 Y134.351 F5400.000
G1 E3.00000 F2400.00000
G1 F1800.000
G1 X127.534 Y133.607 E3.10179
G1 X128.403 Y132.960 E3.20027
G1 X129.022 Y132.565 E3.26705
G1 X130.007 Y132.034 E3.36883
G1 X130.678 Y131.734 E3.43561
G1 X131.695 Y131.364 E3.53409
G1 X132.777 Y131.074 E3.63588
G1 X133.843 Y130.886 E3.73436
G1 X134.813 Y130.794 E3.82294
G1 X174.162 Y128.784 E7.40559
G1 X175.149 Y128.807 E7.49538
G1 X177.490 Y129.037 E7.70926
G1 X178.766 Y129.291 E7.82755
G1 X181.017 Y129.975 E8.04146
G1 X182.213 Y130.470 E8.15918
G1 X184.288 Y131.579 E8.37311
G1 X185.370 Y132.301 E8.49136
G1 X187.188 Y133.793 E8.70525
G1 X188.107 Y134.712 E8.82337
G1 X189.599 Y136.530 E9.03726
G1 X190.320 Y137.610 E9.15530
G1 X191.429 Y139.685 E9.36927
G1 X191.814 Y140.548 E9.45524
G1 X207.582 Y184.029 E13.66086
G1 X207.956 Y185.258 E13.77766
G1 X208.210 Y186.535 E13.89608
G1 X208.349 Y187.951 E14.02548
G1 X208.349 Y189.249 E14.14344
G1 X208.210 Y190.665 E14.27284
G1 X207.956 Y191.942 E14.39125
G1 X207.582 Y193.171 E14.50806
G1 X206.895 Y194.702 E14.66066
G1 X205.645 Y196.745 E14.87845
G1 X204.522 Y198.124 E15.04010
G1 X202.950 Y199.578 E15.23484
G1 X201.527 Y200.747 E15.40230
G1 X199.530 Y201.874 E15.61085
G1 X197.271 Y202.253 E15.81912
G1 X151.202 Y201.902 E20.00824
G1 X148.946 Y201.488 E20.21678
G1 X147.047 Y200.396 E20.41602
G1 X145.164 Y198.849 E20.63762
G1 X144.251 Y197.937 E20.75498
G1 X143.634 Y197.186 E20.84330
G1 X142.796 Y195.879 E20.98454
G1 X141.526 Y193.269 E21.24841
G1 X124.161 Y156.951 E24.90891
G1 X123.834 Y156.223 E24.98150
G1 X123.463 Y155.205 E25.07999
G1 X123.263 Y154.498 E25.14676
G1 X123.103 Y153.782 E25.21353
G1 X122.986 Y153.057 E25.28030
G1 X122.888 Y151.942 E25.38209
G1 X122.875 Y143.400 E26.15877
G1 X122.910 Y142.474 E26.24306
G1 X123.036 Y141.398 E26.34154
G1 X123.263 Y140.302 E26.44333
G1 X123.573 Y139.264 E26.54181
G1 X123.986 Y138.224 E26.64360
G1 X124.307 Y137.563 E26.71038
G1 X124.848 Y136.625 E26.80886
G1 X125.260 Y136.017 E26.87563
G1 X125.955 Y135.139 E26.97742
G1 X126.650 Y134.399 E27.06977
G1 F4320.000
G1 X126.978 Y134.087 E26.83075
G1 F4320.000
G1 X127.239 Y133.855 E26.64655
G1 F4320.000
G1 X127.534 Y133.607 E26.44316
G1 F4320.000
G1 X127.808 Y133.391 E26.25896
G1 F4320.000
G1 X128.117 Y133.161 E26.05563
G1 F4320.000
G1 X128.403 Y132.960 E25.87142
G1 F4320.000
G1 X128.725 Y132.749 E25.66798
G1 F4320.000
G1 X129.022 Y132.565 E25.48378
G1 F4320.000
G1 X129.356 Y132.373 E25.28039
G1 F4320.000
G1 X129.663 Y132.207 E25.09619
G1 F4320.000
G1 X130.007 Y132.034 E24.89285
G1 F4320.000
G1 X130.324 Y131.887 E24.70865
G1 F4320.000
G1 X130.678 Y131.734 E24.50519
G1 F4320.000
G1 X131.002 Y131.605 E24.32099
G1 F4320.000
G1 X131.182 Y131.540 E24.21977
G1 E24.06977 F2400.00000
G92 E0
G1 X187.248 Y186.910 F5400.000
G1 E3.00000 F2400.00000
G1 F900.000
G1 X186.962 Y187.136 E3.03311
G1 X186.659 Y187.326 E3.06568
G1 X186.335 Y187.480 E3.09826
G1 X185.840 Y187.627 E3.14523
G1 X185.342 Y187.675 E3.19068
G1 X163.497 Y187.670 E5.17709
G1 X162.991 Y187.588 E5.22367
G1 X162.504 Y187.410 E5.27088
G1 X162.183 Y187.234 E5.30413
G1 X161.756 Y186.913 E5.35268
G1 X161.485 Y186.647 E5.38723
G1 X161.135 Y186.203 E5.43860
G1 X160.843 Y185.701 E5.49148
G1 X160.678 Y185.330 E5.52838
G1 X160.493 Y184.758 E5.58299
G1 X160.404 Y184.350 E5.62097
G1 X160.333 Y183.740 E5.67681
G1 X160.325 Y183.321 E5.71492
G1 X160.350 Y182.903 E5.75299
G1 X160.444 Y182.294 E5.80900
G1 X160.608 Y181.709 E5.86425
G1 X160.754 Y181.340 E5.90037
G1 X171.668 Y156.775 E8.34462
G1 X171.958 Y156.276 E8.39712
G1 X172.190 Y155.967 E8.43217
G1 X172.446 Y155.688 E8.46664
G1 X172.859 Y155.341 E8.51566
G1 X173.166 Y155.149 E8.54865
G1 X173.490 Y154.996 E8.58124
G1 X173.980 Y154.850 E8.62768
G1 X174.328 Y154.805 E8.65957
G1 X174.678 Y154.805 E8.69140
G1 X175.183 Y154.887 E8.73798
G1 X175.676 Y155.067 E8.78566
G1 X176.137 Y155.338 E8.83429
G1 X176.554 Y155.688 E8.88377
G1 X176.810 Y155.967 E8.91824
G1 X177.042 Y156.276 E8.95330
G1 X177.332 Y156.775 E9.00580
G1 X188.321 Y181.517 E11.46753
G1 X188.453 Y181.899 E11.50427
G1 X188.556 Y182.298 E11.54175
G1 X188.650 Y182.903 E11.59744
G1 X188.675 Y183.321 E11.63551
G1 X188.667 Y183.740 E11.67362
G1 X188.596 Y184.350 E11.72946
G1 X188.508 Y184.755 E11.76712
G1 X188.391 Y185.144 E11.80408
G1 X188.242 Y185.521 E11.84092
G1 X187.972 Y186.037 E11.89389
G1 X187.753 Y186.359 E11.92925
G1 X187.512 Y186.650 E11.96362
G1 X187.296 Y186.863 E11.99121
G1 X187.248 Y186.910 F5400.000
G1 F4320.000
G1 X187.248 Y186.910 E11.95558
G1 F4320.000
G1 X186.962 Y187.136 E11.76338
G1 F4320.000
G1 X186.659 Y187.326 E11.57437
G1 F4320.000
G1 X186.335 Y187.480 E11.38524
G1 F4320.000
G1 X185.840 Y187.627 E11.11262
G1 F4320.000
G1 X185.342 Y187.675 E10.84881
G1 F4320.000
G1 X182.107 Y187.674 E9.14121
G1 E8.99121 F2400.00000
G92 E0
G1 X175.609 Y151.664 F5400.000
G1 E3.00000 F2400.00000
G1 F450.000
G1 X174.873 Y151.790 E3.06788
G1 X174.136 Y151.790 E3.13495
G1 X173.450 Y151.676 E3.19820
G1 X173.038 Y151.553 E3.23729
G1 X172.405 Y151.275 E3.30013
G1 X171.793 Y150.875 E3.36660
G1 X171.284 Y150.407 E3.42944
G1 X171.006 Y150.079 E3.46853
G1 X170.626 Y149.498 E3.53170
G1 X170.334 Y148.831 E3.59789
G1 X170.163 Y148.158 E3.66106
G1 X170.114 Y147.764 E3.69717
G1 X170.097 Y147.367 E3.73328
G1 X170.155 Y146.675 E3.79645
G1 X170.334 Y145.969 E3.86265
G1 X170.626 Y145.302 E3.92884
G1 X171.025 Y144.693 E3.99503
G1 X171.495 Y144.182 E4.05820
G1 X171.823 Y143.905 E4.09729
G1 X172.402 Y143.527 E4.16013
G1 X173.072 Y143.233 E4.22660
G1 X173.741 Y143.063 E4.28944
G1 X174.169 Y143.010 E4.32861
G1 X174.839 Y143.010 E4.38955
G1 X175.276 Y143.066 E4.42965
G1 X175.967 Y143.246 E4.49450
G1 X176.648 Y143.554 E4.56246
G1 X177.239 Y143.953 E4.62731
G1 X177.570 Y144.245 E4.66748
G1 X178.042 Y144.780 E4.73233
G1 X178.416 Y145.387 E4.79718
G1 X178.598 Y145.790 E4.83735
G1 X178.807 Y146.472 E4.90221
G1 X178.897 Y147.179 E4.96706
G1 X178.897 Y147.621 E5.00723
G1 X178.807 Y148.328 E5.07208
G1 X178.588 Y149.043 E5.14004
G1 X178.251 Y149.710 E5.20800
G1 X177.807 Y150.311 E5.27596
G1 X177.267 Y150.828 E5.34391
G1 X176.676 Y151.227 E5.40877
G1 X176.282 Y151.426 E5.44894
G1 X175.673 Y151.641 E5.50765
G1 X175.451 Y151.057 F5400.000
G1 F450.000
G1 X174.820 Y151.165 E5.56589
G1 X174.187 Y151.165 E5.62342
G1 X173.591 Y151.066 E5.67839
G1 X173.253 Y150.965 E5.71044
G1 X172.703 Y150.724 E5.76505
G1 X172.178 Y150.380 E5.82211
G1 X171.736 Y149.974 E5.87672
G1 X171.508 Y149.705 E5.90876
G1 X171.178 Y149.199 E5.96369
G1 X170.927 Y148.628 E6.02046
G1 X170.778 Y148.042 E6.07539
G1 X170.737 Y147.712 E6.10562
G1 X170.723 Y147.380 E6.13585
G1 X170.773 Y146.778 E6.19078
G1 X170.927 Y146.173 E6.24755
G1 X171.178 Y145.601 E6.30432
G1 X171.519 Y145.078 E6.36110
G1 X171.929 Y144.634 E6.41603
G1 X172.198 Y144.407 E6.44807
G1 X172.700 Y144.078 E6.50268
G1 X173.275 Y143.826 E6.55974
G1 X173.857 Y143.679 E6.61435
G1 X174.208 Y143.635 E6.64644
G1 X174.799 Y143.635 E6.70024
G1 X175.158 Y143.681 E6.73311
G1 X175.758 Y143.837 E6.78950
G1 X176.342 Y144.101 E6.84779
G1 X176.856 Y144.448 E6.90418
G1 X177.128 Y144.687 E6.93710
G1 X177.538 Y145.153 E6.99349
G1 X177.863 Y145.681 E7.04988
G1 X178.012 Y146.011 E7.08280
G1 X178.194 Y146.604 E7.13920
G1 X178.272 Y147.219 E7.19559
G1 X178.272 Y147.581 E7.22851
G1 X178.194 Y148.196 E7.28490
G1 X178.006 Y148.809 E7.34319
G1 X177.717 Y149.381 E7.40147
G1 X177.336 Y149.897 E7.45975
G1 X176.873 Y150.340 E7.51804
G1 X176.359 Y150.687 E7.57443
G1 X176.036 Y150.850 E7.60735
G1 X175.515 Y151.034 E7.65761
G1 X175.293 Y150.450 F5400.000
G1 F450.000
G1 X174.767 Y150.540 E7.70620
G1 X174.239 Y150.540 E7.75418
G1 X173.732 Y150.456 E7.80088
G1 X173.469 Y150.377 E7.82588
G1 X173.002 Y150.172 E7.87227
G1 X172.563 Y149.886 E7.91991
G1 X172.188 Y149.540 E7.96630
G1 X172.010 Y149.330 E7.99130
G1 X171.729 Y148.901 E8.03799
G1 X171.520 Y148.424 E8.08534
G1 X171.394 Y147.926 E8.13203
G1 X171.349 Y147.393 E8.18068
G1 X171.392 Y146.881 E8.22737
G1 X171.520 Y146.376 E8.27472
G1 X171.729 Y145.900 E8.32207
G1 X172.014 Y145.464 E8.36942
G1 X172.362 Y145.086 E8.41611
G1 X172.572 Y144.909 E8.44110
G1 X172.999 Y144.629 E8.48750
G1 X173.479 Y144.419 E8.53513
G1 X173.973 Y144.294 E8.58152
G1 X174.246 Y144.260 E8.60654
G1 X174.759 Y144.260 E8.65318
G1 X175.039 Y144.296 E8.67883
G1 X175.549 Y144.429 E8.72677
G1 X176.036 Y144.649 E8.77538
G1 X176.473 Y144.944 E8.82331
G1 X176.685 Y145.130 E8.84898
G1 X177.033 Y145.526 E8.89691
G1 X177.310 Y145.975 E8.94484
G1 X177.426 Y146.232 E8.97052
G1 X177.581 Y146.736 E9.01845
G1 X177.647 Y147.259 E9.06638
G1 X177.647 Y147.541 E9.09205
G1 X177.581 Y148.064 E9.13998
G1 X177.424 Y148.575 E9.18859
G1 X177.183 Y149.053 E9.23720
G1 X176.865 Y149.482 E9.28581
G1 X176.479 Y149.852 E9.33442
G1 X176.043 Y150.147 E9.38235
G1 X175.790 Y150.274 E9.40803
G1 X175.357 Y150.427 E9.44982
G1 X175.293 Y150.450 F5400.000
G1 F4320.000
G1 X175.293 Y150.450 E9.41419
G1 F4320.000
G1 X174.767 Y150.540 E9.13215
G1 F4320.000
G1 X174.239 Y150.540 E8.85367
G1 F4320.000
G1 X173.732 Y150.456 E8.58257
G1 F4320.000
G1 X173.469 Y150.377 E8.43747
G1 F4320.000
G1 X173.002 Y150.172 E8.16821
G1 F4320.000
G1 X172.563 Y149.886 E7.89172
G1 F4320.000
G1 X172.188 Y149.540 E7.62246
G1 F4320.000
G1 X172.010 Y149.330 E7.47735
G1 F4320.000
G1 X171.729 Y148.901 E7.20637
G1 F4320.000
G1 X171.520 Y148.424 E6.93154
G1 F4320.000
G1 X171.394 Y147.926 E6.66055
G1 F4320.000
G1 X171.379 Y147.812 E6.59982
G1 E6.44982 F2400.00000
G92 E0
G1 X143.342 Y147.699 F5400.000
G1 E3.00000 F2400.00000
G1 F450.000
G1 X143.280 Y148.145 E3.04096
G1 X143.174 Y148.560 E3.07990
G1 X143.022 Y148.960 E3.11883
G1 X142.817 Y149.362 E3.15980
G1 X142.474 Y149.851 E3.21414
G1 X142.167 Y150.180 E3.25510
G1 X141.825 Y150.474 E3.29607
G1 X141.303 Y150.808 E3.35244
G1 X140.732 Y151.051 E3.40882
G1 X140.297 Y151.169 E3.44978
G1 X139.874 Y151.234 E3.48872
G1 X139.446 Y151.252 E3.52765
G1 X138.997 Y151.221 E3.56861
G1 X138.412 Y151.097 E3.62295
G1 X137.989 Y150.944 E3.66392
G1 X137.585 Y150.744 E3.70488
G1 X137.091 Y150.408 E3.75923
G1 X136.757 Y150.105 E3.80019
G1 X136.459 Y149.767 E3.84115
G1 X136.130 Y149.269 E3.89550
G1 X135.936 Y148.862 E3.93646
G1 X135.788 Y148.436 E3.97742
G1 X135.673 Y147.850 E4.03177
G1 X135.648 Y147.400 E4.07273
G1 X135.673 Y146.950 E4.11369
G1 X135.788 Y146.364 E4.16804
G1 X135.936 Y145.938 E4.20900
G1 X136.130 Y145.532 E4.24996
G1 X136.459 Y145.033 E4.30431
G1 X136.757 Y144.695 E4.34527
G1 X137.074 Y144.407 E4.38420
G1 X137.421 Y144.157 E4.42314
G1 X137.814 Y143.935 E4.46410
G1 X138.370 Y143.716 E4.51844
G1 X138.808 Y143.611 E4.55941
G1 X139.255 Y143.554 E4.60037
G1 X139.852 Y143.563 E4.65471
G1 X140.297 Y143.631 E4.69568
G1 X140.711 Y143.743 E4.73461
G1 X141.109 Y143.900 E4.77355
G1 X141.507 Y144.111 E4.81451
G1 X141.992 Y144.461 E4.86885
G1 X142.317 Y144.772 E4.90981
G1 X142.605 Y145.118 E4.95078
G1 X142.933 Y145.645 E5.00716
G1 X143.168 Y146.219 E5.06353
G1 X143.280 Y146.655 E5.10450
G1 X143.342 Y147.101 E5.14546
G1 X143.342 Y147.631 E5.19367
G1 X142.717 Y147.655 F5400.000
G1 F450.000
G1 X142.665 Y148.024 E5.22751
G1 X142.577 Y148.371 E5.26012
G1 X142.450 Y148.707 E5.29273
G1 X142.280 Y149.038 E5.32657
G1 X141.987 Y149.456 E5.37300
G1 X141.733 Y149.729 E5.40685
G1 X141.451 Y149.971 E5.44070
G1 X141.009 Y150.254 E5.48837
G1 X140.527 Y150.459 E5.53604
G1 X140.168 Y150.557 E5.56988
G1 X139.813 Y150.611 E5.60249
G1 X139.455 Y150.626 E5.63510
G1 X139.084 Y150.600 E5.66894
G1 X138.584 Y150.495 E5.71537
G1 X138.234 Y150.368 E5.74922
G1 X137.901 Y150.203 E5.78307
G1 X137.478 Y149.916 E5.82950
G1 X137.203 Y149.666 E5.86334
G1 X136.957 Y149.386 E5.89719
G1 X136.675 Y148.960 E5.94362
G1 X136.515 Y148.624 E5.97746
G1 X136.393 Y148.273 E6.01131
G1 X136.294 Y147.772 E6.05774
G1 X136.274 Y147.400 E6.09159
G1 X136.294 Y147.028 E6.12543
G1 X136.393 Y146.527 E6.17186
G1 X136.515 Y146.176 E6.20571
G1 X136.675 Y145.840 E6.23955
G1 X136.957 Y145.414 E6.28599
G1 X137.203 Y145.135 E6.31983
G1 X137.468 Y144.894 E6.35244
G1 X137.759 Y144.684 E6.38505
G1 X138.083 Y144.501 E6.41889
G1 X138.558 Y144.313 E6.46532
G1 X138.920 Y144.226 E6.49917
G1 X139.289 Y144.180 E6.53302
G1 X139.800 Y144.187 E6.57945
G1 X140.168 Y144.244 E6.61329
G1 X140.514 Y144.337 E6.64590
G1 X140.848 Y144.469 E6.67851
G1 X141.177 Y144.643 E6.71235
G1 X141.591 Y144.942 E6.75879
G1 X141.859 Y145.199 E6.79263
G1 X142.098 Y145.485 E6.82648
G1 X142.374 Y145.930 E6.87415
G1 X142.573 Y146.416 E6.92182
G1 X142.665 Y146.776 E6.95566
G1 X142.717 Y147.145 E6.98951
G1 X142.717 Y147.588 E7.02980
G1 X142.092 Y147.612 F5400.000
G1 F450.000
G1 X142.051 Y147.903 E7.05653
G1 X141.980 Y148.183 E7.08281
G1 X141.878 Y148.453 E7.10910
G1 X141.744 Y148.715 E7.13582
G1 X141.501 Y149.062 E7.17434
G1 X141.300 Y149.277 E7.20107
G1 X141.077 Y149.468 E7.22780
G1 X140.716 Y149.699 E7.26676
G1 X140.322 Y149.868 E7.30573
G1 X140.038 Y149.944 E7.33245
G1 X139.753 Y149.988 E7.35874
G1 X139.464 Y150.000 E7.38502
G1 X139.171 Y149.980 E7.41175
G1 X138.756 Y149.892 E7.45027
G1 X138.480 Y149.792 E7.47699
G1 X138.216 Y149.662 E7.50372
G1 X137.866 Y149.424 E7.54224
G1 X137.648 Y149.226 E7.56897
G1 X137.454 Y149.006 E7.59569
G1 X137.220 Y148.652 E7.63421
G1 X137.094 Y148.387 E7.66094
G1 X136.998 Y148.109 E7.68767
G1 X136.916 Y147.694 E7.72619
G1 X136.899 Y147.400 E7.75292
G1 X136.916 Y147.107 E7.77964
G1 X136.998 Y146.691 E7.81816
G1 X137.094 Y146.413 E7.84489
G1 X137.220 Y146.148 E7.87162
G1 X137.454 Y145.794 E7.91014
G1 X137.648 Y145.574 E7.93686
G1 X137.862 Y145.380 E7.96315
G1 X138.097 Y145.211 E7.98943
G1 X138.353 Y145.066 E8.01616
G1 X138.747 Y144.911 E8.05468
G1 X139.033 Y144.842 E8.08140
G1 X139.324 Y144.805 E8.10813
G1 X139.748 Y144.811 E8.14665
G1 X140.038 Y144.856 E8.17338
G1 X140.317 Y144.931 E8.19966
G1 X140.586 Y145.037 E8.22594
G1 X140.846 Y145.175 E8.25267
G1 X141.190 Y145.423 E8.29119
G1 X141.402 Y145.626 E8.31792
G1 X141.590 Y145.852 E8.34464
G1 X141.816 Y146.216 E8.38361
G1 X141.979 Y146.612 E8.42257
G1 X142.051 Y146.897 E8.44930
G1 X142.092 Y147.188 E8.47603
G1 X142.092 Y147.544 E8.50841
G1 X142.092 Y147.612 F5400.000
G1 F4320.000
G1 X142.092 Y147.612 E8.47279
G1 F4320.000
G1 X142.051 Y147.903 E8.31766
G1 F4320.000
G1 X141.980 Y148.183 E8.16510
G1 F4320.000
G1 X141.878 Y148.453 E8.01255
G1 F4320.000
G1 X141.744 Y148.715 E7.85742
G1 F4320.000
G1 X141.501 Y149.062 E7.63384
G1 F4320.000
G1 X141.300 Y149.277 E7.47871
G1 F4320.000
G1 X141.077 Y149.468 E7.32358
G1 F4320.000
G1 X140.716 Y149.699 E7.09742
G1 F4320.000
G1 X140.322 Y149.868 E6.87126
G1 F4320.000
G1 X140.038 Y149.944 E6.71613
G1 F4320.000
G1 X139.753 Y149.988 E6.56357
G1 F4320.000
G1 X139.464 Y150.000 E6.41102
G1 F4320.000
G1 X139.171 Y149.980 E6.25589
G1 F4320.000
G1 X138.756 Y149.892 E6.03231
G1 F4320.000
G1 X138.480 Y149.792 E5.87718
G1 F4320.000
G1 X138.216 Y149.662 E5.72205
G1 F4320.000
G1 X138.117 Y149.594 E5.65841
G1 E5.50841 F2400.00000
G92 E0
G1 X158.319 Y181.986 F5400.000
G1 E3.00000 F2400.00000
G1 F1800.000
G1 X152.075 Y181.986 E3.56770
G1 X154.265 Y175.373 E4.20110
G1 X154.539 Y174.442 E4.28938
G1 X155.012 Y172.604 E4.46193
G1 X155.403 Y170.738 E4.63530
G1 X155.706 Y168.865 E4.80785
G1 X155.828 Y167.901 E4.89621
G1 X156.001 Y166.020 E5.06792
G1 X156.057 Y165.050 E5.15628
G1 X156.100 Y163.172 E5.32715
G1 X156.100 Y160.334 E5.58518
