; generated by Slic3r 1.3.1-dev (Build 18ddd3a36dc69d81fb9b7440498bff9e1dde8b7e) on 2021-07-19 at 21:46:33

; external perimeters extrusion width = 0.49mm (3.88mm^3/s)
; perimeters extrusion width = 0.59mm (9.54mm^3/s)
; infill extrusion width = 0.56mm (11.95mm^3/s)
; solid infill extrusion width = 0.59mm (3.18mm^3/s)
; top infill extrusion width = 0.59mm (2.39mm^3/s)
; support material extrusion width = 0.49mm (7.75mm^3/s)

M107
G92 E0
M190 S45 ; set bed temperature and wait for it to be reached
M104 S226 ; set temperature
G28 ; home all axes
G1 Z5 F5000 ; lift nozzle

; Filament gcode

M109 S226 ; set temperature and wait for it to be reached
G21 ; set units to millimeters
G90 ; use absolute coordinates
M82 ; use absolute distances for extrusion
G92 E0
G1 E-3.00000 F2400.00000
G92 E0
G1 Z0.350 F5400.000
G1 X149.386 Y118.148 F5400.000
G1 E3.00000 F2400.00000
G1 F1800.000
G1 X150.921 Y116.444 E3.20854
G1 X152.944 Y115.365 E3.41708
G1 X154.937 Y115.038 E3.60066
G1 X161.251 Y114.976 E4.17482
G1 X169.320 Y114.976 E4.90856
G1 X175.069 Y115.038 E5.43136
G1 X177.324 Y115.459 E5.63990
G1 X179.299 Y116.624 E5.84844
G1 X180.760 Y118.392 E6.05699
G1 X181.476 Y120.274 E6.24005
G1 X197.723 Y196.052 E13.28718
G1 X197.870 Y197.441 E13.41417
G1 X197.870 Y204.782 E14.08167
G1 X197.473 Y207.041 E14.29021
G1 X196.475 Y208.848 E14.47794
G1 X195.226 Y210.456 E14.66309
G1 X194.201 Y211.508 E14.79662
G1 X192.952 Y212.535 E14.94370
G1 X190.954 Y213.662 E15.15225
G1 X188.854 Y214.040 E15.34631
G1 X142.288 Y214.801 E19.58113
G1 X140.022 Y214.441 E19.78968
G1 X137.974 Y213.295 E20.00312
G1 X135.665 Y211.398 E20.27486
G1 X134.752 Y210.485 E20.39220
G1 X133.849 Y209.386 E20.52157
G1 X133.123 Y208.300 E20.64032
G1 X132.911 Y207.902 E20.68137
G1 X132.130 Y204.782 E20.97383
G1 X132.130 Y197.441 E21.64133
G1 X132.277 Y196.052 E21.76832
G1 X148.524 Y120.274 E28.81545
G1 X149.360 Y118.211 E29.01785
G1 F4320.000
G1 X150.921 Y116.444 E27.77387
G1 F4320.000
G1 X152.944 Y115.365 E26.56344
G1 F4320.000
G1 X153.684 Y115.244 E26.16785
G1 E26.01785 F2400.00000
G92 E0
G1 X178.844 Y197.813 F5400.000
G1 E3.00000 F2400.00000
G1 F900.000
G1 X178.742 Y198.071 E3.02517
G1 X178.472 Y198.587 E3.07814
G1 X178.253 Y198.909 E3.11351
G1 X178.012 Y199.200 E3.14787
G1 X177.748 Y199.460 E3.18160
G1 X177.462 Y199.686 E3.21472
G1 X177.159 Y199.876 E3.24728
G1 X176.835 Y200.030 E3.27987
G1 X176.340 Y200.177 E3.32683
G1 X175.842 Y200.225 E3.37229
G1 X153.997 Y200.220 E5.35869
G1 X153.497 Y200.139 E5.40477
G1 X153.155 Y200.026 E5.43748
G1 X152.687 Y199.787 E5.48526
G1 X152.256 Y199.463 E5.53428
G1 X151.985 Y199.197 E5.56883
G1 X151.635 Y198.753 E5.62020
G1 X151.343 Y198.251 E5.67308
G1 X151.178 Y197.880 E5.70999
G1 X150.993 Y197.308 E5.76459
G1 X150.904 Y196.900 E5.80257
G1 X150.833 Y196.290 E5.85842
G1 X150.825 Y195.871 E5.89652
G1 X150.850 Y195.453 E5.93460
G1 X150.944 Y194.844 E5.99060
G1 X151.108 Y194.259 E6.04585
G1 X151.254 Y193.890 E6.08198
G1 X162.166 Y169.328 E8.52586
G1 X162.358 Y168.981 E8.56188
G1 X162.687 Y168.520 E8.61340
G1 X162.946 Y168.238 E8.64824
G1 X163.359 Y167.891 E8.69726
G1 X163.666 Y167.699 E8.73025
G1 X163.990 Y167.545 E8.76284
G1 X164.480 Y167.400 E8.80928
G1 X164.828 Y167.355 E8.84117
G1 X165.178 Y167.355 E8.87301
G1 X165.683 Y167.437 E8.91959
G1 X166.176 Y167.617 E8.96726
G1 X166.637 Y167.888 E9.01590
G1 X167.054 Y168.238 E9.06537
G1 X167.313 Y168.520 E9.10022
G1 X167.642 Y168.981 E9.15173
G1 X167.834 Y169.328 E9.18776
G1 X178.821 Y194.067 E11.64913
G1 X178.953 Y194.449 E11.68587
G1 X179.056 Y194.848 E11.72335
G1 X179.150 Y195.453 E11.77904
G1 X179.175 Y195.871 E11.81711
G1 X179.167 Y196.290 E11.85522
G1 X179.096 Y196.900 E11.91106
G1 X179.008 Y197.305 E11.94872
G1 X178.868 Y197.751 E11.99119
G1 X179.020 Y198.026 F5400.000
G1 F4320.000
G1 X178.742 Y198.071 E11.80945
G1 F4320.000
G1 X178.472 Y198.587 E11.50201
G1 F4320.000
G1 X178.253 Y198.909 E11.29673
G1 F4320.000
G1 X178.012 Y199.200 E11.09726
G1 F4320.000
G1 X177.748 Y199.460 E10.90150
G1 F4320.000
G1 X177.462 Y199.686 E10.70930
G1 F4320.000
G1 X177.159 Y199.876 E10.52029
G1 F4320.000
G1 X176.835 Y200.030 E10.33116
G1 F4320.000
G1 X176.340 Y200.177 E10.05853
G1 F4320.000
G1 X175.842 Y200.225 E9.79473
G1 F4320.000
G1 X174.604 Y200.225 E9.14119
G1 E8.99119 F2400.00000
G92 E0
G1 X168.458 Y165.939 F5400.000
G1 E3.00000 F2400.00000
G1 F1800.000
G1 X161.542 Y165.939 E3.62884
G1 X158.084 Y159.950 E4.25768
G1 X161.542 Y153.961 E4.88653
G1 X168.458 Y153.961 E5.51537
G1 X171.916 Y159.950 E6.14421
G1 X168.492 Y165.881 E6.76691
G1 X168.097 Y165.314 F5400.000
G1 F450.000
G1 X161.903 Y165.314 E7.33014
G1 X158.806 Y159.950 E7.89338
G1 X161.903 Y154.586 E8.45661
G1 X168.097 Y154.586 E9.01984
G1 X171.194 Y159.950 E9.58307
G1 X168.131 Y165.256 E10.14016
G1 X168.097 Y165.764 F5400.000
G1 X168.819 Y166.564 F5400.000
G1 F1800.000
G1 X172.637 Y159.950 E10.83461
G1 X168.819 Y153.336 E11.52907
G1 X161.181 Y153.336 E12.22352
G1 X157.363 Y159.950 E12.91797
G1 X161.181 Y166.564 E13.61243
G1 X162.996 Y166.564 E13.77741
G1 X162.080 Y167.333 E13.88615
G1 X161.714 Y167.732 E13.93536
G1 X161.299 Y168.314 E14.00036
G1 X161.046 Y168.771 E14.04786
G1 X150.101 Y193.407 E16.49911
G1 X149.922 Y193.861 E16.54348
G1 X149.721 Y194.579 E16.61132
G1 X149.596 Y195.382 E16.68518
G1 X149.335 Y195.430 E16.70931
G1 X148.819 Y194.536 E16.80321
G1 X143.329 Y194.536 E17.30241
G1 X147.037 Y186.877 E18.07615
G1 X148.250 Y184.182 E18.34490
G1 X148.833 Y182.808 E18.48064
G1 X149.924 Y180.066 E18.74894
G1 X150.446 Y178.668 E18.88468
G1 X151.419 Y175.876 E19.15350
G1 X152.310 Y173.057 E19.42232
G1 X152.727 Y171.630 E19.55753
G1 X153.127 Y170.183 E19.69407
G1 X153.849 Y167.331 E19.96157
G1 X154.491 Y164.439 E20.23091
G1 X155.049 Y161.530 E20.50027
G1 X155.521 Y158.611 E20.76909
G1 X155.727 Y157.133 E20.90483
G1 X156.072 Y154.191 E21.17417
G1 X156.330 Y151.251 E21.44247
G1 X156.427 Y149.768 E21.57768
G1 X156.503 Y148.283 E21.71289
G1 X156.589 Y145.328 E21.98167
G1 X156.599 Y130.450 E23.33454
G1 X173.400 Y130.450 E24.86229
G1 X173.400 Y143.858 E26.08150
G1 X173.443 Y146.802 E26.34926
G1 X173.498 Y148.294 E26.48500
G1 X173.670 Y151.246 E26.75383
G1 X173.929 Y154.197 E27.02318
G1 X174.273 Y157.139 E27.29253
G1 X174.704 Y160.069 E27.56188
G1 X175.219 Y162.986 E27.83124
G1 X175.820 Y165.887 E28.10059
G1 X176.503 Y168.763 E28.36941
G1 X176.880 Y170.208 E28.50515
G1 X177.687 Y173.046 E28.77344
G1 X178.126 Y174.473 E28.90918
G1 X179.058 Y177.278 E29.17800
G1 X180.073 Y180.061 E29.44736
G1 X181.167 Y182.808 E29.71618
G1 X181.750 Y184.182 E29.85192
G1 X182.963 Y186.877 E30.12067
G1 X186.671 Y194.536 E30.89442
G1 X181.181 Y194.536 E31.39361
G1 X180.665 Y195.430 E31.48752
G1 X180.404 Y195.382 E31.51165
G1 X180.282 Y194.595 E31.58404
G1 X180.150 Y194.087 E31.63175
G1 X179.984 Y193.608 E31.67786
G1 X168.954 Y168.771 E34.14896
G1 X168.701 Y168.314 E34.19647
G1 X168.286 Y167.732 E34.26147
G1 X167.920 Y167.333 E34.31068
G1 X167.004 Y166.564 E34.41942
G1 X168.751 Y166.564 E34.57827
G1 F4320.000
G1 X171.487 Y161.908 E31.72827
G1 E31.57827 F2400.00000
G92 E0
G1 X181.542 Y195.161 F5400.000
G1 E3.00000 F2400.00000
G1 F1800.000
G1 X179.625 Y198.481 E3.34856
G1 X179.312 Y198.329 E3.38022
G1 X179.481 Y197.899 E3.42225
G1 X179.614 Y197.462 E3.46383
G1 X179.713 Y197.002 E3.50654
G1 X179.791 Y196.332 E3.56790
G1 X179.800 Y195.859 E3.61092
G1 X179.773 Y195.387 E3.65393
G1 X179.669 Y194.721 E3.71517
G1 X179.552 Y194.268 E3.75776
G1 X179.402 Y193.837 E3.79919
G1 X168.394 Y169.050 E6.26542
G1 X168.172 Y168.648 E6.30719
G1 X167.799 Y168.126 E6.36544
G1 X167.487 Y167.785 E6.40747
G1 X166.999 Y167.376 E6.46544
G1 X166.443 Y167.050 E6.52399
G1 X165.842 Y166.830 E6.58217
G1 X165.228 Y166.730 E6.63874
G1 X164.787 Y166.730 E6.67886
G1 X164.350 Y166.787 E6.71895
G1 X163.766 Y166.960 E6.77430
G1 X163.366 Y167.150 E6.81458
G1 X162.990 Y167.385 E6.85487
G1 X162.513 Y167.785 E6.91156
G1 X162.201 Y168.126 E6.95359
G1 X161.828 Y168.648 E7.01184
G1 X161.606 Y169.050 E7.05360
G1 X150.677 Y193.648 E9.50117
G1 X150.515 Y194.060 E9.54142
G1 X150.332 Y194.712 E9.60296
G1 X150.227 Y195.387 E9.66509
G1 X150.200 Y195.859 E9.70810
G1 X150.209 Y196.332 E9.75113
G1 X150.287 Y197.002 E9.81248
G1 X150.388 Y197.471 E9.85610
G1 X150.593 Y198.103 E9.91652
G1 X150.682 Y198.303 E9.93643
G1 X150.365 Y198.465 E9.96876
G1 X148.458 Y195.161 E10.31566
G1 X142.332 Y195.161 E10.87269
G1 X146.471 Y186.613 E11.73628
G1 X147.677 Y183.932 E12.00361
G1 X148.255 Y182.570 E12.13811
G1 X149.341 Y179.842 E12.40516
G1 X149.858 Y178.456 E12.53966
G1 X150.826 Y175.679 E12.80703
G1 X151.712 Y172.875 E13.07440
G1 X152.523 Y170.023 E13.34407
G1 X153.241 Y167.186 E13.61012
G1 X153.879 Y164.312 E13.87781
G1 X154.434 Y161.421 E14.14551
G1 X154.903 Y158.518 E14.41288
G1 X155.108 Y157.053 E14.54738
G1 X155.450 Y154.127 E14.81527
G1 X155.707 Y151.204 E15.08212
G1 X155.803 Y149.731 E15.21630
G1 X155.879 Y148.258 E15.35047
G1 X155.964 Y145.319 E15.61782
G1 X155.974 Y129.825 E17.02666
G1 X174.025 Y129.825 E18.66802
G1 X174.025 Y143.854 E19.94364
G1 X174.068 Y146.787 E20.21036
G1 X174.122 Y148.265 E20.34486
G1 X174.293 Y151.200 E20.61223
G1 X174.550 Y154.133 E20.87993
G1 X174.893 Y157.057 E21.14762
G1 X175.321 Y159.970 E21.41532
G1 X175.833 Y162.869 E21.68301
G1 X176.430 Y165.752 E21.95071
G1 X177.109 Y168.612 E22.21808
G1 X177.483 Y170.044 E22.35258
G1 X178.286 Y172.869 E22.61963
G1 X178.721 Y174.282 E22.75413
G1 X179.648 Y177.073 E23.02150
G1 X180.657 Y179.838 E23.28920
G1 X181.745 Y182.570 E23.55657
G1 X182.323 Y183.932 E23.69107
G1 X183.529 Y186.613 E23.95840
G1 X187.668 Y195.161 E24.82199
G1 X181.610 Y195.161 E25.37288
G1 F4320.000
G1 X179.625 Y198.481 E23.33170
G1 F4320.000
G1 X179.312 Y198.329 E23.14796
G1 F4320.000
G1 X179.481 Y197.899 E22.90400
G1 F4320.000
G1 X179.614 Y197.462 E22.66267
G1 F4320.000
G1 X179.670 Y197.203 E22.52288
G1 E22.37288 F2400.00000
G92 E0
G1 X177.376 Y201.173 F5400.000
G1 E3.00000 F2400.00000
G1 F1800.000
G1 X179.903 Y205.550 E3.45962
G1 X150.097 Y205.550 E6.16990
G1 X152.627 Y201.167 E6.63009
G1 X153.198 Y201.356 E6.68474
G1 X153.895 Y201.470 E6.74901
G1 X175.903 Y201.475 E8.75014
G1 X176.580 Y201.409 E8.81202
G1 X177.311 Y201.192 E8.88135
G1 X178.084 Y201.150 F5400.000
G1 F1800.000
G1 X180.986 Y206.175 E9.40897
G1 X149.014 Y206.175 E12.31608
G1 X151.916 Y201.150 E12.84370
G1 X150.902 Y199.394 E13.02806
G1 X151.191 Y199.198 E13.05978
G1 X151.519 Y199.614 E13.10794
G1 X151.847 Y199.938 E13.14986
G1 X152.355 Y200.319 E13.20760
G1 X152.914 Y200.604 E13.26461
G1 X153.347 Y200.747 E13.30615
G1 X153.946 Y200.845 E13.36132
G1 X175.873 Y200.850 E15.35509
G1 X176.460 Y200.793 E15.40876
G1 X177.059 Y200.615 E15.46555
G1 X177.459 Y200.425 E15.50584
G1 X177.824 Y200.197 E15.54493
G1 X178.162 Y199.928 E15.58426
G1 X178.473 Y199.623 E15.62388
G1 X178.792 Y199.238 E15.66933
G1 X179.075 Y199.435 E15.70066
G1 X178.118 Y201.092 E15.87463
G1 X178.806 Y201.150 F5400.000
G1 F900.000
G1 X182.068 Y206.800 E16.46786
G1 X147.932 Y206.800 E19.57181
G1 X151.194 Y201.150 E20.16504
G1 X148.097 Y195.786 E20.72827
G1 X141.335 Y195.786 E21.34315
G1 X145.905 Y186.349 E22.29659
G1 X147.105 Y183.682 E22.56249
G1 X147.677 Y182.332 E22.69575
G1 X148.758 Y179.617 E22.96156
G1 X149.271 Y178.244 E23.09481
G1 X150.233 Y175.482 E23.36073
G1 X151.114 Y172.694 E23.62666
G1 X151.919 Y169.863 E23.89425
G1 X152.633 Y167.042 E24.15885
G1 X153.267 Y164.186 E24.42489
G1 X153.818 Y161.312 E24.69093
G1 X154.285 Y158.425 E24.95685
G1 X154.488 Y156.974 E25.09011
G1 X154.829 Y154.064 E25.35654
G1 X155.083 Y151.156 E25.62195
G1 X155.179 Y149.695 E25.75509
G1 X155.254 Y148.233 E25.88823
G1 X155.339 Y145.309 E26.15414
G1 X155.350 Y129.200 E27.61896
G1 X174.650 Y129.200 E29.37392
G1 X174.650 Y143.849 E30.70595
G1 X174.693 Y146.771 E30.97164
G1 X174.746 Y148.235 E31.10489
G1 X174.916 Y151.155 E31.37082
G1 X175.172 Y154.069 E31.63685
G1 X175.512 Y156.975 E31.90289
G1 X175.937 Y159.870 E32.16893
G1 X176.447 Y162.751 E32.43497
G1 X177.040 Y165.616 E32.70101
G1 X177.716 Y168.461 E32.96693
G1 X178.086 Y169.879 E33.10019
G1 X178.885 Y172.691 E33.36599
G1 X179.316 Y174.092 E33.49925
G1 X180.238 Y176.867 E33.76517
G1 X181.241 Y179.615 E34.03121
G1 X182.323 Y182.332 E34.29713
G1 X182.895 Y183.682 E34.43039
G1 X184.095 Y186.349 E34.69630
G1 X188.665 Y195.786 E35.64973
G1 X181.903 Y195.786 E36.26461
G1 X178.840 Y201.092 E36.82170
G1 X178.414 Y201.372 F5400.000
G1 F4320.000
G1 X181.498 Y205.792 E33.97170
G1 E33.82170 F2400.00000
G92 E0
G1 X181.985 Y206.657 F5400.000
G1 E3.00000 F2400.00000
G1 F900.000
G1 X184.976 Y206.657 E3.38045
G1 X185.715 Y206.621 E3.47463
G1 F900.000
G1 X186.085 Y206.603 E3.51781
G1 X186.358 Y206.562 E3.55002
G1 F900.000
G1 X186.904 Y206.481 E3.60692
G1 F900.000
G1 X187.451 Y206.400 E3.65626
G1 F900.000
G1 X187.997 Y206.319 E3.69807
G1 F4320.000
G1 X187.451 Y206.400 E3.40656
G1 E0.69807 F2400.00000
G92 E0
G1 X148.015 Y206.657 F5400.000
G1 E3.00000 F2400.00000
G1 F900.000
G1 X145.024 Y206.657 E3.39624
G1 X144.285 Y206.621 E3.49433
G1 F900.000
G1 X143.915 Y206.603 E3.53946
G1 X143.642 Y206.562 E3.57314
G1 F900.000
G1 X143.096 Y206.481 E3.63380
G1 F900.000
G1 X142.549 Y206.400 E3.68692
G1 F900.000
G1 X142.003 Y206.319 E3.73250
G1 F4320.000
G1 X142.549 Y206.400 E3.44099
G1 E0.73250 F2400.00000
G92 E0
G1 X150.364 Y199.088 F5400.000
G1 E3.00000 F2400.00000
G1 F600.000
G1 X151.186 Y198.603 E3.04838
G1 X151.867 Y200.405 F5400.000
G1 F600.000
G1 X152.393 Y200.949 E3.06487
G1 X153.157 Y201.678 F5400.000
G1 F600.000
G1 X152.671 Y202.164 E3.12881
G1 X151.437 Y204.302 E3.35828
G1 X153.915 Y201.824 E3.68406
G1 X154.088 Y201.852 E3.70039
G1 X154.790 Y201.852 E3.76563
G1 X151.473 Y205.168 E4.20164
G1 X152.377 Y205.168 E4.28563
G1 X155.693 Y201.852 E4.72162
G1 X156.596 Y201.852 E4.80560
G1 X153.280 Y205.168 E5.24156
G1 X154.184 Y205.168 E5.32555
G1 X157.500 Y201.852 E5.76148
G1 X158.403 Y201.853 E5.84546
G1 X155.087 Y205.168 E6.28137
G1 X155.991 Y205.168 E6.36536
G1 X159.306 Y201.853 E6.80124
G1 X160.209 Y201.853 E6.88521
G1 X156.894 Y205.168 E7.32107
G1 X157.798 Y205.168 E7.40506
G1 X161.113 Y201.853 E7.84089
G1 X162.016 Y201.853 E7.92486
G1 X158.701 Y205.168 E8.36066
G1 X159.605 Y205.168 E8.44465
G1 X162.919 Y201.854 E8.88043
G1 X163.823 Y201.854 E8.96440
G1 X160.508 Y205.168 E9.40015
G1 X161.412 Y205.168 E9.48415
G1 X164.726 Y201.854 E9.91987
G1 X165.629 Y201.854 E10.00384
G1 X162.315 Y205.168 E10.43954
G1 X163.218 Y205.168 E10.52353
G1 X166.532 Y201.854 E10.95920
G1 X167.436 Y201.855 E11.04317
G1 X164.122 Y205.168 E11.47882
G1 X165.025 Y205.168 E11.56281
G1 X168.339 Y201.855 E11.99843
G1 X169.242 Y201.855 E12.08240
G1 X165.929 Y205.168 E12.51800
G1 X166.832 Y205.168 E12.60199
G1 X170.146 Y201.855 E13.03755
G1 X171.049 Y201.855 E13.12152
G1 X167.736 Y205.168 E13.55706
G1 X168.639 Y205.168 E13.64105
G1 X171.952 Y201.856 E14.07657
G1 X172.855 Y201.856 E14.16054
G1 X169.543 Y205.168 E14.59603
G1 X170.446 Y205.168 E14.68002
G1 X173.759 Y201.856 E15.11548
G1 X174.662 Y201.856 E15.19945
G1 X171.350 Y205.168 E15.63488
G1 X172.253 Y205.168 E15.71887
G1 X175.565 Y201.857 E16.15428
G1 X176.176 Y201.857 E16.21108
G1 X176.500 Y201.825 E16.24134
G1 X173.157 Y205.168 E16.68088
G1 X174.060 Y205.168 E16.76487
G1 X177.410 Y201.818 E17.20530
G1 X177.741 Y202.391 E17.26678
G1 X174.964 Y205.168 E17.63191
G1 X175.867 Y205.168 E17.71590
G1 X178.072 Y202.964 E18.00572
G1 X178.402 Y203.537 E18.06720
G1 X176.771 Y205.168 E18.28172
G1 X177.674 Y205.168 E18.36571
G1 X178.733 Y204.109 E18.50493
G1 X179.064 Y204.682 E18.56641
G1 X178.578 Y205.168 E18.63033
G1 F4320.000
G1 X179.064 Y204.682 E18.26748
G1 F4320.000
G1 X178.733 Y204.109 E17.91841
G1 F4320.000
G1 X177.674 Y205.168 E17.12804
G1 F4320.000
G1 X176.771 Y205.168 E16.65120
G1 F4320.000
G1 X177.938 Y204.002 E15.78033
G1 E15.63033 F2400.00000
G92 E0
G1 X177.614 Y200.960 F5400.000
G1 E3.00000 F2400.00000
G1 F600.000
G1 X178.110 Y200.413 E3.00366
G1 F4320.000
G1 X177.614 Y200.960 E2.61388
G1 E0.00366 F2400.00000
G92 E0
G1 X180.073 Y197.047 F5400.000
G1 E3.00000 F2400.00000
G1 F600.000
G1 X180.479 Y195.713 E3.05786
