; generated by Slic3r 1.3.1-dev (Build 18ddd3a36dc69d81fb9b7440498bff9e1dde8b7e) on 2021-07-21 at 19:30:02

; external perimeters extrusion width = 0.49mm (3.88mm^3/s)
; perimeters extrusion width = 0.59mm (9.54mm^3/s)
; infill extrusion width = 0.56mm (11.95mm^3/s)
; solid infill extrusion width = 0.59mm (3.18mm^3/s)
; top infill extrusion width = 0.59mm (2.39mm^3/s)
; support material extrusion width = 0.49mm (7.75mm^3/s)

M107
G92 E0
M190 S45 ; set bed temperature and wait for it to be reached
M104 S226 ; set temperature
G28 ; home all axes
G1 Z5 F5000 ; lift nozzle

; Filament gcode

M109 S226 ; set temperature and wait for it to be reached
G21 ; set units to millimeters
G90 ; use absolute coordinates
M82 ; use absolute distances for extrusion
G92 E0
G1 E-3.00000 F2400.00000
G92 E0
G1 Z0.350 F5400.000
G1 X146.299 Y146.370 F5400.000
G1 E3.00000 F2400.00000
G1 F1800.000
G1 X148.095 Y144.944 E3.20854
G1 X151.252 Y144.144 E3.50471
G1 X158.751 Y144.144 E4.18657
G1 X160.033 Y144.269 E4.30365
G1 X176.719 Y147.564 E5.85020
G1 X177.275 Y147.718 E5.90267
G1 X178.046 Y148.005 E5.97752
G1 X178.674 Y148.314 E6.04117
G1 X179.376 Y148.749 E6.11621
G1 X179.941 Y149.187 E6.18127
G1 X180.425 Y149.629 E6.24085
G1 X180.809 Y150.051 E6.29267
G1 X181.065 Y150.373 E6.33009
G1 X181.432 Y150.898 E6.38836
G1 X181.752 Y151.441 E6.44568
G1 X182.001 Y151.961 E6.49814
G1 X182.201 Y152.480 E6.54870
G1 X182.379 Y153.062 E6.60396
G1 X182.503 Y153.621 E6.65607
G1 X185.298 Y172.064 E8.35224
G1 X185.372 Y173.055 E8.44260
G1 X185.372 Y179.231 E9.00422
G1 X184.975 Y181.490 E9.21276
G1 X183.832 Y183.478 E9.42131
G1 X182.079 Y184.958 E9.62985
G1 X179.927 Y185.750 E9.83839
G1 X178.748 Y185.856 E9.94610
G1 X157.501 Y185.856 E11.87801
G1 X155.242 Y185.459 E12.08655
G1 X153.094 Y184.177 E12.31407
G1 X146.361 Y178.177 E13.13411
G1 X144.939 Y176.378 E13.34265
G1 X144.144 Y173.231 E13.63777
G1 X144.147 Y166.568 E14.24364
G1 X144.631 Y150.568 E15.69917
G1 X145.096 Y148.323 E15.90772
G1 X146.263 Y146.427 E16.11012
G1 F4320.000
G1 X148.095 Y144.944 E14.86614
G1 F4320.000
G1 X151.045 Y144.196 E13.26012
G1 E13.11012 F2400.00000
G92 E0
G1 X174.406 Y167.143 F5400.000
G1 E3.00000 F2400.00000
G1 F1800.000
G1 X172.163 Y164.900 E3.28846
G1 X165.100 Y164.900 E3.93069
G1 X165.100 Y157.837 E4.57291
G1 X162.859 Y155.597 E4.86106
G1 X174.405 Y155.603 E5.91094
G1 X174.406 Y167.076 E6.95415
G1 F4320.000
G1 X172.163 Y164.900 E5.30485
G1 F4320.000
G1 X169.888 Y164.900 E4.10415
G1 E3.95415 F2400.00000
G92 E0
G1 X174.475 Y171.025 F5400.000
G1 E3.00000 F2400.00000
G1 F1800.000
G1 X174.475 Y168.096 E3.26633
G1 X171.904 Y165.525 E3.59695
G1 X164.475 Y165.525 E4.27246
G1 X164.475 Y158.096 E4.94797
G1 X161.904 Y155.525 E5.27859
G1 X158.975 Y155.525 E5.54492
G1 X158.975 Y154.969 E5.59545
G1 X175.030 Y154.979 E7.05531
G1 X175.031 Y171.025 E8.51441
G1 X174.542 Y171.025 E8.55885
G1 F4320.000
G1 X174.475 Y168.096 E7.01261
G1 F4320.000
G1 X172.728 Y166.349 E5.70885
G1 E5.55885 F2400.00000
G92 E0
G1 X160.900 Y170.400 F5400.000
G1 E3.00000 F2400.00000
G1 F450.000
G1 X159.600 Y170.400 E3.11825
G1 X159.600 Y169.100 E3.23650
G1 X160.900 Y169.100 E3.35475
G1 X160.900 Y170.333 E3.46686
G1 X161.525 Y171.025 F5400.000
G1 F450.000
G1 X158.975 Y171.025 E3.69875
G1 X158.975 Y168.475 E3.93064
G1 X161.525 Y168.475 E4.16253
G1 X161.525 Y170.958 E4.38828
G1 X162.150 Y170.850 F5400.000
G1 F900.000
G1 X164.150 Y170.850 E4.57014
G1 X164.150 Y171.650 E4.64289
G1 X158.350 Y171.650 E5.17028
G1 X158.350 Y165.850 E5.69767
G1 X159.150 Y165.850 E5.77041
G1 X159.150 Y167.850 E5.95227
G1 X161.645 Y167.850 E6.17914
G1 X163.850 Y165.645 E6.46269
G1 X163.850 Y158.355 E7.12556
G1 X161.645 Y156.150 E7.40912
G1 X159.150 Y156.150 E7.63598
G1 X159.150 Y158.150 E7.81784
G1 X158.350 Y158.150 E7.89059
G1 X158.350 Y154.344 E8.23665
G1 X175.089 Y154.354 E9.75876
G1 X175.282 Y154.411 E9.77704
G1 X175.389 Y154.474 E9.78829
G1 X175.463 Y154.536 E9.79712
G1 X175.598 Y154.736 E9.81905
G1 X175.655 Y154.992 E9.84287
G1 X175.656 Y171.650 E11.35759
G1 X171.850 Y171.650 E11.70366
G1 X171.850 Y170.850 E11.77641
G1 X173.850 Y170.850 E11.95827
G1 X173.850 Y168.355 E12.18513
G1 X171.645 Y166.150 E12.46868
G1 X164.355 Y166.150 E13.13156
G1 X162.150 Y168.355 E13.41511
G1 X162.150 Y170.782 E13.63584
G1 X162.084 Y171.295 F5400.000
G1 X161.838 Y171.250 F5400.000
G1 F600.000
G1 X163.838 Y171.250 E13.66494
G1 F4320.000
G1 X161.838 Y171.250 E12.60939
G1 E10.66494 F2400.00000
G92 E0
G1 X161.838 Y168.162 F5400.000
G1 E3.00000 F2400.00000
G1 F600.000
G1 X164.131 Y165.869 E3.01394
G1 F4320.000
G1 X161.838 Y168.162 E1.30225
G1 E0.01394 F2400.00000
G92 E0
G1 X158.750 Y166.162 F5400.000
G1 E3.00000 F2400.00000
G1 F600.000
G1 X158.750 Y168.162 E3.02910
G1 F4320.000
G1 X158.750 Y166.162 E1.97355
G1 E0.02910 F2400.00000
G92 E0
G1 X158.750 Y157.838 F5400.000
G1 E3.00000 F2400.00000
G1 F600.000
G1 X158.750 Y155.838 E3.02910
G1 F4320.000
G1 X158.750 Y157.838 E1.97355
G1 E0.02910 F2400.00000
G92 E0
G1 X164.126 Y156.465 F5400.000
G1 E3.00000 F2400.00000
G1 F600.000
G1 X164.612 Y155.979 E3.06340
G1 X165.507 Y155.980 E3.14603
G1 X164.574 Y156.914 E3.26784
G1 X165.022 Y157.362 E3.32630
G1 X166.403 Y155.980 E3.50651
G1 X167.299 Y155.981 E3.58914
G1 X165.470 Y157.810 E3.82774
G1 X165.482 Y158.695 E3.90937
G1 X168.195 Y155.981 E4.26332
G1 X169.091 Y155.982 E4.34596
G1 X165.482 Y159.591 E4.81677
G1 X165.482 Y160.488 E4.89945
G1 X169.987 Y155.982 E5.48713
G1 X170.883 Y155.983 E5.56976
G1 X165.482 Y161.384 E6.27430
G1 X165.482 Y162.281 E6.35698
G1 X171.779 Y155.983 E7.17838
G1 X172.675 Y155.984 E7.26101
G1 X165.482 Y163.177 E8.19927
G1 X165.482 Y164.073 E8.28195
G1 X173.571 Y155.984 E9.33707
G1 X174.023 Y155.985 E9.37882
G1 X174.023 Y156.428 E9.41973
G1 X165.933 Y164.518 E10.47501
G1 X166.829 Y164.518 E10.55769
G1 X174.023 Y157.325 E11.49606
G1 X174.023 Y158.221 E11.57873
G1 X167.726 Y164.518 E12.40018
G1 X168.622 Y164.518 E12.48286
G1 X174.023 Y159.117 E13.18739
G1 X174.023 Y160.014 E13.27006
G1 X169.519 Y164.518 E13.85767
G1 X170.415 Y164.518 E13.94035
G1 X174.024 Y160.910 E14.41104
G1 X174.024 Y161.806 E14.49372
G1 X171.311 Y164.518 E14.84749
G1 X172.178 Y164.518 E14.92746
G1 X172.193 Y164.533 E14.92938
G1 X174.024 Y162.703 E15.16815
G1 X174.024 Y163.599 E15.25082
G1 X172.641 Y164.981 E15.43114
G1 X173.090 Y165.429 E15.48961
G1 X174.024 Y164.495 E15.61147
G1 X174.024 Y165.392 E15.69414
G1 X173.538 Y165.878 E15.75755
G1 F4320.000
G1 X174.024 Y165.392 E15.39472
G1 F4320.000
G1 X174.024 Y164.495 E14.92165
G1 F4320.000
G1 X173.090 Y165.429 E14.22433
G1 F4320.000
G1 X172.641 Y164.981 E13.88979
G1 F4320.000
G1 X173.957 Y163.665 E12.90755
G1 E12.75755 F2400.00000
G92 E0
G1 X174.162 Y171.250 F5400.000
G1 E3.00000 F2400.00000
G1 F600.000
G1 X172.162 Y171.250 E3.02910
G1 F4320.000
G1 X174.162 Y171.250 E1.97355
G1 E0.02910 F2400.00000
G92 E0
G1 Z0.350 F5400.000
G1 X173.748 Y173.055 F5400.000
G1 E3.00000 F2400.00000
G1 F1800.000
G1 X173.748 Y179.231 E3.56162
G1 X174.998 Y179.231 E3.67527
G1 X174.998 Y173.055 E4.23689
G1 X176.248 Y173.055 E4.35053
G1 X176.248 Y179.231 E4.91215
G1 X177.498 Y179.231 E5.02580
G1 X177.498 Y173.055 E5.58742
G1 X178.748 Y173.055 E5.70106
G1 X178.748 Y179.231 E6.26268
G1 F4320.000
G1 X178.748 Y173.831 E3.41268
G1 E3.26268 F2400.00000
G92 E0
G1 X162.500 Y179.231 F5400.000
G1 E3.00000 F2400.00000
G1 F1800.000
G1 X162.500 Y173.055 E3.56162
G1 X161.251 Y173.055 E3.67527
G1 X161.251 Y179.231 E4.23689
G1 X160.001 Y179.231 E4.35053
G1 X160.001 Y173.055 E4.91215
G1 X158.751 Y173.055 E5.02580
G1 X158.751 Y179.231 E5.58742
G1 X157.501 Y179.231 E5.70106
G1 X157.501 Y173.055 E6.26268
G1 X156.945 Y173.055 E6.31327
G1 X156.945 Y166.769 E6.88488
G1 X156.252 Y166.769 E6.94794
G1 X156.252 Y173.231 E7.53560
G1 X155.002 Y173.231 E7.64924
G1 X155.002 Y166.769 E8.23691
G1 X153.752 Y166.769 E8.35055
G1 X153.752 Y173.231 E8.93821
G1 X152.502 Y173.231 E9.05185
G1 X152.502 Y166.769 E9.63951
G1 X151.252 Y166.769 E9.75315
G1 X151.252 Y173.231 E10.34082
G1 X150.769 Y173.231 E10.38481
G1 X150.769 Y166.769 E10.97247
G1 X151.252 Y166.769 E11.01647
G1 F4320.000
G1 X150.769 Y166.769 E10.76110
G1 F4320.000
G1 X150.769 Y171.685 E8.16647
G1 E8.01647 F2400.00000
G92 E0
G1 X151.252 Y150.769 F5400.000
G1 E3.00000 F2400.00000
G1 F1800.000
G1 X151.252 Y157.231 E3.58766
G1 X152.502 Y157.231 E3.70130
G1 X152.502 Y150.769 E4.28896
G1 X153.752 Y150.769 E4.40261
G1 X153.752 Y157.231 E4.99027
G1 X155.002 Y157.231 E5.10391
G1 X155.002 Y150.769 E5.69157
G1 X156.252 Y150.769 E5.80521
G1 X156.252 Y157.231 E6.39287
G1 X156.945 Y157.231 E6.45593
G1 X156.945 Y150.945 E7.02755
G1 X157.501 Y150.945 E7.07813
G1 X157.501 Y150.769 E7.09417
G1 X158.751 Y150.769 E7.20782
G1 X158.751 Y150.945 E7.22386
M104 S218 ; set temperature
M140 S36 ; set bed temperature
G1 F4320.000
G1 X158.751 Y150.769 E7.13073
G1 F4320.000
G1 X157.501 Y150.769 E6.47112
G1 F4320.000
G1 X157.501 Y150.945 E6.37799
G1 F4320.000
G1 X156.945 Y150.945 E6.08440
G1 F4320.000
G1 X156.945 Y154.186 E4.37386
G1 E4.22386 F2400.00000
G92 E0
G1 Z0.500 F5400.000
G1 X164.876 Y165.124 F5400.000
G1 E3.00000 F2400.00000
G1 F3600.000
G1 X164.876 Y157.930 E3.26831
G1 X161.783 Y154.837 E3.43143
G1 X174.959 Y154.839 E3.92285
G1 X175.135 Y154.858 E3.92945
G1 X175.160 Y155.020 E3.93556
G1 X175.162 Y168.217 E4.42776
G1 X172.070 Y165.124 E4.59087
G1 X164.943 Y165.124 E4.85666
G1 X164.278 Y165.722 F5400.000
G1 F3600.000
G1 X164.278 Y158.178 E5.13803
G1 X161.822 Y155.722 E5.26755
G1 X158.778 Y155.722 E5.38109
G1 X158.778 Y154.239 E5.43639
G1 X174.992 Y154.241 E6.04109
G1 X175.279 Y154.295 E6.05201
G1 X175.437 Y154.379 E6.05866
G1 X175.517 Y154.446 E6.06258
G1 X175.614 Y154.558 E6.06809
G1 X175.688 Y154.685 E6.07359
G1 X175.735 Y154.823 E6.07901
G1 X175.758 Y154.974 E6.08470
G1 X175.761 Y171.222 E6.69069
G1 X174.278 Y171.222 E6.74599
G1 X174.278 Y168.178 E6.85954
G1 X171.822 Y165.722 E6.98905
G1 X164.345 Y165.722 E7.26791
G1 X161.124 Y168.876 F5400.000
G1 F900.000
G1 X161.124 Y170.624 E7.33313
G1 X159.376 Y170.624 E7.39835
G1 X159.376 Y168.876 E7.46358
G1 X161.057 Y168.876 E7.52628
G1 X161.722 Y168.278 F5400.000
G1 F900.000
G1 X161.722 Y171.222 E7.63609
G1 X158.778 Y171.222 E7.74591
G1 X158.778 Y168.278 E7.85572
G1 X161.655 Y168.278 E7.96301
G1 X159.253 Y167.747 F5400.000
G1 F1800.000
G1 X161.603 Y167.747 E8.03087
G1 X163.747 Y165.603 E8.11845
G1 X163.747 Y158.397 E8.32648
G1 X161.603 Y156.253 E8.41407
G1 X159.253 Y156.253 E8.48192
G1 X159.253 Y158.253 E8.53966
G1 X158.247 Y158.253 E8.56868
G1 X158.247 Y153.769 E8.69813

G1 F3600.000
G1 X158.247 Y153.709 E8.70210
G1 X175.020 Y153.711 E9.81116
G1 X175.236 Y153.734 E9.82552
G1 X175.458 Y153.793 E9.84067
G1 X175.748 Y153.947 E9.86239
G1 X175.890 Y154.067 E9.87467
G1 X176.047 Y154.247 E9.89048
G1 X176.174 Y154.465 E9.90715
G1 X176.252 Y154.697 E9.92334
G1 X176.288 Y154.933 E9.93912
G1 X176.291 Y171.753 E11.05127
G1 X176.231 Y171.753 E11.05524

G1 F1800.000
G1 X171.747 Y171.753 E11.18469
G1 X171.747 Y170.747 E11.21370
G1 X173.747 Y170.747 E11.27145
G1 X173.747 Y168.397 E11.33930
G1 X171.603 Y166.253 E11.42689
G1 X164.397 Y166.253 E11.63492
G1 X162.253 Y168.397 E11.72250
G1 X162.253 Y170.747 E11.79036
G1 X164.253 Y170.747 E11.84810
G1 X164.253 Y171.753 E11.87712
G1 X158.247 Y171.753 E12.05050
G1 X158.247 Y165.747 E12.22388
G1 X159.253 Y165.747 E12.25290
G1 X159.253 Y167.680 E12.30870
G1 X159.322 Y168.192 F5400.000
G1 X158.750 Y168.013 F5400.000
G1 F1200.000
G1 X158.750 Y166.013 E12.36391
G1 F4320.000
G1 X158.750 Y168.013 E11.30836
G1 E9.36391 F2400.00000
G92 E0
G1 X161.987 Y168.013 F5400.000
G1 E3.00000 F2400.00000
G1 F1200.000
G1 X162.125 Y167.875 E3.00514
G1 F1200.000
G1 X163.875 Y166.125 E3.06022
G1 X165.706 Y164.759 F5400.000
G1 F1200.000
G1 X165.241 Y164.294 E3.08534
G1 X165.241 Y163.428 E3.11839
G1 X166.572 Y164.759 E3.19027
G1 X167.437 Y164.759 E3.22333
G1 X165.241 Y162.563 E3.34195
G1 X165.241 Y161.697 E3.37501
G1 X168.303 Y164.759 E3.54039
G1 X169.169 Y164.759 E3.57345
G1 X165.241 Y160.831 E3.78558
G1 X165.241 Y159.966 E3.81864
G1 X170.034 Y164.759 E4.07752
G1 X170.900 Y164.759 E4.11058
G1 X165.241 Y159.100 E4.41622
G1 X165.241 Y158.234 E4.44927
G1 X171.766 Y164.759 E4.80166
G1 X172.550 Y164.759 E4.83161
G1 X174.797 Y167.006 E4.95296
G1 X174.797 Y166.925 E4.95607
G1 X163.075 Y155.203 E5.58912
G1 X163.941 Y155.203 E5.62219
G1 X174.797 Y166.059 E6.20848
G1 X174.796 Y165.193 E6.24154
G1 X164.807 Y155.203 E6.78107
G1 X165.672 Y155.203 E6.81413
G1 X174.796 Y164.327 E7.30689
G1 X174.796 Y163.461 E7.33996
G1 X166.538 Y155.203 E7.78595
G1 X167.404 Y155.203 E7.81902
G1 X174.796 Y162.595 E8.21825
G1 X174.796 Y161.730 E8.25131
G1 X168.270 Y155.203 E8.60378
G1 X169.135 Y155.203 E8.63684
G1 X174.796 Y160.864 E8.94255
G1 X174.796 Y159.998 E8.97561
G1 X170.001 Y155.203 E9.23455
G1 X170.867 Y155.204 E9.26762
G1 X174.796 Y159.132 E9.47979
G1 X174.795 Y158.266 E9.51286
G1 X171.733 Y155.204 E9.67827
G1 X172.598 Y155.204 E9.71133
G1 X174.795 Y157.401 E9.82998
G1 X174.795 Y156.535 E9.86304
G1 X173.464 Y155.204 E9.93493
G1 X174.330 Y155.204 E9.96799
G1 X174.795 Y155.669 E9.99311
G1 X175.019 Y168.496 F5400.000
G1 F1200.000
G1 X175.019 Y170.923 E10.12222
G1 X174.013 Y171.250 F5400.000
G1 F1200.000
G1 X172.013 Y171.250 E10.17743
G1 F4320.000
G1 X174.013 Y171.250 E9.12188
G1 E7.17743 F2400.00000
G92 E0
G1 X163.987 Y171.250 F5400.000
G1 E3.00000 F2400.00000
G1 F1200.000
G1 X161.987 Y171.250 E3.05521
G1 X160.759 Y169.706 F5400.000
G1 F1200.000
G1 X160.294 Y169.241 E3.08465
G1 X159.741 Y169.241 E3.10941
G1 X159.741 Y169.702 E3.13005
G1 X160.298 Y170.259 E3.16530
G1 X160.206 Y170.259 E3.16941
G1 X160.206 Y170.167 E3.17353
G1 F4320.000
G1 X160.206 Y170.259 E3.12502
G1 F4320.000
G1 X160.298 Y170.259 E3.07652
G1 F4320.000
G1 X159.741 Y169.702 E2.66088
G1 F4320.000
G1 X159.741 Y169.241 E2.41738
G1 F4320.000
G1 X160.294 Y169.241 E2.12545
G1 F4320.000
G1 X160.759 Y169.706 E1.77829
G1 E0.17353 F2400.00000
G92 E0
G1 X158.750 Y157.987 F5400.000
G1 E3.00000 F2400.00000
G1 F1200.000
G1 X158.750 Y155.987 E3.05521
G1 X159.077 Y154.981 F5400.000
G1 F1200.000
G1 X161.504 Y154.981 E3.18433
G1 F4320.000
G1 X159.077 Y154.981 E1.90348
G1 E0.18433 F2400.00000
G92 E0
G1 Z0.531 F5400.000
G1 X159.252 Y151.258 F5400.000
G1 E3.00000 F2400.00000
G1 F3600.000
G1 X159.252 Y150.456 E3.02747
G1 X150.456 Y150.456 E3.32897
G1 X150.456 Y157.544 E3.57190
G1 X157.258 Y157.544 E3.80502
G1 X157.258 Y151.258 E4.02049
G1 X159.252 Y151.258 E4.08887
G1 F4320.000
G1 X157.258 Y151.258 E3.03596
G1 F4320.000
G1 X157.258 Y154.663 E1.23887
G1 E1.08887 F2400.00000
G92 E0
G1 X156.586 Y153.278 F5400.000
G1 E3.00000 F2400.00000
G1 F3600.000
G1 X151.128 Y153.278 E3.18709
G1 X151.128 Y156.208 E3.28754
G1 X156.586 Y156.208 E3.47462
G1 X156.586 Y156.872 E3.49739
G1 X151.128 Y156.872 E3.68447
G1 X151.128 Y156.208 E3.70724
G1 F4320.000
G1 X151.128 Y156.872 E3.35670
G1 F4320.000
G1 X155.864 Y156.872 E0.85724
G1 E0.70724 F2400.00000
G92 E0
G1 X156.586 Y167.931 F5400.000
G1 E3.00000 F2400.00000
G1 F3600.000
G1 X151.128 Y167.931 E3.18709
G1 X151.128 Y170.861 E3.28754
G1 X156.586 Y170.861 E3.47462
G1 X156.586 Y172.872 E3.54355
G1 X151.128 Y172.872 E3.73064
G1 X151.128 Y170.861 E3.79957
G1 X157.258 Y172.742 F5400.000
G1 F3600.000
G1 X157.258 Y166.456 E4.01504
G1 X150.456 Y166.456 E4.24816
G1 X150.456 Y173.544 E4.49110
G1 X156.456 Y173.544 E4.69675
G1 X156.456 Y179.544 E4.90240
G1 X163.544 Y179.544 E5.14534
G1 X163.544 Y172.742 E5.37846
G1 X157.258 Y172.742 E5.59393
G1 X157.128 Y176.722 F5400.000
G1 F3600.000
G1 X157.128 Y178.872 E5.66762
G1 X162.872 Y178.872 E5.86452
G1 X162.872 Y176.722 E5.93821
G1 X157.128 Y176.722 E6.13511
G1 X157.128 Y173.792 E6.23556
G1 X162.872 Y173.792 E6.43246
G1 F4320.000
G1 X157.472 Y173.792 E3.58246
G1 E3.43246 F2400.00000
G92 E0
G1 X173.128 Y176.722 F5400.000
G1 E3.00000 F2400.00000
G1 F3600.000
G1 X173.128 Y178.872 E3.07369
G1 X178.872 Y178.872 E3.27059
G1 X178.872 Y176.722 E3.34428
G1 X173.128 Y176.722 E3.54118
G1 X173.128 Y173.792 E3.64163
G1 X178.872 Y173.792 E3.83853
G1 X179.544 Y179.544 F5400.000
G1 F3600.000
G1 X179.544 Y170.747 E4.14003
