; generated by Slic3r 1.3.1-dev (Build 18ddd3a36dc69d81fb9b7440498bff9e1dde8b7e) on 2021-07-21 at 13:10:58

; external perimeters extrusion width = 0.49mm (3.88mm^3/s)
; perimeters extrusion width = 0.59mm (9.54mm^3/s)
; infill extrusion width = 0.56mm (11.95mm^3/s)
; solid infill extrusion width = 0.59mm (3.18mm^3/s)
; top infill extrusion width = 0.59mm (2.39mm^3/s)
; support material extrusion width = 0.49mm (7.75mm^3/s)

M107
G92 E0
M190 S45 ; set bed temperature and wait for it to be reached
M104 S226 ; set temperature
G28 ; home all axes
G1 Z5 F5000 ; lift nozzle

; Filament gcode

M109 S226 ; set temperature and wait for it to be reached
G21 ; set units to millimeters
G90 ; use absolute coordinates
M82 ; use absolute distances for extrusion
G92 E0
G1 E-3.00000 F2400.00000
G92 E0
G1 Z0.350 F5400.000
G1 X141.893 Y134.712 F5400.000
G1 E3.00000 F2400.00000
G1 F1800.000
G1 X142.812 Y133.793 E3.11812
G1 X144.630 Y132.301 E3.33201
G1 X145.712 Y131.579 E3.45026
G1 X147.787 Y130.470 E3.66419
G1 X148.983 Y129.975 E3.78191
G1 X151.234 Y129.291 E3.99582
G1 X152.510 Y129.037 E4.11411
G1 X154.851 Y128.807 E4.32799
G1 X155.838 Y128.784 E4.41779
G1 X195.187 Y130.794 E8.00043
G1 X195.774 Y130.841 E8.05398
G1 X196.502 Y130.936 E8.12075
G1 X197.223 Y131.074 E8.18752
G1 X197.935 Y131.253 E8.25429
G1 X198.636 Y131.473 E8.32106
G1 X199.322 Y131.734 E8.38783
G1 X199.993 Y132.034 E8.45461
G1 X200.644 Y132.373 E8.52137
G1 X201.597 Y132.960 E8.62317
G1 X202.192 Y133.391 E8.68992
G1 X202.761 Y133.855 E8.75669
G1 X203.302 Y134.351 E8.82347
G1 X203.813 Y134.878 E8.89024
G1 X204.293 Y135.434 E8.95700
G1 X204.740 Y136.017 E9.02378
G1 X205.335 Y136.922 E9.12227
G1 X205.693 Y137.563 E9.18903
G1 X206.014 Y138.224 E9.25581
G1 X206.295 Y138.902 E9.32258
G1 X206.537 Y139.595 E9.38933
G1 X206.737 Y140.302 E9.45612
G1 X206.897 Y141.019 E9.52290
G1 X207.014 Y141.743 E9.58966
G1 X207.090 Y142.474 E9.65640
G1 X207.125 Y143.400 E9.74071
G1 X207.112 Y151.942 E10.51738
G1 X207.059 Y152.674 E10.58419
G1 X206.897 Y153.781 E10.68594
G1 X206.647 Y154.835 E10.78443
G1 X206.427 Y155.536 E10.85123
G1 X206.166 Y156.222 E10.91797
G1 X205.839 Y156.951 E10.99057
G1 X188.474 Y193.269 E14.65107
G1 X187.204 Y195.879 E14.91494
G1 X185.970 Y197.626 E15.10943
G1 X184.720 Y198.896 E15.27149
G1 X184.203 Y199.369 E15.33523
G1 X182.527 Y200.747 E15.53252
G1 X180.530 Y201.874 E15.74106
G1 X178.300 Y202.253 E15.94666
G1 X132.485 Y202.111 E20.11264
G1 X130.228 Y201.707 E20.32118
G1 X128.300 Y200.605 E20.52310
G1 X126.164 Y198.849 E20.77451
G1 X125.251 Y197.937 E20.89187
G1 X124.888 Y197.494 E20.94390
G1 X124.355 Y196.745 E21.02749
G1 X123.105 Y194.702 E21.24528
G1 X122.418 Y193.171 E21.39788
G1 X122.044 Y191.942 E21.51468
G1 X121.790 Y190.665 E21.63310
G1 X121.651 Y189.249 E21.76249
G1 X121.651 Y187.951 E21.88046
G1 X121.790 Y186.535 E22.00986
G1 X122.044 Y185.258 E22.12827
G1 X122.479 Y183.836 E22.26349
G1 X123.633 Y180.372 E22.59549
G1 X138.191 Y140.534 E26.45220
G1 X138.571 Y139.685 E26.53681
G1 X139.680 Y137.610 E26.75078
G1 X140.401 Y136.530 E26.86883
G1 X141.851 Y134.764 E27.07657
G1 F4320.000
G1 X142.812 Y133.793 E26.35552
G1 F4320.000
G1 X144.630 Y132.301 E25.11405
G1 F4320.000
G1 X145.712 Y131.579 E24.42767
G1 F4320.000
G1 X146.048 Y131.399 E24.22657
G1 E24.07657 F2400.00000
G92 E0
G1 X168.753 Y186.359 F5400.000
G1 E3.00000 F2400.00000
G1 F900.000
G1 X168.512 Y186.650 E3.03437
G1 X168.248 Y186.910 E3.06809
G1 X167.962 Y187.136 E3.10121
G1 X167.659 Y187.326 E3.13377
G1 X167.335 Y187.480 E3.16636
G1 X166.840 Y187.627 E3.21333
G1 X166.342 Y187.675 E3.25877
G1 X144.497 Y187.670 E5.24518
G1 X143.991 Y187.588 E5.29176
G1 X143.504 Y187.410 E5.33897
G1 X143.183 Y187.234 E5.37222
G1 X142.756 Y186.913 E5.42077
G1 X142.485 Y186.647 E5.45532
G1 X142.135 Y186.203 E5.50669
G1 X141.843 Y185.701 E5.55957
G1 X141.678 Y185.330 E5.59648
G1 X141.493 Y184.758 E5.65108
G1 X141.404 Y184.350 E5.68906
G1 X141.333 Y183.740 E5.74491
G1 X141.325 Y183.321 E5.78301
G1 X141.350 Y182.903 E5.82109
G1 X141.444 Y182.294 E5.87709
G1 X141.608 Y181.709 E5.93234
G1 X141.754 Y181.340 E5.96846
G1 X152.666 Y156.778 E8.41235
G1 X152.858 Y156.431 E8.44837
G1 X153.187 Y155.970 E8.49988
G1 X153.446 Y155.688 E8.53473
G1 X153.859 Y155.341 E8.58375
G1 X154.166 Y155.149 E8.61674
G1 X154.490 Y154.996 E8.64933
G1 X154.980 Y154.850 E8.69577
G1 X155.328 Y154.805 E8.72766
G1 X155.678 Y154.805 E8.75949
G1 X156.183 Y154.887 E8.80608
G1 X156.676 Y155.067 E8.85375
G1 X157.137 Y155.338 E8.90239
G1 X157.554 Y155.688 E8.95186
G1 X157.813 Y155.970 E8.98671
G1 X158.142 Y156.431 E9.03822
G1 X158.334 Y156.778 E9.07425
G1 X169.321 Y181.517 E11.53562
G1 X169.453 Y181.899 E11.57236
G1 X169.556 Y182.298 E11.60984
G1 X169.650 Y182.903 E11.66552
G1 X169.675 Y183.321 E11.70360
G1 X169.667 Y183.740 E11.74171
G1 X169.596 Y184.350 E11.79755
G1 X169.508 Y184.755 E11.83521
G1 X169.391 Y185.144 E11.87217
G1 X169.242 Y185.521 E11.90901
G1 X168.972 Y186.037 E11.96198
G1 X168.791 Y186.303 E11.99121
G1 X168.753 Y186.359 F5400.000
G1 F4320.000
G1 X168.753 Y186.359 E11.95558
G1 F4320.000
G1 X168.512 Y186.650 E11.75612
G1 F4320.000
G1 X168.248 Y186.910 E11.56036
G1 F4320.000
G1 X167.962 Y187.136 E11.36815
G1 F4320.000
G1 X167.659 Y187.326 E11.17915
G1 F4320.000
G1 X167.335 Y187.480 E10.99001
G1 F4320.000
G1 X166.840 Y187.627 E10.71739
G1 F4320.000
G1 X166.342 Y187.675 E10.45359
G1 F4320.000
G1 X163.856 Y187.675 E9.14121
G1 E8.99121 F2400.00000
G92 E0
G1 X156.928 Y151.567 F5400.000
G1 E3.00000 F2400.00000
G1 F450.000
G1 X156.259 Y151.737 E3.06284
G1 X155.831 Y151.790 E3.10201
G1 X155.161 Y151.790 E3.16295
G1 X154.724 Y151.734 E3.20304
G1 X154.066 Y151.563 E3.26479
G1 X153.656 Y151.398 E3.30496
G1 X153.034 Y151.051 E3.36981
G1 X152.452 Y150.581 E3.43777
G1 X151.981 Y150.046 E3.50262
G1 X151.733 Y149.680 E3.54280
G1 X151.412 Y149.043 E3.60765
G1 X151.193 Y148.328 E3.67561
G1 X151.103 Y147.621 E3.74046
G1 X151.103 Y147.179 E3.78063
G1 X151.193 Y146.472 E3.84548
G1 X151.412 Y145.757 E3.91344
G1 X151.749 Y145.090 E3.98140
G1 X152.193 Y144.489 E4.04936
G1 X152.733 Y143.972 E4.11731
G1 X153.352 Y143.554 E4.18527
G1 X154.002 Y143.260 E4.25012
G1 X154.425 Y143.131 E4.29029
G1 X155.127 Y143.010 E4.35507
G1 X155.864 Y143.010 E4.42214
G1 X156.550 Y143.125 E4.48539
G1 X156.962 Y143.247 E4.52448
G1 X157.595 Y143.525 E4.58732
G1 X158.207 Y143.925 E4.65379
G1 X158.716 Y144.393 E4.71663
G1 X158.994 Y144.721 E4.75572
G1 X159.356 Y145.275 E4.81586
G1 X159.545 Y145.661 E4.85499
G1 X159.770 Y146.318 E4.91816
G1 X159.890 Y147.036 E4.98435
G1 X159.890 Y147.764 E5.05055
G1 X159.770 Y148.482 E5.11674
G1 X159.534 Y149.171 E5.18293
G1 X159.203 Y149.781 E5.24610
G1 X158.953 Y150.132 E5.28523
G1 X158.505 Y150.618 E5.34538
G1 X158.177 Y150.896 E5.38446
G1 X157.598 Y151.274 E5.44730
G1 X156.990 Y151.540 E5.50764
G1 X156.725 Y150.974 F5400.000
G1 F450.000
G1 X156.143 Y151.122 E5.56225
G1 X155.792 Y151.165 E5.59435
G1 X155.201 Y151.165 E5.64814
G1 X154.842 Y151.119 E5.68101
G1 X154.262 Y150.968 E5.73551
G1 X153.926 Y150.833 E5.76843
G1 X153.385 Y150.531 E5.82482
G1 X152.886 Y150.128 E5.88311
G1 X152.476 Y149.663 E5.93950
G1 X152.273 Y149.363 E5.97242
G1 X151.994 Y148.809 E6.02881
G1 X151.806 Y148.196 E6.08710
G1 X151.728 Y147.581 E6.14349
G1 X151.728 Y147.219 E6.17641
G1 X151.806 Y146.604 E6.23280
G1 X151.994 Y145.991 E6.29109
G1 X152.283 Y145.419 E6.34937
G1 X152.664 Y144.903 E6.40766
G1 X153.127 Y144.460 E6.46594
G1 X153.658 Y144.101 E6.52422
G1 X154.223 Y143.846 E6.58061
G1 X154.569 Y143.740 E6.61354
G1 X155.180 Y143.635 E6.66988
G1 X155.813 Y143.635 E6.72741
G1 X156.409 Y143.735 E6.78239
G1 X156.747 Y143.835 E6.81443
G1 X157.297 Y144.077 E6.86904
G1 X157.822 Y144.420 E6.92610
G1 X158.264 Y144.827 E6.98071
G1 X158.492 Y145.095 E7.01276
G1 X158.811 Y145.584 E7.06584
G1 X158.966 Y145.901 E7.09791
G1 X159.162 Y146.472 E7.15284
G1 X159.265 Y147.088 E7.20961
G1 X159.265 Y147.712 E7.26638
G1 X159.162 Y148.328 E7.32315
G1 X158.960 Y148.919 E7.37993
G1 X158.672 Y149.450 E7.43485
G1 X158.467 Y149.737 E7.46692
G1 X158.071 Y150.166 E7.52001
G1 X157.802 Y150.394 E7.55205
G1 X157.300 Y150.722 E7.60667
G1 X156.787 Y150.947 E7.65758
G1 X156.521 Y150.381 F5400.000
G1 F450.000
G1 X156.027 Y150.506 E7.70397
G1 X155.754 Y150.540 E7.72899
G1 X155.241 Y150.540 E7.77563
G1 X154.961 Y150.504 E7.80129
G1 X154.458 Y150.373 E7.84854
G1 X154.196 Y150.268 E7.87421
G1 X153.736 Y150.011 E7.92214
G1 X153.320 Y149.675 E7.97075
G1 X152.972 Y149.280 E8.01868
G1 X152.813 Y149.046 E8.04436
G1 X152.576 Y148.575 E8.09229
G1 X152.419 Y148.064 E8.14090
G1 X152.353 Y147.541 E8.18883
G1 X152.353 Y147.259 E8.21450
G1 X152.419 Y146.736 E8.26243
G1 X152.576 Y146.225 E8.31104
G1 X152.817 Y145.748 E8.35965
G1 X153.135 Y145.318 E8.40826
G1 X153.521 Y144.948 E8.45687
G1 X153.964 Y144.649 E8.50548
G1 X154.444 Y144.432 E8.55341
G1 X154.714 Y144.349 E8.57909
G1 X155.233 Y144.260 E8.62700
G1 X155.761 Y144.260 E8.67498
G1 X156.268 Y144.344 E8.72169
G1 X156.531 Y144.423 E8.74668
G1 X156.998 Y144.628 E8.79308
G1 X157.437 Y144.915 E8.84071
G1 X157.812 Y145.260 E8.88710
G1 X157.990 Y145.470 E8.91210
G1 X158.267 Y145.893 E8.95813
G1 X158.388 Y146.141 E8.98314
G1 X158.555 Y146.626 E9.02982
G1 X158.640 Y147.140 E9.07717
G1 X158.640 Y147.660 E9.12452
G1 X158.555 Y148.174 E9.17187
G1 X158.385 Y148.667 E9.21922
G1 X158.141 Y149.118 E9.26591
G1 X157.981 Y149.342 E9.29092
G1 X157.638 Y149.714 E9.33695
G1 X157.428 Y149.892 E9.36194
G1 X157.001 Y150.171 E9.40834
G1 X156.583 Y150.354 E9.44983
G1 X156.521 Y150.381 F5400.000
G1 F4320.000
G1 X156.521 Y150.381 E9.41421
G1 F4320.000
G1 X156.027 Y150.506 E9.14495
G1 F4320.000
G1 X155.754 Y150.540 E8.99974
G1 F4320.000
G1 X155.241 Y150.540 E8.72903
G1 F4320.000
G1 X154.961 Y150.504 E8.58011
G1 F4320.000
G1 X154.458 Y150.373 E8.30586
G1 F4320.000
G1 X154.196 Y150.268 E8.15683
G1 F4320.000
G1 X153.736 Y150.011 E7.87864
G1 F4320.000
G1 X153.320 Y149.675 E7.59649
G1 F4320.000
G1 X152.972 Y149.280 E7.31829
G1 F4320.000
G1 X152.813 Y149.046 E7.16927
G1 F4320.000
G1 X152.576 Y148.575 E6.89107
G1 F4320.000
G1 X152.419 Y148.064 E6.60892
G1 F4320.000
G1 X152.417 Y148.047 E6.59983
G1 E6.44983 F2400.00000
G92 E0
G1 X186.649 Y147.529 F5400.000
G1 E3.00000 F2400.00000
G1 F450.000
G1 X186.661 Y147.079 E3.04096
G1 X186.724 Y146.633 E3.08193
G1 X186.894 Y146.037 E3.13830
G1 X187.160 Y145.477 E3.19468
G1 X187.409 Y145.101 E3.23564
G1 X187.683 Y144.772 E3.27458
G1 X187.992 Y144.476 E3.31351
G1 X188.350 Y144.202 E3.35448
G1 X188.890 Y143.897 E3.41085
G1 X189.473 Y143.686 E3.46723
G1 X189.913 Y143.593 E3.50819
G1 X190.339 Y143.551 E3.54713
G1 X190.768 Y143.557 E3.58606
G1 X191.215 Y143.613 E3.62702
G1 X191.791 Y143.769 E3.68136
G1 X192.206 Y143.946 E3.72233
G1 X192.598 Y144.168 E3.76329
G1 X193.073 Y144.531 E3.81764
G1 X193.389 Y144.852 E3.85860
G1 X193.654 Y145.188 E3.89753
G1 X193.880 Y145.552 E3.93647
G1 X194.064 Y145.938 E3.97540
G1 X194.204 Y146.343 E4.01434
G1 X194.304 Y146.782 E4.05530
G1 X194.355 Y147.400 E4.11168
G1 X194.304 Y148.018 E4.16805
G1 X194.204 Y148.457 E4.20902
G1 X194.064 Y148.862 E4.24795
G1 X193.880 Y149.248 E4.28688
G1 X193.642 Y149.631 E4.32785
G1 X193.259 Y150.090 E4.38219
G1 X192.926 Y150.393 E4.42315
G1 X192.560 Y150.657 E4.46412
G1 X192.032 Y150.936 E4.51846
G1 X191.609 Y151.089 E4.55942
G1 X191.171 Y151.195 E4.60039
G1 X190.576 Y151.253 E4.65473
G1 X190.126 Y151.234 E4.69569
G1 X189.680 Y151.166 E4.73666
G1 X189.108 Y150.994 E4.79100
G1 X188.699 Y150.805 E4.83196
G1 X188.313 Y150.573 E4.87293
G1 X187.831 Y150.182 E4.92930
G1 X187.421 Y149.718 E4.98568
G1 X187.173 Y149.342 E5.02664
G1 X186.978 Y148.960 E5.06558
G1 X186.826 Y148.560 E5.10451
G1 X186.715 Y148.123 E5.14548
G1 X186.656 Y147.597 E5.19368
G1 X187.274 Y147.503 F5400.000
G1 F450.000
G1 X187.285 Y147.131 E5.22753
G1 X187.336 Y146.763 E5.26137
G1 X187.480 Y146.259 E5.30904
G1 X187.706 Y145.785 E5.35671
G1 X187.911 Y145.475 E5.39056
G1 X188.141 Y145.199 E5.42317
G1 X188.400 Y144.951 E5.45577
G1 X188.695 Y144.725 E5.48962
G1 X189.152 Y144.467 E5.53729
G1 X189.644 Y144.288 E5.58496
G1 X190.009 Y144.211 E5.61881
G1 X190.365 Y144.177 E5.65142
G1 X190.724 Y144.181 E5.68402
G1 X191.093 Y144.228 E5.71787
G1 X191.586 Y144.361 E5.76430
G1 X191.929 Y144.507 E5.79815
G1 X192.253 Y144.690 E5.83199
G1 X192.658 Y145.001 E5.87842
G1 X192.920 Y145.266 E5.91227
G1 X193.141 Y145.547 E5.94488
G1 X193.331 Y145.852 E5.97749
G1 X193.485 Y146.176 E6.01009
G1 X193.603 Y146.515 E6.04270
G1 X193.685 Y146.878 E6.07655
G1 X193.728 Y147.400 E6.12422
G1 X193.685 Y147.923 E6.17189
G1 X193.603 Y148.286 E6.20573
G1 X193.485 Y148.624 E6.23834
G1 X193.331 Y148.948 E6.27095
G1 X193.134 Y149.264 E6.30480
G1 X192.807 Y149.656 E6.35123
G1 X192.532 Y149.907 E6.38507
G1 X192.230 Y150.124 E6.41892
G1 X191.778 Y150.363 E6.46535
G1 X191.429 Y150.490 E6.49920
G1 X191.067 Y150.577 E6.53304
G1 X190.558 Y150.627 E6.57947
G1 X190.187 Y150.611 E6.61332
G1 X189.819 Y150.555 E6.64716
G1 X189.330 Y150.408 E6.69359
G1 X188.991 Y150.252 E6.72744
G1 X188.673 Y150.060 E6.76128
G1 X188.265 Y149.730 E6.80895
G1 X187.919 Y149.337 E6.85663
G1 X187.713 Y149.026 E6.89047
G1 X187.550 Y148.707 E6.92308
G1 X187.423 Y148.371 E6.95569
G1 X187.331 Y148.011 E6.98953
G1 X187.282 Y147.570 E7.02983
G1 X187.900 Y147.477 F5400.000
G1 F450.000
G1 X187.908 Y147.183 E7.05655
G1 X187.949 Y146.892 E7.08328
G1 X188.067 Y146.480 E7.12225
G1 X188.251 Y146.093 E7.16121
G1 X188.413 Y145.848 E7.18794
G1 X188.598 Y145.626 E7.21422
G1 X188.807 Y145.426 E7.24050
G1 X189.040 Y145.247 E7.26723
G1 X189.413 Y145.037 E7.30620
G1 X189.816 Y144.891 E7.34516
G1 X190.104 Y144.830 E7.37189
G1 X190.392 Y144.802 E7.39817
G1 X190.681 Y144.806 E7.42445
G1 X190.972 Y144.843 E7.45118
G1 X191.381 Y144.953 E7.48970
G1 X191.652 Y145.068 E7.51643
G1 X191.907 Y145.213 E7.54316
G1 X192.244 Y145.471 E7.58167
G1 X192.450 Y145.680 E7.60840
G1 X192.629 Y145.907 E7.63468
G1 X192.782 Y146.152 E7.66097
G1 X192.906 Y146.413 E7.68725
G1 X193.001 Y146.686 E7.71353
G1 X193.066 Y146.973 E7.74026
G1 X193.101 Y147.400 E7.77923
G1 X193.066 Y147.827 E7.81819
G1 X193.001 Y148.114 E7.84492
G1 X192.906 Y148.387 E7.87120
G1 X192.782 Y148.648 E7.89748
G1 X192.627 Y148.898 E7.92421
G1 X192.355 Y149.223 E7.96273
G1 X192.138 Y149.420 E7.98946
G1 X191.899 Y149.592 E8.01618
G1 X191.525 Y149.791 E8.05470
G1 X191.248 Y149.891 E8.08143
G1 X190.963 Y149.959 E8.10816
G1 X190.541 Y150.001 E8.14668
G1 X190.247 Y149.988 E8.17341
G1 X189.957 Y149.944 E8.20013
G1 X189.551 Y149.822 E8.23865
G1 X189.284 Y149.699 E8.26538
G1 X189.032 Y149.547 E8.29211
G1 X188.699 Y149.277 E8.33107
G1 X188.416 Y148.956 E8.37004
G1 X188.254 Y148.711 E8.39676
G1 X188.122 Y148.453 E8.42305
G1 X188.020 Y148.183 E8.44933
G1 X187.947 Y147.898 E8.47606
G1 X187.908 Y147.544 E8.50844
G1 X187.900 Y147.477 F5400.000
G1 F4320.000
G1 X187.900 Y147.477 E8.47281
G1 F4320.000
G1 X187.908 Y147.183 E8.31768
G1 F4320.000
G1 X187.949 Y146.892 E8.16255
G1 F4320.000
G1 X188.067 Y146.480 E7.93639
G1 F4320.000
G1 X188.251 Y146.093 E7.71023
G1 F4320.000
G1 X188.413 Y145.848 E7.55510
G1 F4320.000
G1 X188.598 Y145.626 E7.40255
G1 F4320.000
G1 X188.807 Y145.426 E7.24999
G1 F4320.000
G1 X189.040 Y145.247 E7.09486
G1 F4320.000
G1 X189.413 Y145.037 E6.86870
G1 F4320.000
G1 X189.816 Y144.891 E6.64254
G1 F4320.000
G1 X190.104 Y144.830 E6.48741
G1 F4320.000
G1 X190.392 Y144.802 E6.33486
G1 F4320.000
G1 X190.681 Y144.806 E6.18230
G1 F4320.000
G1 X190.972 Y144.843 E6.02717
G1 F4320.000
G1 X191.381 Y144.953 E5.80360
G1 F4320.000
G1 X191.634 Y145.061 E5.65844
G1 E5.50844 F2400.00000
G92 E0
G1 X173.900 Y155.800 F5400.000
G1 E3.00000 F2400.00000
G1 F1800.000
G1 X173.900 Y163.172 E3.67026
G1 X173.943 Y165.050 E3.84114
G1 X173.999 Y166.020 E3.92950
G1 X174.173 Y167.910 E4.10204
G1 X174.433 Y169.790 E4.27458
G1 X174.784 Y171.682 E4.44963
G1 X175.215 Y173.530 E4.62217
G1 X175.732 Y175.364 E4.79546
G1 X177.925 Y181.986 E5.42970
G1 X171.681 Y181.986 E5.99740
G1 X171.165 Y182.880 E6.09131
G1 X170.904 Y182.832 E6.11544
G1 X170.782 Y182.045 E6.18784
G1 X170.650 Y181.537 E6.23555
G1 X170.484 Y181.058 E6.28166
