; generated by Slic3r 1.3.1-dev (Build 18ddd3a36dc69d81fb9b7440498bff9e1dde8b7e) on 2021-07-21 at 09:58:22

; external perimeters extrusion width = 0.49mm (3.88mm^3/s)
; perimeters extrusion width = 0.59mm (9.54mm^3/s)
; infill extrusion width = 0.56mm (11.95mm^3/s)
; solid infill extrusion width = 0.59mm (3.18mm^3/s)
; top infill extrusion width = 0.59mm (2.39mm^3/s)
; support material extrusion width = 0.49mm (7.75mm^3/s)

M107
G92 E0
M190 S45 ; set bed temperature and wait for it to be reached
M104 S226 ; set temperature
G28 ; home all axes
G1 Z5 F5000 ; lift nozzle

; Filament gcode

M109 S226 ; set temperature and wait for it to be reached
G21 ; set units to millimeters
G90 ; use absolute coordinates
M82 ; use absolute distances for extrusion
G92 E0
G1 E-3.00000 F2400.00000
G92 E0
G1 Z0.350 F5400.000
G1 X151.393 Y141.712 F5400.000
G1 E3.00000 F2400.00000
G1 F1800.000
G1 X152.312 Y140.793 E3.11812
G1 X154.130 Y139.301 E3.33201
G1 X154.921 Y138.744 E3.41998
G1 X181.588 Y122.721 E6.24881
G1 X183.729 Y121.898 E6.45736
G1 X185.000 Y121.775 E6.57349
G1 X190.000 Y121.775 E7.02814
G1 X192.259 Y122.172 E7.23668
G1 X194.247 Y123.315 E7.44522
G1 X195.726 Y125.068 E7.65377
G1 X196.624 Y128.269 E7.95607
G1 X197.869 Y191.401 E13.69772
G1 X197.870 Y199.182 E14.40529
G1 X197.473 Y201.441 E14.61383
G1 X196.499 Y203.218 E14.79811
G1 X195.249 Y204.845 E14.98465
G1 X194.201 Y205.928 E15.12165
G1 X192.952 Y206.955 E15.26874
G1 X190.954 Y208.082 E15.47728
G1 X188.855 Y208.460 E15.67127
G1 X142.295 Y209.226 E19.90554
G1 X140.029 Y208.866 E20.11408
G1 X137.980 Y207.720 E20.32759
G1 X135.681 Y205.831 E20.59810
G1 X134.769 Y204.919 E20.71546
G1 X133.868 Y203.823 E20.84441
G1 X133.143 Y202.737 E20.96316
G1 X132.911 Y202.303 E21.00798
G1 X132.130 Y199.182 E21.30044
G1 X132.130 Y191.532 E21.99612
G1 X132.528 Y189.269 E22.20498
G1 X147.686 Y147.546 E26.24152
G1 X148.071 Y146.685 E26.32726
G1 X149.180 Y144.610 E26.54123
G1 X149.901 Y143.530 E26.65928
G1 X151.351 Y141.764 E26.86702
G1 F4320.000
G1 X152.312 Y140.793 E26.14597
G1 F4320.000
G1 X154.130 Y139.301 E24.90451
G1 F4320.000
G1 X154.921 Y138.744 E24.39390
G1 F4320.000
G1 X155.533 Y138.376 E24.01702
G1 E23.86702 F2400.00000
G92 E0
G1 X178.253 Y193.359 F5400.000
G1 E3.00000 F2400.00000
G1 F900.000
G1 X178.012 Y193.650 E3.03436
G1 X177.748 Y193.910 E3.06809
G1 X177.462 Y194.136 E3.10121
G1 X177.159 Y194.326 E3.13377
G1 X176.835 Y194.480 E3.16636
G1 X176.340 Y194.627 E3.21332
G1 X175.842 Y194.675 E3.25877
G1 X153.997 Y194.670 E5.24518
G1 X153.491 Y194.588 E5.29176
G1 X153.004 Y194.409 E5.33897
G1 X152.683 Y194.234 E5.37222
G1 X152.256 Y193.913 E5.42077
G1 X151.985 Y193.647 E5.45532
G1 X151.635 Y193.203 E5.50669
G1 X151.343 Y192.701 E5.55957
G1 X151.178 Y192.330 E5.59648
G1 X150.993 Y191.758 E5.65108
G1 X150.904 Y191.350 E5.68906
G1 X150.833 Y190.740 E5.74491
G1 X150.825 Y190.321 E5.78301
G1 X150.850 Y189.903 E5.82109
G1 X150.944 Y189.294 E5.87709
G1 X151.108 Y188.709 E5.93234
G1 X151.254 Y188.340 E5.96847
G1 X162.166 Y163.778 E8.41235
G1 X162.358 Y163.431 E8.44837
G1 X162.687 Y162.970 E8.49989
G1 X162.946 Y162.688 E8.53473
G1 X163.359 Y162.341 E8.58375
G1 X163.666 Y162.149 E8.61674
G1 X163.990 Y161.995 E8.64933
G1 X164.480 Y161.850 E8.69577
G1 X164.828 Y161.805 E8.72766
G1 X165.178 Y161.805 E8.75949
G1 X165.683 Y161.887 E8.80608
G1 X166.176 Y162.067 E8.85375
G1 X166.637 Y162.338 E8.90239
G1 X167.054 Y162.688 E8.95186
G1 X167.313 Y162.970 E8.98671
G1 X167.642 Y163.431 E9.03822
G1 X167.834 Y163.778 E9.07425
G1 X178.821 Y188.517 E11.53562
G1 X178.953 Y188.899 E11.57236
G1 X179.056 Y189.298 E11.60984
G1 X179.150 Y189.903 E11.66553
G1 X179.175 Y190.321 E11.70360
G1 X179.167 Y190.740 E11.74171
G1 X179.096 Y191.350 E11.79755
G1 X179.008 Y191.755 E11.83521
G1 X178.891 Y192.144 E11.87217
G1 X178.742 Y192.521 E11.90901
G1 X178.472 Y193.037 E11.96198
G1 X178.291 Y193.303 E11.99121
G1 X178.253 Y193.359 F5400.000
G1 F4320.000
G1 X178.253 Y193.359 E11.95558
G1 F4320.000
G1 X178.012 Y193.650 E11.75612
G1 F4320.000
G1 X177.748 Y193.910 E11.56036
G1 F4320.000
G1 X177.462 Y194.136 E11.36815
G1 F4320.000
G1 X177.159 Y194.326 E11.17915
G1 F4320.000
G1 X176.835 Y194.480 E10.99001
G1 F4320.000
G1 X176.340 Y194.627 E10.71739
G1 F4320.000
G1 X175.842 Y194.675 E10.45359
G1 F4320.000
G1 X173.356 Y194.674 E9.14121
G1 E8.99121 F2400.00000
G92 E0
G1 X166.507 Y158.540 F5400.000
G1 E3.00000 F2400.00000
G1 F450.000
G1 X165.799 Y158.730 E3.06664
G1 X165.384 Y158.785 E3.10474
G1 X164.965 Y158.803 E3.14283
G1 X164.235 Y158.739 E3.20948
G1 X163.493 Y158.540 E3.27931
G1 X162.797 Y158.216 E3.34914
G1 X162.168 Y157.775 E3.41898
G1 X161.625 Y157.232 E3.48881
G1 X161.184 Y156.603 E3.55864
G1 X160.860 Y155.907 E3.62848
G1 X160.670 Y155.199 E3.69512
G1 X160.611 Y154.749 E3.73640
G1 X160.611 Y154.016 E3.80304
G1 X160.738 Y153.294 E3.86968
G1 X160.875 Y152.861 E3.91096
G1 X161.184 Y152.197 E3.97760
G1 X161.625 Y151.568 E4.04744
G1 X162.143 Y151.050 E4.11408
G1 X162.503 Y150.773 E4.15536
G1 X163.138 Y150.407 E4.22200
G1 X163.860 Y150.144 E4.29183
G1 X164.581 Y150.017 E4.35847
G1 X165.035 Y149.997 E4.39975
G1 X165.765 Y150.061 E4.46640
G1 X166.507 Y150.260 E4.53623
G1 X167.203 Y150.584 E4.60606
G1 X167.832 Y151.025 E4.67590
G1 X168.375 Y151.568 E4.74573
G1 X168.795 Y152.168 E4.81237
G1 X169.005 Y152.571 E4.85365
G1 X169.256 Y153.260 E4.92029
G1 X169.383 Y153.981 E4.98693
G1 X169.403 Y154.435 E5.02821
G1 X169.339 Y155.165 E5.09486
G1 X169.140 Y155.907 E5.16469
G1 X168.816 Y156.603 E5.23452
G1 X168.375 Y157.232 E5.30436
G1 X167.832 Y157.775 E5.37419
G1 X167.203 Y158.216 E5.44402
G1 X166.568 Y158.512 E5.50772
G1 X166.292 Y157.951 F5400.000
G1 F450.000
G1 X165.677 Y158.116 E5.56567
G1 X165.329 Y158.161 E5.59756
G1 X164.979 Y158.177 E5.62945
G1 X164.344 Y158.121 E5.68740
G1 X163.708 Y157.951 E5.74729
G1 X163.111 Y157.672 E5.80718
G1 X162.571 Y157.295 E5.86707
G1 X162.105 Y156.829 E5.92696
G1 X161.728 Y156.289 E5.98685
G1 X161.449 Y155.692 E6.04674
G1 X161.284 Y155.077 E6.10469
G1 X161.236 Y154.708 E6.13852
G1 X161.236 Y154.071 E6.19647
G1 X161.346 Y153.443 E6.25441
G1 X161.458 Y153.088 E6.28824
G1 X161.728 Y152.511 E6.34619
G1 X162.105 Y151.971 E6.40608
G1 X162.556 Y151.521 E6.46403
G1 X162.851 Y151.294 E6.49786
G1 X163.403 Y150.975 E6.55580
G1 X164.022 Y150.750 E6.61570
G1 X164.650 Y150.639 E6.67364
G1 X165.021 Y150.623 E6.70747
G1 X165.656 Y150.679 E6.76542
G1 X166.292 Y150.849 E6.82531
G1 X166.889 Y151.128 E6.88520
G1 X167.429 Y151.505 E6.94509
G1 X167.895 Y151.971 E7.00498
G1 X168.260 Y152.493 E7.06293
G1 X168.432 Y152.823 E7.09676
G1 X168.650 Y153.422 E7.15471
G1 X168.761 Y154.050 E7.21265
G1 X168.777 Y154.421 E7.24648
G1 X168.721 Y155.056 E7.30443
G1 X168.551 Y155.692 E7.36432
G1 X168.272 Y156.289 E7.42421
G1 X167.895 Y156.829 E7.48410
G1 X167.429 Y157.295 E7.54400
G1 X166.889 Y157.672 E7.60389
G1 X166.354 Y157.922 E7.65764
G1 X166.078 Y157.361 F5400.000
G1 F450.000
G1 X165.555 Y157.501 E7.70689
G1 X164.992 Y157.551 E7.75822
G1 X164.453 Y157.503 E7.80747
G1 X163.922 Y157.361 E7.85742
G1 X163.424 Y157.129 E7.90736
G1 X162.974 Y156.814 E7.95731
G1 X162.586 Y156.426 E8.00726
G1 X162.271 Y155.976 E8.05721
G1 X162.039 Y155.478 E8.10716
G1 X161.899 Y154.955 E8.15641
G1 X161.861 Y154.667 E8.18279
G1 X161.861 Y154.125 E8.23204
G1 X161.955 Y153.592 E8.28129
G1 X162.042 Y153.315 E8.30768
G1 X162.271 Y152.824 E8.35693
G1 X162.586 Y152.374 E8.40688
G1 X162.969 Y151.991 E8.45613
G1 X163.199 Y151.815 E8.48251
G1 X163.668 Y151.544 E8.53176
G1 X164.184 Y151.356 E8.58171
G1 X164.718 Y151.262 E8.63096
G1 X165.008 Y151.249 E8.65734
G1 X165.547 Y151.297 E8.70659
G1 X166.078 Y151.439 E8.75654
G1 X166.576 Y151.671 E8.80649
G1 X167.026 Y151.986 E8.85644
G1 X167.414 Y152.374 E8.90639
G1 X167.725 Y152.818 E8.95564
G1 X167.859 Y153.075 E8.98202
G1 X168.044 Y153.584 E9.03127
G1 X168.138 Y154.118 E9.08052
G1 X168.151 Y154.408 E9.10691
G1 X168.103 Y154.947 E9.15616
G1 X167.961 Y155.478 E9.20611
G1 X167.729 Y155.976 E9.25606
G1 X167.414 Y156.426 E9.30600
G1 X167.026 Y156.814 E9.35595
G1 X166.576 Y157.129 E9.40590
G1 X166.139 Y157.333 E9.44971
G1 X166.078 Y157.361 F5400.000
G1 F4320.000
G1 X166.078 Y157.361 E9.41409
G1 F4320.000
G1 X165.555 Y157.501 E9.12823
G1 F4320.000
G1 X165.275 Y157.538 E8.97914
G1 F4320.000
G1 X164.992 Y157.551 E8.83004
G1 F4320.000
G1 X164.453 Y157.503 E8.54418
G1 F4320.000
G1 X163.922 Y157.361 E8.25427
G1 F4320.000
G1 X163.424 Y157.129 E7.96435
G1 F4320.000
G1 X162.974 Y156.814 E7.67443
G1 F4320.000
G1 X162.586 Y156.426 E7.38452
G1 F4320.000
G1 X162.271 Y155.976 E7.09460
G1 F4320.000
G1 X162.039 Y155.478 E6.80469
G1 F4320.000
G1 X161.938 Y155.103 E6.59971
G1 E6.44971 F2400.00000
G92 E0
G1 X181.181 Y188.986 F5400.000
G1 E3.00000 F2400.00000
G1 F1800.000
G1 X180.665 Y189.880 E3.09391
G1 X180.404 Y189.832 E3.11804
G1 X180.282 Y189.045 E3.19044
G1 X180.150 Y188.537 E3.23814
G1 X179.984 Y188.058 E3.28425
G1 X168.954 Y163.221 E5.75535
G1 X168.701 Y162.764 E5.80286
G1 X168.286 Y162.182 E5.86786
G1 X167.920 Y161.783 E5.91707
G1 X167.360 Y161.313 E5.98352
G1 X166.711 Y160.932 E6.05198
G1 X166.001 Y160.673 E6.12067
G1 X165.279 Y160.555 E6.18723
G1 X164.747 Y160.555 E6.23563
G1 X164.220 Y160.624 E6.28394
G1 X163.543 Y160.825 E6.34818
G1 X163.066 Y161.050 E6.39617
G1 X162.622 Y161.328 E6.44375
G1 X162.080 Y161.783 E6.50811
G1 X161.714 Y162.182 E6.55732
G1 X161.299 Y162.764 E6.62232
G1 X161.046 Y163.221 E6.66982
G1 X150.101 Y187.857 E9.12107
G1 X149.922 Y188.311 E9.16544
G1 X149.721 Y189.029 E9.23328
G1 X149.596 Y189.832 E9.30713
G1 X149.335 Y189.880 E9.33127
G1 X148.819 Y188.986 E9.42517
G1 X142.578 Y188.986 E9.99263
G1 X155.388 Y150.442 E13.68592
G1 X156.359 Y148.626 E13.87317
G1 X157.651 Y147.051 E14.05840
G1 X159.226 Y145.759 E14.24361
G1 X161.023 Y144.799 E14.42891
G1 X162.973 Y144.207 E14.61418
G1 X165.079 Y144.000 E14.80656
G1 X171.873 Y143.988 E15.42436
G1 X172.755 Y143.894 E15.50501
G1 X173.643 Y143.704 E15.58758
G1 X174.506 Y143.421 E15.67015
G1 X175.334 Y143.049 E15.75272
G1 X176.100 Y142.602 E15.83337
G1 X176.508 Y142.318 E15.87851
G1 X177.177 Y141.770 E15.95723
G1 X177.535 Y141.426 E16.00237
G1 X178.123 Y140.763 E16.08297
G1 X185.823 Y130.000 E17.28626
G1 X188.400 Y130.000 E17.52065
G1 X188.400 Y162.805 E20.50357
G1 X186.167 Y162.810 E20.70664
G1 X185.742 Y162.865 E20.74562
G1 X185.072 Y163.037 E20.80854
G1 X184.409 Y163.332 E20.87450
G1 X183.804 Y163.732 E20.94047
G1 X183.299 Y164.205 E21.00338
G1 X183.039 Y164.517 E21.04033
G1 X182.769 Y164.914 E21.08390
G1 X182.333 Y165.679 E21.16403
G1 X181.972 Y166.505 E21.24597
G1 X181.698 Y167.364 E21.32792
G1 X181.521 Y168.226 E21.40795
G1 X181.460 Y168.714 E21.45275
G1 X181.419 Y169.594 E21.53278
G1 X181.471 Y170.472 E21.61282
G1 X181.538 Y170.960 E21.65761
G1 X181.723 Y171.800 E21.73574
G1 X181.853 Y172.231 E21.77672
G1 X187.422 Y188.986 E23.38219
G1 X181.249 Y188.986 E23.94351
G1 X181.542 Y189.611 F5400.000
G1 F1800.000
G1 X179.625 Y192.931 E24.29208
G1 X179.312 Y192.779 E24.32373
G1 X179.481 Y192.349 E24.36576
G1 X179.614 Y191.912 E24.40734
G1 X179.713 Y191.452 E24.45005
G1 X179.791 Y190.782 E24.51141
G1 X179.800 Y190.309 E24.55444
G1 X179.773 Y189.837 E24.59745
G1 X179.669 Y189.171 E24.65869
G1 X179.552 Y188.718 E24.70128
G1 X179.402 Y188.287 E24.74270
G1 X168.394 Y163.500 E27.20894
G1 X168.172 Y163.098 E27.25071
G1 X167.799 Y162.576 E27.30896
G1 X167.487 Y162.235 E27.35099
G1 X166.999 Y161.826 E27.40896
G1 X166.443 Y161.500 E27.46750
G1 X165.842 Y161.280 E27.52569
G1 X165.228 Y161.180 E27.58225
G1 X164.787 Y161.180 E27.62237
G1 X164.350 Y161.237 E27.66247
G1 X163.766 Y161.410 E27.71782
G1 X163.366 Y161.600 E27.75810
G1 X162.990 Y161.835 E27.79839
G1 X162.513 Y162.235 E27.85508
G1 X162.201 Y162.576 E27.89711
G1 X161.828 Y163.098 E27.95536
G1 X161.606 Y163.500 E27.99712
G1 X150.677 Y188.098 E30.44469
G1 X150.515 Y188.510 E30.48494
G1 X150.332 Y189.162 E30.54648
G1 X150.227 Y189.837 E30.60861
G1 X150.200 Y190.309 E30.65162
G1 X150.209 Y190.782 E30.69464
G1 X150.287 Y191.452 E30.75600
G1 X150.388 Y191.921 E30.79961
G1 X150.593 Y192.553 E30.86004
G1 X150.682 Y192.753 E30.87995
G1 X150.365 Y192.915 E30.91228
G1 X148.458 Y189.611 E31.25918
G1 X141.712 Y189.611 E31.87260
G1 X154.812 Y150.194 E35.64949
G1 X155.837 Y148.277 E35.84717
G1 X157.207 Y146.607 E36.04360
G1 X158.877 Y145.237 E36.24001
G1 X160.783 Y144.219 E36.43649
G1 X162.850 Y143.591 E36.63295
G1 X165.048 Y143.375 E36.83373
G1 X171.832 Y143.364 E37.45056
G1 X172.656 Y143.276 E37.52596
G1 X173.479 Y143.100 E37.60252
G1 X174.279 Y142.837 E37.67909
G1 X175.047 Y142.492 E37.75565
G1 X175.764 Y142.074 E37.83105
G1 X176.131 Y141.819 E37.87168
G1 X176.762 Y141.302 E37.94590
G1 X177.084 Y140.992 E37.98654
G1 X177.634 Y140.372 E38.06190
G1 X185.501 Y129.375 E39.29142
G1 X189.025 Y129.375 E39.61184
G1 X189.025 Y163.428 E42.70825
G1 X186.207 Y163.435 E42.96448
G1 X185.859 Y163.480 E42.99637
G1 X185.278 Y163.629 E43.05098
G1 X184.710 Y163.881 E43.10745
G1 X184.193 Y164.224 E43.16391
G1 X183.754 Y164.635 E43.21852
G1 X183.538 Y164.894 E43.24918
G1 X183.300 Y165.244 E43.28774
G1 X182.892 Y165.960 E43.36262
G1 X182.557 Y166.726 E43.43860
G1 X182.304 Y167.522 E43.51458
G1 X182.138 Y168.328 E43.58940
G1 X182.083 Y168.768 E43.62973
G1 X182.045 Y169.590 E43.70455
G1 X182.093 Y170.411 E43.77937
G1 X182.154 Y170.850 E43.81969
G1 X182.328 Y171.642 E43.89335
G1 X182.449 Y172.042 E43.93135
G1 X188.288 Y189.611 E45.61484
G1 X181.610 Y189.611 E46.22212
G1 F4320.000
G1 X179.625 Y192.931 E44.18093
G1 F4320.000
G1 X179.312 Y192.779 E43.99718
G1 F4320.000
G1 X179.481 Y192.349 E43.75322
G1 F4320.000
G1 X179.614 Y191.912 E43.51189
G1 F4320.000
G1 X179.670 Y191.653 E43.37212
G1 E43.22212 F2400.00000
G92 E0
G1 X177.376 Y195.623 F5400.000
G1 E3.00000 F2400.00000
G1 F1800.000
G1 X179.903 Y200.000 E3.45962
G1 X150.097 Y200.000 E6.16990
G1 X152.634 Y195.605 E6.63137
G1 X153.173 Y195.802 E6.68355
G1 X153.895 Y195.920 E6.75009
G1 X175.903 Y195.925 E8.75122
G1 X176.580 Y195.859 E8.81310
G1 X177.311 Y195.642 E8.88242
G1 X178.084 Y195.600 F5400.000
G1 F1800.000
G1 X180.986 Y200.625 E9.41004
G1 X149.014 Y200.625 E12.31716
G1 X151.916 Y195.600 E12.84478
G1 X150.902 Y193.844 E13.02914
G1 X151.191 Y193.648 E13.06086
G1 X151.519 Y194.064 E13.10902
G1 X151.847 Y194.388 E13.15094
G1 X152.343 Y194.760 E13.20736
G1 X152.745 Y194.980 E13.24896
G1 X153.332 Y195.195 E13.30585
G1 X153.946 Y195.295 E13.36241
G1 X175.873 Y195.300 E15.35617
G1 X176.460 Y195.243 E15.40984
G1 X177.059 Y195.065 E15.46663
G1 X177.459 Y194.875 E15.50693
G1 X177.824 Y194.647 E15.54601
G1 X178.162 Y194.378 E15.58534
G1 X178.473 Y194.073 E15.62496
G1 X178.792 Y193.688 E15.67041
G1 X179.075 Y193.885 E15.70175
G1 X178.118 Y195.542 E15.87572
G1 X178.806 Y195.600 F5400.000
G1 F900.000
G1 X182.068 Y201.250 E16.46895
G1 X147.932 Y201.250 E19.57290
G1 X151.194 Y195.600 E20.16613
G1 X148.097 Y190.236 E20.72936
G1 X140.846 Y190.236 E21.38873
G1 X154.236 Y149.947 E25.24923
G1 X155.315 Y147.928 E25.45735
G1 X156.763 Y146.163 E25.66497
G1 X158.528 Y144.715 E25.87258
G1 X160.543 Y143.639 E26.08024
G1 X162.728 Y142.975 E26.28789
G1 X165.017 Y142.750 E26.49707
G1 X171.402 Y142.750 E27.07766
G1 X171.790 Y142.740 E27.11295
G1 X172.557 Y142.658 E27.18309
G1 X173.316 Y142.496 E27.25365
G1 X174.053 Y142.254 E27.32421
G1 X174.761 Y141.936 E27.39477
G1 X175.427 Y141.547 E27.46490
G1 X175.754 Y141.320 E27.50103
G1 X176.347 Y140.834 E27.57075
G1 X176.633 Y140.559 E27.60688
G1 X177.145 Y139.982 E27.67701
G1 X185.180 Y128.750 E28.93277
G1 X189.650 Y128.750 E29.33923
G1 X189.650 Y164.051 E32.54912
G1 X186.248 Y164.060 E32.85849
G1 X185.977 Y164.095 E32.88330
G1 X185.484 Y164.221 E32.92960
G1 X185.012 Y164.431 E32.97657
G1 X184.581 Y164.717 E33.02354
G1 X184.209 Y165.064 E33.06984
G1 X184.038 Y165.270 E33.09421
G1 X183.830 Y165.575 E33.12776
G1 X183.452 Y166.241 E33.19739
G1 X183.143 Y166.946 E33.26741
G1 X182.909 Y167.680 E33.33743
G1 X182.755 Y168.430 E33.40703
G1 X182.706 Y168.821 E33.44289
G1 X182.671 Y169.586 E33.51250
G1 X182.716 Y170.350 E33.58210
G1 X182.770 Y170.740 E33.61796
G1 X182.933 Y171.484 E33.68714
