; generated by Slic3r 1.3.1-dev (Build 18ddd3a36dc69d81fb9b7440498bff9e1dde8b7e) on 2021-07-22 at 10:01:23

; external perimeters extrusion width = 0.49mm (3.88mm^3/s)
; perimeters extrusion width = 0.59mm (9.54mm^3/s)
; infill extrusion width = 0.56mm (11.95mm^3/s)
; solid infill extrusion width = 0.59mm (3.18mm^3/s)
; top infill extrusion width = 0.59mm (2.39mm^3/s)
; support material extrusion width = 0.49mm (7.75mm^3/s)

M107
G92 E0
M190 S45 ; set bed temperature and wait for it to be reached
M104 S226 ; set temperature
G28 ; home all axes
G1 Z5 F5000 ; lift nozzle

; Filament gcode

M109 S226 ; set temperature and wait for it to be reached
G21 ; set units to millimeters
G90 ; use absolute coordinates
M82 ; use absolute distances for extrusion
G92 E0
G1 E-3.00000 F2400.00000
G92 E0
G1 Z0.350 F5400.000
G1 X146.168 Y146.522 F5400.000
G1 E3.00000 F2400.00000
G1 F1800.000
G1 X147.921 Y145.043 E3.20854
G1 X150.073 Y144.250 E3.41708
G1 X151.252 Y144.144 E3.52479
G1 X173.231 Y144.144 E5.52327
G1 X175.490 Y144.541 E5.73182
G1 X178.108 Y146.285 E6.01784
G1 X183.624 Y152.285 E6.75899
G1 X184.861 Y154.217 E6.96753
G1 X185.372 Y156.769 E7.20425
G1 X185.372 Y179.231 E9.24666
G1 X184.975 Y181.490 E9.45521
G1 X183.832 Y183.478 E9.66375
G1 X182.079 Y184.957 E9.87229
G1 X179.927 Y185.750 E10.08083
G1 X178.748 Y185.856 E10.18854
G1 X171.249 Y185.856 E10.87039
G1 X169.967 Y185.730 E10.98750
G1 X153.189 Y182.412 E12.54271
G1 X152.883 Y182.331 E12.57143
G1 X152.154 Y182.083 E12.64146
G1 X151.570 Y181.816 E12.69986
G1 X150.935 Y181.461 E12.76604
G1 X150.505 Y181.166 E12.81340
G1 X149.805 Y180.592 E12.89570
G1 X149.255 Y180.020 E12.96789
G1 X148.878 Y179.553 E13.02246
G1 X148.507 Y179.012 E13.08213
G1 X148.232 Y178.528 E13.13274
G1 X148.017 Y178.072 E13.17853
G1 X147.798 Y177.516 E13.23288
G1 X147.622 Y176.945 E13.28726
G1 X147.447 Y176.084 E13.36711
G1 X144.702 Y157.936 E15.03613
G1 X144.628 Y156.945 E15.12646
G1 X144.628 Y150.769 E15.68802
G1 X145.025 Y148.510 E15.89657
G1 X146.134 Y146.581 E16.09897
G1 F4320.000
G1 X147.921 Y145.043 E14.85499
G1 F4320.000
G1 X150.073 Y144.250 E13.64456
G1 F4320.000
G1 X150.819 Y144.183 E13.24897
G1 E13.09897 F2400.00000
G92 E0
G1 X167.144 Y174.406 F5400.000
G1 E3.00000 F2400.00000
G1 F1800.000
G1 X155.594 Y174.406 E4.05020
G1 X155.594 Y162.856 E5.10042
G1 X157.837 Y165.100 E5.38891
G1 X164.900 Y165.100 E6.03114
G1 X164.900 Y172.163 E6.67336
G1 X167.096 Y174.358 E6.95573
G1 F4320.000
G1 X161.696 Y174.381 E4.10573
G1 E3.95573 F2400.00000
G92 E0
G1 X171.025 Y174.475 F5400.000
G1 E3.00000 F2400.00000
G1 F1800.000
G1 X171.025 Y175.031 E3.05058
G1 X154.969 Y175.031 E4.51052
G1 X154.969 Y158.975 E5.97050
G1 X155.525 Y158.975 E6.02108
G1 X155.525 Y161.904 E6.28741
G1 X158.096 Y164.475 E6.61803
G1 X165.525 Y164.475 E7.29354
G1 X165.525 Y171.904 E7.96905
G1 X168.096 Y174.475 E8.29967
G1 X170.958 Y174.475 E8.55986
G1 F4320.000
G1 X171.025 Y175.031 E8.26415
G1 F4320.000
G1 X166.185 Y175.031 E5.70986
G1 E5.55986 F2400.00000
G92 E0
G1 X170.400 Y160.900 F5400.000
G1 E3.00000 F2400.00000
G1 F450.000
G1 X169.100 Y160.900 E3.11825
G1 X169.100 Y159.600 E3.23650
G1 X170.400 Y159.600 E3.35475
G1 X170.400 Y160.833 E3.46686
G1 X171.025 Y161.525 F5400.000
G1 F450.000
G1 X168.475 Y161.525 E3.69875
G1 X168.475 Y158.975 E3.93064
G1 X171.025 Y158.975 E4.16253
G1 X171.025 Y161.458 E4.38828
G1 X170.850 Y162.150 F5400.000
G1 F900.000
G1 X168.355 Y162.150 E4.61515
G1 X166.150 Y164.355 E4.89870
G1 X166.150 Y171.645 E5.56158
G1 X168.355 Y173.850 E5.84513
G1 X170.850 Y173.850 E6.07199
G1 X170.850 Y171.850 E6.25385
G1 X171.650 Y171.850 E6.32660
G1 X171.650 Y175.656 E6.67268
G1 X155.014 Y175.656 E8.18538
G1 X154.765 Y175.613 E8.20831
G1 X154.649 Y175.555 E8.22012
G1 X154.489 Y175.409 E8.23982
G1 X154.397 Y175.254 E8.25623
G1 X154.344 Y175.029 E8.27725
G1 X154.344 Y158.350 E9.79385
G1 X158.150 Y158.350 E10.13993
G1 X158.150 Y159.150 E10.21267
G1 X156.150 Y159.150 E10.39453
G1 X156.150 Y161.645 E10.62140
G1 X158.355 Y163.850 E10.90495
G1 X165.645 Y163.850 E11.56782
G1 X167.850 Y161.645 E11.85137
G1 X167.850 Y159.150 E12.07824
G1 X165.850 Y159.150 E12.26010
G1 X165.850 Y158.350 E12.33284
G1 X171.650 Y158.350 E12.86023
G1 X171.650 Y164.150 E13.38763
G1 X170.850 Y164.150 E13.46037
G1 X170.850 Y162.218 E13.63609
G1 X170.793 Y161.704 F5400.000
G1 X171.250 Y161.838 F5400.000
G1 F600.000
G1 X171.250 Y163.838 E13.66520
G1 F4320.000
G1 X171.250 Y161.838 E12.60964
G1 E10.66520 F2400.00000
G92 E0
G1 X168.131 Y161.869 F5400.000
G1 E3.00000 F2400.00000
G1 F600.000
G1 X165.838 Y164.162 E3.01394
G1 F4320.000
G1 X168.131 Y161.869 E1.30225
G1 E0.01394 F2400.00000
G92 E0
G1 X166.162 Y158.750 F5400.000
G1 E3.00000 F2400.00000
G1 F600.000
G1 X168.162 Y158.750 E3.02910
G1 F4320.000
G1 X166.162 Y158.750 E1.97355
G1 E0.02910 F2400.00000
G92 E0
G1 X157.838 Y158.750 F5400.000
G1 E3.00000 F2400.00000
G1 F600.000
G1 X155.838 Y158.750 E3.02910
G1 F4320.000
G1 X157.838 Y158.750 E1.97355
G1 E0.02910 F2400.00000
G92 E0
G1 X155.976 Y164.608 F5400.000
G1 E3.00000 F2400.00000
G1 F600.000
G1 X156.462 Y164.122 E3.06343
G1 X156.910 Y164.570 E3.12194
G1 X155.976 Y165.505 E3.24389
G1 X155.976 Y166.402 E3.32663
G1 X157.359 Y165.019 E3.50709
G1 X157.807 Y165.467 E3.56560
G1 X155.976 Y167.298 E3.80457
G1 X155.976 Y168.195 E3.88731
G1 X158.689 Y165.482 E4.24141
G1 X159.586 Y165.482 E4.32416
G1 X155.976 Y169.092 E4.79529
G1 X155.976 Y169.989 E4.87804
G1 X160.483 Y165.482 E5.46618
G1 X161.380 Y165.482 E5.54893
G1 X155.976 Y170.885 E6.25410
G1 X155.976 Y171.782 E6.33685
G1 X162.277 Y165.482 E7.15904
G1 X163.173 Y165.482 E7.24179
G1 X155.976 Y172.679 E8.18100
G1 X155.976 Y173.576 E8.26375
G1 X164.070 Y165.482 E9.31998
G1 X164.518 Y165.482 E9.36134
G1 X164.518 Y165.930 E9.40273
G1 X156.424 Y174.024 E10.45898
G1 X157.321 Y174.024 E10.54173
G1 X164.518 Y166.827 E11.48095
G1 X164.518 Y167.724 E11.56370
G1 X158.218 Y174.024 E12.38589
G1 X159.115 Y174.024 E12.46864
G1 X164.518 Y168.621 E13.17381
G1 X164.518 Y169.517 E13.25656
G1 X160.011 Y174.024 E13.84470
G1 X160.908 Y174.024 E13.92745
G1 X164.518 Y170.414 E14.39857
G1 X164.518 Y171.311 E14.48132
G1 X161.805 Y174.024 E14.83541
G1 X162.702 Y174.024 E14.91816
G1 X164.533 Y172.193 E15.15713
G1 X164.981 Y172.641 E15.21564
G1 X163.598 Y174.024 E15.39610
G1 X164.495 Y174.024 E15.47885
G1 X165.430 Y173.090 E15.60080
G1 X165.878 Y173.538 E15.65932
G1 X165.392 Y174.024 E15.72275
G1 F4320.000
G1 X165.878 Y173.538 E15.35992
G1 F4320.000
G1 X165.430 Y173.090 E15.02524
G1 F4320.000
G1 X164.495 Y174.024 E14.32773
G1 F4320.000
G1 X163.598 Y174.024 E13.85442
G1 F4320.000
G1 X164.914 Y172.709 E12.87275
G1 E12.72275 F2400.00000
G92 E0
G1 X171.250 Y174.162 F5400.000
G1 E3.00000 F2400.00000
G1 F600.000
G1 X171.250 Y172.162 E3.02910
G1 F4320.000
G1 X171.250 Y174.162 E1.97355
G1 E0.02910 F2400.00000
G92 E0
G1 Z0.350 F5400.000
G1 X171.249 Y179.055 F5400.000
G1 E3.00000 F2400.00000
G1 F1800.000
G1 X171.249 Y179.231 E3.01599
G1 X172.499 Y179.231 E3.12963
G1 X172.499 Y179.055 E3.14562
G1 X173.055 Y179.055 E3.19620
G1 X173.055 Y172.769 E3.76776
G1 X173.748 Y172.769 E3.83082
G1 X173.748 Y179.231 E4.41836
G1 X174.998 Y179.231 E4.53200
G1 X174.998 Y172.769 E5.11955
G1 X176.248 Y172.769 E5.23319
G1 X176.248 Y179.231 E5.82073
G1 X177.498 Y179.231 E5.93438
G1 X177.498 Y172.769 E6.52192
G1 X178.748 Y172.769 E6.63556
G1 X178.748 Y179.231 E7.22311
G1 F4320.000
G1 X178.748 Y173.831 E4.37311
G1 E4.22311 F2400.00000
G92 E0
G1 X178.748 Y163.231 F5400.000
G1 E3.00000 F2400.00000
G1 F1800.000
G1 X178.748 Y156.769 E3.58754
G1 X177.498 Y156.769 E3.70119
G1 X177.498 Y163.231 E4.28873
G1 X176.248 Y163.231 E4.40237
G1 X176.248 Y156.769 E4.98992
G1 X174.998 Y156.769 E5.10356
G1 X174.998 Y163.231 E5.69111
G1 X173.748 Y163.231 E5.80475
G1 X173.748 Y156.769 E6.39229
G1 X173.231 Y156.769 E6.43936
G1 X173.231 Y150.769 E6.98494
G1 X172.499 Y150.769 E7.05151
G1 X172.499 Y156.945 E7.61308
G1 X171.249 Y156.945 E7.72672
G1 X171.249 Y150.769 E8.28828
G1 X169.999 Y150.769 E8.40192
G1 X169.999 Y156.945 E8.96349
G1 X168.749 Y156.945 E9.07713
G1 X168.749 Y150.769 E9.63870
G1 X167.500 Y150.769 E9.75234
G1 X167.500 Y156.945 E10.31390
G1 X166.769 Y156.945 E10.38031
G1 X166.769 Y150.769 E10.94188
G1 X167.500 Y150.769 E11.00828
G1 F4320.000
G1 X166.769 Y150.769 E10.62283
G1 F4320.000
G1 X166.769 Y155.439 E8.15828
G1 E8.00828 F2400.00000
G92 E0
G1 X156.252 Y156.945 F5400.000
G1 E3.00000 F2400.00000
G1 F1800.000
G1 X156.252 Y150.769 E3.56157
G1 X155.002 Y150.769 E3.67521
G1 X155.002 Y156.945 E4.23677
G1 X153.752 Y156.945 E4.35041
G1 X153.752 Y150.769 E4.91198
G1 X152.502 Y150.769 E5.02562
G1 X152.502 Y156.945 E5.58719
G1 X151.252 Y156.945 E5.70083
G1 X151.252 Y150.769 E6.26239
M104 S218 ; set temperature
M140 S36 ; set bed temperature
G1 F4320.000
G1 X151.252 Y156.169 E3.41239
G1 E3.26239 F2400.00000
G92 E0
G1 Z0.500 F5400.000
G1 X165.124 Y164.876 F5400.000
G1 E3.00000 F2400.00000
G1 F3600.000
G1 X165.124 Y172.070 E3.26831
G1 X168.218 Y175.163 E3.43145
G1 X155.082 Y175.163 E3.92135
G1 X154.857 Y175.136 E3.92980
G1 X154.837 Y174.934 E3.93739
G1 X154.837 Y161.782 E4.42786
G1 X157.930 Y164.876 E4.59100
G1 X165.057 Y164.876 E4.85680
G1 X165.722 Y164.278 F5400.000
G1 F3600.000
G1 X165.722 Y171.822 E5.13816
G1 X168.178 Y174.278 E5.26768
G1 X171.222 Y174.278 E5.38122
G1 X171.222 Y175.761 E5.43653
G1 X155.046 Y175.761 E6.03981
G1 X154.831 Y175.735 E6.04791
G1 X154.659 Y175.674 E6.05471
G1 X154.513 Y175.577 E6.06125
G1 X154.402 Y175.463 E6.06716
G1 X154.324 Y175.341 E6.07257
G1 X154.258 Y175.157 E6.07985
G1 X154.239 Y174.962 E6.08715
G1 X154.239 Y158.778 E6.69076
G1 X155.722 Y158.778 E6.74606
G1 X155.722 Y161.822 E6.85960
G1 X158.178 Y164.278 E6.98912
G1 X165.655 Y164.278 E7.26797
G1 X168.876 Y161.124 F5400.000
G1 F900.000
G1 X168.876 Y159.376 E7.33320
G1 X170.624 Y159.376 E7.39842
G1 X170.624 Y161.124 E7.46364
G1 X168.943 Y161.124 E7.52635
G1 X168.278 Y161.722 F5400.000
G1 F900.000
G1 X168.278 Y158.778 E7.63616
G1 X171.222 Y158.778 E7.74597
G1 X171.222 Y161.722 E7.85578
G1 X168.345 Y161.722 E7.96308
G1 X170.747 Y162.253 F5400.000
G1 F1800.000
G1 X168.397 Y162.253 E8.03093
G1 X166.253 Y164.397 E8.11851
G1 X166.253 Y171.603 E8.32654
G1 X168.397 Y173.747 E8.41413
G1 X170.747 Y173.747 E8.48198
G1 X170.747 Y171.747 E8.53973
G1 X171.753 Y171.747 E8.56874
G1 X171.753 Y176.231 E8.69819

G1 F3600.000
G1 X171.753 Y176.291 E8.70216
G1 X155.015 Y176.291 E9.80890
G1 X154.709 Y176.254 E9.82928
G1 X154.420 Y176.151 E9.84956
G1 X154.172 Y175.987 E9.86920
G1 X153.985 Y175.794 E9.88700
G1 X153.852 Y175.587 E9.90330
G1 X153.735 Y175.252 E9.92675
G1 X153.709 Y174.988 E9.94428
G1 X153.709 Y158.247 E11.05121
G1 X153.769 Y158.247 E11.05517

G1 F1800.000
G1 X158.253 Y158.247 E11.18462
G1 X158.253 Y159.253 E11.21364
G1 X156.253 Y159.253 E11.27139
G1 X156.253 Y161.603 E11.33924
G1 X158.397 Y163.747 E11.42682
G1 X165.603 Y163.747 E11.63485
G1 X167.747 Y161.603 E11.72244
G1 X167.747 Y159.253 E11.79029
G1 X165.747 Y159.253 E11.84804
G1 X165.747 Y158.247 E11.87705
G1 X171.753 Y158.247 E12.05043
G1 X171.753 Y164.253 E12.22382
G1 X170.747 Y164.253 E12.25283
G1 X170.747 Y162.320 E12.30863
G1 X170.678 Y161.808 F5400.000
G1 X171.250 Y161.987 F5400.000
G1 F1200.000
G1 X171.250 Y163.987 E12.36384
G1 X169.706 Y160.667 F5400.000
G1 F1200.000
G1 X169.706 Y160.759 E12.36796
G1 X169.798 Y160.759 E12.37207
G1 X169.241 Y160.202 E12.40731
G1 X169.241 Y159.741 E12.42796
G1 X169.794 Y159.741 E12.45272
G1 X170.259 Y160.206 E12.48215
G1 X168.013 Y158.750 F5400.000
G1 F1200.000
G1 X166.013 Y158.750 E12.53737
G1 F4320.000
G1 X168.013 Y158.750 E11.48182
G1 E9.53737 F2400.00000
G92 E0
G1 X167.875 Y162.125 F5400.000
G1 E3.00000 F2400.00000
G1 F1200.000
G1 X166.125 Y163.875 E3.05509
G1 F1200.000
G1 X165.987 Y164.013 E3.06022
G1 X164.759 Y165.706 F5400.000
G1 F1200.000
G1 X164.294 Y165.241 E3.08535
G1 X163.428 Y165.241 E3.11842
G1 X164.759 Y166.572 E3.19032
G1 X164.759 Y167.438 E3.22340
G1 X162.562 Y165.241 E3.34207
G1 X161.696 Y165.241 E3.37514
G1 X164.759 Y168.304 E3.54059
G1 X164.759 Y169.169 E3.57366
G1 X160.831 Y165.241 E3.78588
G1 X159.965 Y165.241 E3.81896
G1 X164.759 Y170.035 E4.07795
G1 X164.759 Y170.901 E4.11103
G1 X159.099 Y165.241 E4.41679
G1 X158.233 Y165.241 E4.44987
G1 X164.759 Y171.767 E4.80241
G1 X164.759 Y172.550 E4.83231
G1 X167.007 Y174.798 E4.95373
G1 X166.924 Y174.798 E4.95691
G1 X155.202 Y163.076 E5.59009
G1 X155.202 Y163.942 E5.62316
G1 X166.058 Y174.798 E6.20958
G1 X165.192 Y174.798 E6.24265
G1 X155.202 Y164.808 E6.78229
G1 X155.202 Y165.674 E6.81536
G1 X164.326 Y174.798 E7.30822
G1 X163.460 Y174.798 E7.34130
G1 X155.202 Y166.540 E7.78739
G1 X155.202 Y167.406 E7.82046
G1 X162.594 Y174.798 E8.21978
G1 X161.729 Y174.798 E8.25285
G1 X155.202 Y168.271 E8.60539
G1 X155.202 Y169.137 E8.63847
G1 X160.863 Y174.798 E8.94424
G1 X159.997 Y174.798 E8.97731
G1 X155.202 Y170.003 E9.23631
G1 X155.202 Y170.869 E9.26938
G1 X159.131 Y174.798 E9.48160
G1 X158.265 Y174.798 E9.51468
G1 X155.202 Y171.735 E9.68012
G1 X155.202 Y172.601 E9.71320
G1 X157.399 Y174.798 E9.83187
G1 X156.533 Y174.798 E9.86494
G1 X155.202 Y173.467 E9.93684
G1 X155.202 Y174.332 E9.96992
G1 X155.667 Y174.797 E9.99504
G1 X168.497 Y175.019 F5400.000
G1 F1200.000
G1 X170.923 Y175.019 E10.12416
G1 X171.250 Y174.013 F5400.000
G1 F1200.000
G1 X171.250 Y172.013 E10.17938
G1 F4320.000
G1 X171.250 Y174.013 E9.12383
G1 E7.17938 F2400.00000
G92 E0
G1 X157.987 Y158.750 F5400.000
G1 E3.00000 F2400.00000
G1 F1200.000
G1 X155.987 Y158.750 E3.05521
G1 X154.981 Y159.077 F5400.000
G1 F1200.000
G1 X154.981 Y161.503 E3.18434
G1 F4320.000
G1 X154.981 Y159.077 E1.90357
G1 E0.18434 F2400.00000
G92 E0
G1 Z0.534 F5400.000
G1 X157.543 Y157.258 F5400.000
G1 E3.00000 F2400.00000
G1 F3600.000
G1 X157.543 Y150.457 E3.23658
G1 X150.457 Y150.457 E3.48310
G1 X150.457 Y159.252 E3.78908
G1 X151.258 Y159.252 E3.81693
G1 X151.258 Y157.258 E3.88633
G1 X157.543 Y157.258 E4.10500
G1 X156.872 Y153.278 F5400.000
G1 F3600.000
G1 X151.128 Y153.278 E4.30484
G1 X151.128 Y156.208 E4.40679
G1 X156.872 Y156.208 E4.60663
G1 X156.872 Y156.587 E4.61980
G1 X151.128 Y156.587 E4.81964
G1 X151.128 Y156.208 E4.83280
G1 F4320.000
G1 X151.128 Y156.587 E4.63306
G1 F4320.000
G1 X156.149 Y156.587 E1.98280
G1 E1.83280 F2400.00000
G92 E0
G1 X167.128 Y156.208 F5400.000
G1 E3.00000 F2400.00000
G1 F3600.000
G1 X167.128 Y156.587 E3.01317
G1 X172.872 Y156.587 E3.21301
G1 X172.872 Y156.208 E3.22617
G1 X167.128 Y156.208 E3.42601
G1 X167.128 Y153.278 E3.52796
G1 X172.872 Y153.278 E3.72780
G1 X173.543 Y156.457 F5400.000
G1 F3600.000
G1 X173.543 Y150.457 E3.93653
G1 X166.457 Y150.457 E4.18305
G1 X166.457 Y157.258 E4.41963
G1 X172.742 Y157.258 E4.63829
G1 X172.742 Y163.543 E4.85695
G1 X179.543 Y163.543 E5.09353
G1 X179.543 Y156.457 E5.34005
G1 X173.543 Y156.457 E5.54878
G1 X173.413 Y162.069 F5400.000
G1 F3600.000
G1 X173.413 Y162.872 E5.57671
G1 X178.872 Y162.872 E5.76661
G1 X178.872 Y162.069 E5.79454
G1 X173.413 Y162.069 E5.98445
G1 X173.413 Y159.139 E6.08639
G1 X178.872 Y159.139 E6.27630
G1 F4320.000
G1 X173.472 Y159.139 E3.42630
G1 E3.27630 F2400.00000
G92 E0
G1 X178.872 Y173.792 F5400.000
G1 E3.00000 F2400.00000
G1 F3600.000
G1 X173.413 Y173.792 E3.18990
G1 X173.413 Y176.722 E3.29185
G1 X178.872 Y176.722 E3.48175
G1 X178.872 Y178.872 E3.55654
G1 X173.413 Y178.872 E3.74644
G1 X173.413 Y176.722 E3.82123
G1 X179.543 Y179.543 F5400.000
G1 F3600.000
G1 X179.543 Y172.457 E4.06775
G1 X172.742 Y172.457 E4.30433
G1 X172.742 Y178.742 E4.52299
G1 X170.747 Y178.742 E4.59239
G1 X170.747 Y179.543 E4.62025
G1 X179.543 Y179.543 E4.92623
G1 F4320.000
G1 X174.143 Y179.543 E2.07623
G1 E1.92623 F2400.00000
G92 E0
G1 Z0.650 F5400.000
G1 X165.124 Y164.876 F5400.000
G1 E3.00000 F2400.00000
G1 F3600.000
G1 X165.124 Y172.070 E3.26801
G1 X167.930 Y174.876 E3.41584
G1 X170.624 Y174.876 E3.51621
G1 X170.624 Y175.388 E3.53531
G1 X155.066 Y175.388 E4.11492
G1 X154.926 Y175.375 E4.12017
G1 X154.745 Y175.291 E4.12759
G1 X154.645 Y175.147 E4.13412
G1 X154.612 Y174.938 E4.14199
G1 X154.612 Y159.376 E4.72177
G1 X155.124 Y159.376 E4.74087
G1 X155.124 Y162.070 E4.84124
