; generated by Slic3r 1.3.1-dev (Build 18ddd3a36dc69d81fb9b7440498bff9e1dde8b7e) on 2021-07-21 at 18:26:31

; external perimeters extrusion width = 0.49mm (3.88mm^3/s)
; perimeters extrusion width = 0.59mm (9.54mm^3/s)
; infill extrusion width = 0.56mm (11.95mm^3/s)
; solid infill extrusion width = 0.59mm (3.18mm^3/s)
; top infill extrusion width = 0.59mm (2.39mm^3/s)
; support material extrusion width = 0.49mm (7.75mm^3/s)

M107
G92 E0
M190 S45 ; set bed temperature and wait for it to be reached
M104 S226 ; set temperature
G28 ; home all axes
G1 Z5 F5000 ; lift nozzle

; Filament gcode

M109 S226 ; set temperature and wait for it to be reached
G21 ; set units to millimeters
G90 ; use absolute coordinates
M82 ; use absolute distances for extrusion
G92 E0
G1 E-3.00000 F2400.00000
G92 E0
G1 Z0.350 F5400.000
G1 X146.168 Y146.522 F5400.000
G1 E3.00000 F2400.00000
G1 F1800.000
G1 X147.921 Y145.042 E3.20854
G1 X150.073 Y144.250 E3.41708
G1 X151.252 Y144.144 E3.52479
G1 X173.231 Y144.144 E5.52333
G1 X175.490 Y144.541 E5.73187
G1 X178.108 Y146.285 E6.01793
G1 X183.625 Y152.285 E6.75904
G1 X184.861 Y154.216 E6.96758
G1 X185.372 Y156.769 E7.20426
G1 X185.372 Y179.231 E9.24680
G1 X184.975 Y181.490 E9.45534
G1 X183.832 Y183.478 E9.66388
G1 X182.079 Y184.958 E9.87243
G1 X179.927 Y185.750 E10.08097
G1 X178.748 Y185.856 E10.18868
G1 X171.249 Y185.856 E10.87053
G1 X169.966 Y185.731 E10.98775
G1 X153.140 Y182.399 E12.54740
G1 X152.354 Y182.155 E12.62229
G1 X151.961 Y182.001 E12.66060
G1 X151.412 Y181.736 E12.71605
G1 X150.898 Y181.432 E12.77038
G1 X150.373 Y181.065 E12.82865
G1 X150.051 Y180.809 E12.86608
G1 X149.638 Y180.433 E12.91686
G1 X149.187 Y179.941 E12.97747
G1 X148.749 Y179.376 E13.04253
G1 X148.314 Y178.674 E13.11757
G1 X148.005 Y178.046 E13.18122
G1 X147.718 Y177.275 E13.25607
G1 X147.559 Y176.696 E13.31063
G1 X147.458 Y176.171 E13.35927
G1 X144.702 Y157.935 E15.03629
G1 X144.628 Y156.945 E15.12655
G1 X144.628 Y150.769 E15.68818
G1 X145.025 Y148.510 E15.89672
G1 X146.134 Y146.580 E16.09912
G1 F4320.000
G1 X147.921 Y145.042 E14.85514
G1 F4320.000
G1 X150.073 Y144.250 E13.64471
G1 F4320.000
G1 X150.819 Y144.183 E13.24912
G1 E13.09912 F2400.00000
G92 E0
G1 X167.144 Y174.406 F5400.000
G1 E3.00000 F2400.00000
G1 F1800.000
G1 X155.594 Y174.406 E4.05024
G1 X155.594 Y162.856 E5.10048
G1 X157.837 Y165.100 E5.38899
G1 X164.900 Y165.100 E6.03121
G1 X164.900 Y172.163 E6.67343
G1 X167.096 Y174.358 E6.95581
G1 F4320.000
G1 X161.696 Y174.381 E4.10581
G1 E3.95581 F2400.00000
G92 E0
G1 X171.025 Y174.475 F5400.000
G1 E3.00000 F2400.00000
G1 F1800.000
G1 X171.025 Y175.031 E3.05058
G1 X154.969 Y175.031 E4.51056
G1 X154.969 Y158.975 E5.97055
G1 X155.525 Y158.975 E6.02113
G1 X155.525 Y161.904 E6.28745
G1 X158.096 Y164.475 E6.61808
G1 X165.525 Y164.475 E7.29359
G1 X165.525 Y171.904 E7.96909
G1 X168.096 Y174.475 E8.29972
G1 X170.958 Y174.475 E8.55991
G1 F4320.000
G1 X171.025 Y175.031 E8.26419
G1 F4320.000
G1 X166.185 Y175.031 E5.70991
G1 E5.55991 F2400.00000
G92 E0
G1 X170.400 Y160.900 F5400.000
G1 E3.00000 F2400.00000
G1 F450.000
G1 X169.100 Y160.900 E3.11825
G1 X169.100 Y159.600 E3.23650
G1 X170.400 Y159.600 E3.35475
G1 X170.400 Y160.833 E3.46686
G1 X171.025 Y161.525 F5400.000
G1 F450.000
G1 X168.475 Y161.525 E3.69875
G1 X168.475 Y158.975 E3.93064
G1 X171.025 Y158.975 E4.16253
G1 X171.025 Y161.458 E4.38828
G1 X170.850 Y162.150 F5400.000
G1 F900.000
G1 X168.355 Y162.150 E4.61515
G1 X166.150 Y164.355 E4.89870
G1 X166.150 Y171.645 E5.56158
G1 X168.355 Y173.850 E5.84513
G1 X170.850 Y173.850 E6.07199
G1 X170.850 Y171.850 E6.25385
G1 X171.650 Y171.850 E6.32660
G1 X171.650 Y175.656 E6.67268
G1 X155.020 Y175.656 E8.18486
G1 X154.863 Y175.638 E8.19923
G1 X154.720 Y175.591 E8.21291
G1 X154.538 Y175.465 E8.23306
G1 X154.477 Y175.393 E8.24164
G1 X154.386 Y175.227 E8.25884
G1 X154.354 Y175.118 E8.26919
G1 X154.344 Y174.986 E8.28115
G1 X154.344 Y158.350 E9.79390
G1 X158.150 Y158.350 E10.13997
G1 X158.150 Y159.150 E10.21272
G1 X156.150 Y159.150 E10.39458
G1 X156.150 Y161.645 E10.62144
G1 X158.355 Y163.850 E10.90500
G1 X165.645 Y163.850 E11.56787
G1 X167.850 Y161.645 E11.85142
G1 X167.850 Y159.150 E12.07829
G1 X165.850 Y159.150 E12.26015
G1 X165.850 Y158.350 E12.33289
G1 X171.650 Y158.350 E12.86028
G1 X171.650 Y164.150 E13.38767
G1 X170.850 Y164.150 E13.46042
G1 X170.850 Y162.218 E13.63614
G1 X170.793 Y161.704 F5400.000
G1 X171.250 Y161.838 F5400.000
G1 F600.000
G1 X171.250 Y163.838 E13.66524
G1 F4320.000
G1 X171.250 Y161.838 E12.60969
G1 E10.66524 F2400.00000
G92 E0
G1 X168.131 Y161.869 F5400.000
G1 E3.00000 F2400.00000
G1 F600.000
G1 X165.838 Y164.162 E3.01394
G1 F4320.000
G1 X168.131 Y161.869 E1.30225
G1 E0.01394 F2400.00000
G92 E0
G1 X166.162 Y158.750 F5400.000
G1 E3.00000 F2400.00000
G1 F600.000
G1 X168.162 Y158.750 E3.02910
G1 F4320.000
G1 X166.162 Y158.750 E1.97355
G1 E0.02910 F2400.00000
G92 E0
G1 X157.838 Y158.750 F5400.000
G1 E3.00000 F2400.00000
G1 F600.000
G1 X155.838 Y158.750 E3.02910
G1 F4320.000
G1 X157.838 Y158.750 E1.97355
G1 E0.02910 F2400.00000
G92 E0
G1 X155.976 Y164.608 F5400.000
G1 E3.00000 F2400.00000
G1 F600.000
G1 X156.462 Y164.122 E3.06343
G1 X156.910 Y164.570 E3.12194
G1 X155.976 Y165.505 E3.24390
G1 X155.976 Y166.402 E3.32665
G1 X157.359 Y165.019 E3.50712
G1 X157.807 Y165.467 E3.56563
G1 X155.976 Y167.298 E3.80461
G1 X155.976 Y168.195 E3.88737
G1 X158.689 Y165.482 E4.24147
G1 X159.586 Y165.482 E4.32423
G1 X155.976 Y169.092 E4.79536
G1 X155.976 Y169.989 E4.87812
G1 X160.483 Y165.482 E5.46628
G1 X161.380 Y165.482 E5.54904
G1 X155.976 Y170.886 E6.25424
G1 X155.976 Y171.782 E6.33699
G1 X162.276 Y165.482 E7.15922
G1 X163.173 Y165.482 E7.24197
G1 X155.976 Y172.679 E8.18123
G1 X155.976 Y173.576 E8.26398
G1 X164.070 Y165.482 E9.32027
G1 X164.518 Y165.482 E9.36164
G1 X164.518 Y165.930 E9.40302
G1 X156.424 Y174.024 E10.45930
G1 X157.321 Y174.024 E10.54206
G1 X164.518 Y166.827 E11.48131
G1 X164.518 Y167.724 E11.56407
G1 X158.218 Y174.024 E12.38629
G1 X159.114 Y174.024 E12.46904
G1 X164.518 Y168.620 E13.17424
G1 X164.518 Y169.517 E13.25699
G1 X160.011 Y174.024 E13.84516
G1 X160.908 Y174.024 E13.92791
G1 X164.518 Y170.414 E14.39905
G1 X164.518 Y171.311 E14.48180
G1 X161.805 Y174.024 E14.83591
G1 X162.702 Y174.024 E14.91866
G1 X164.533 Y172.193 E15.15764
G1 X164.981 Y172.641 E15.21616
G1 X163.598 Y174.024 E15.39663
G1 X164.495 Y174.024 E15.47938
G1 X165.430 Y173.090 E15.60133
G1 X165.878 Y173.538 E15.65985
G1 X165.392 Y174.024 E15.72328
G1 F4320.000
G1 X165.878 Y173.538 E15.36045
G1 F4320.000
G1 X165.430 Y173.090 E15.02576
G1 F4320.000
G1 X164.495 Y174.024 E14.32824
G1 F4320.000
G1 X163.598 Y174.024 E13.85493
G1 F4320.000
G1 X164.914 Y172.709 E12.87328
G1 E12.72328 F2400.00000
G92 E0
G1 X171.250 Y174.162 F5400.000
G1 E3.00000 F2400.00000
G1 F600.000
G1 X171.250 Y172.162 E3.02910
G1 F4320.000
G1 X171.250 Y174.162 E1.97355
G1 E0.02910 F2400.00000
G92 E0
G1 Z0.350 F5400.000
G1 X171.249 Y179.055 F5400.000
G1 E3.00000 F2400.00000
G1 F1800.000
G1 X171.249 Y179.231 E3.01605
G1 X172.499 Y179.231 E3.12969
G1 X172.499 Y179.055 E3.14573
G1 X173.055 Y179.055 E3.19632
G1 X173.055 Y172.769 E3.76793
G1 X173.748 Y172.769 E3.83099
G1 X173.748 Y179.231 E4.41865
G1 X174.998 Y179.231 E4.53229
G1 X174.998 Y172.769 E5.11995
G1 X176.248 Y172.769 E5.23360
G1 X176.248 Y179.231 E5.82126
G1 X177.498 Y179.231 E5.93490
G1 X177.498 Y172.769 E6.52256
G1 X178.748 Y172.769 E6.63620
G1 X178.748 Y179.231 E7.22386
G1 F4320.000
G1 X178.748 Y173.831 E4.37386
G1 E4.22386 F2400.00000
G92 E0
G1 X178.748 Y163.231 F5400.000
G1 E3.00000 F2400.00000
G1 F1800.000
G1 X178.748 Y156.769 E3.58766
G1 X177.498 Y156.769 E3.70130
G1 X177.498 Y163.231 E4.28896
G1 X176.248 Y163.231 E4.40261
G1 X176.248 Y156.769 E4.99027
G1 X174.998 Y156.769 E5.10391
G1 X174.998 Y163.231 E5.69157
G1 X173.748 Y163.231 E5.80521
G1 X173.748 Y156.769 E6.39287
G1 X173.231 Y156.769 E6.43989
G1 X173.231 Y150.769 E6.98547
G1 X172.499 Y150.769 E7.05209
G1 X172.499 Y156.945 E7.61372
G1 X171.249 Y156.945 E7.72736
G1 X171.249 Y150.769 E8.28898
G1 X169.999 Y150.769 E8.40262
G1 X169.999 Y156.945 E8.96425
G1 X168.749 Y156.945 E9.07789
G1 X168.749 Y150.769 E9.63951
G1 X167.500 Y150.769 E9.75315
G1 X167.500 Y156.945 E10.31478
G1 X166.769 Y156.945 E10.38124
G1 X166.769 Y150.769 E10.94287
G1 X167.500 Y150.769 E11.00933
G1 F4320.000
G1 X166.769 Y150.769 E10.62354
G1 F4320.000
G1 X166.769 Y155.438 E8.15933
G1 E8.00933 F2400.00000
G92 E0
G1 X156.252 Y156.945 F5400.000
G1 E3.00000 F2400.00000
G1 F1800.000
G1 X156.252 Y150.769 E3.56162
G1 X155.002 Y150.769 E3.67527
G1 X155.002 Y156.945 E4.23689
G1 X153.752 Y156.945 E4.35053
G1 X153.752 Y150.769 E4.91215
G1 X152.502 Y150.769 E5.02580
G1 X152.502 Y156.945 E5.58742
G1 X151.252 Y156.945 E5.70106
G1 X151.252 Y150.769 E6.26268
M104 S218 ; set temperature
M140 S36 ; set bed temperature
G1 F4320.000
G1 X151.252 Y156.169 E3.41268
G1 E3.26268 F2400.00000
G92 E0
G1 Z0.500 F5400.000
G1 X165.124 Y164.876 F5400.000
G1 E3.00000 F2400.00000
G1 F3600.000
G1 X165.124 Y172.070 E3.26831
G1 X168.217 Y175.162 E3.43143
G1 X155.048 Y175.161 E3.92258
G1 X154.857 Y175.128 E3.92980
G1 X154.837 Y174.931 E3.93721
G1 X154.837 Y161.782 E4.42757
G1 X157.930 Y164.876 E4.59071
G1 X165.057 Y164.876 E4.85650
G1 X165.722 Y164.278 F5400.000
G1 F3600.000
G1 X165.722 Y171.822 E5.13787
G1 X168.178 Y174.278 E5.26739
G1 X171.222 Y174.278 E5.38093
G1 X171.222 Y175.761 E5.43623
G1 X154.997 Y175.759 E6.04137
G1 X154.679 Y175.688 E6.05351
G1 X154.499 Y175.564 E6.06164
G1 X154.370 Y175.423 E6.06879
G1 X154.291 Y175.270 E6.07519
G1 X154.239 Y174.961 E6.08689
G1 X154.239 Y158.778 E6.69044
G1 X155.722 Y158.778 E6.74575
G1 X155.722 Y161.822 E6.85929
G1 X158.178 Y164.278 E6.98881
G1 X165.655 Y164.278 E7.26766
G1 X168.876 Y161.124 F5400.000
G1 F900.000
G1 X168.876 Y159.376 E7.33288
G1 X170.624 Y159.376 E7.39811
G1 X170.624 Y161.124 E7.46333
G1 X168.943 Y161.124 E7.52603
G1 X168.278 Y161.722 F5400.000
G1 F900.000
G1 X168.278 Y158.778 E7.63585
G1 X171.222 Y158.778 E7.74566
G1 X171.222 Y161.722 E7.85547
G1 X168.345 Y161.722 E7.96277
G1 X170.747 Y162.253 F5400.000
G1 F1800.000
G1 X168.397 Y162.253 E8.03062
G1 X166.253 Y164.397 E8.11820
G1 X166.253 Y171.603 E8.32623
G1 X168.397 Y173.747 E8.41382
G1 X170.747 Y173.747 E8.48167
G1 X170.747 Y171.747 E8.53942
G1 X171.753 Y171.747 E8.56843
G1 X171.753 Y176.231 E8.69789

G1 F3600.000
G1 X171.753 Y176.291 E8.70185
G1 X154.951 Y176.289 E9.81279
G1 X154.631 Y176.234 E9.83426
G1 X154.463 Y176.174 E9.84608
G1 X154.145 Y175.962 E9.87135
G1 X153.945 Y175.743 E9.89097
G1 X153.859 Y175.603 E9.90185
G1 X153.789 Y175.446 E9.91318
G1 X153.734 Y175.238 E9.92743
G1 X153.709 Y174.988 E9.94406
G1 X153.709 Y158.247 E11.05095
G1 X153.769 Y158.247 E11.05491

G1 F1800.000
G1 X158.253 Y158.247 E11.18436
G1 X158.253 Y159.253 E11.21338
G1 X156.253 Y159.253 E11.27113
G1 X156.253 Y161.603 E11.33898
G1 X158.397 Y163.747 E11.42657
G1 X165.603 Y163.747 E11.63460
G1 X167.747 Y161.603 E11.72218
G1 X167.747 Y159.253 E11.79003
G1 X165.747 Y159.253 E11.84778
G1 X165.747 Y158.247 E11.87680
G1 X171.753 Y158.247 E12.05018
G1 X171.753 Y164.253 E12.22356
G1 X170.747 Y164.253 E12.25258
G1 X170.747 Y162.320 E12.30837
G1 X170.678 Y161.808 F5400.000
G1 X171.250 Y161.987 F5400.000
G1 F1200.000
G1 X171.250 Y163.987 E12.36359
G1 X169.706 Y160.667 F5400.000
G1 F1200.000
G1 X169.706 Y160.759 E12.36770
G1 X169.798 Y160.759 E12.37181
G1 X169.241 Y160.202 E12.40706
G1 X169.241 Y159.741 E12.42771
G1 X169.794 Y159.741 E12.45246
G1 X170.259 Y160.206 E12.48190
G1 X168.013 Y158.750 F5400.000
G1 F1200.000
G1 X166.013 Y158.750 E12.53711
G1 F4320.000
G1 X168.013 Y158.750 E11.48156
G1 E9.53711 F2400.00000
G92 E0
G1 X167.875 Y162.125 F5400.000
G1 E3.00000 F2400.00000
G1 F1200.000
G1 X166.125 Y163.875 E3.05509
G1 F1200.000
G1 X165.987 Y164.013 E3.06022
G1 X164.759 Y165.706 F5400.000
G1 F1200.000
G1 X164.294 Y165.241 E3.08535
G1 X163.428 Y165.241 E3.11841
G1 X164.759 Y166.572 E3.19030
G1 X164.759 Y167.438 E3.22337
G1 X162.562 Y165.241 E3.34202
G1 X161.697 Y165.241 E3.37509
G1 X164.759 Y168.303 E3.54051
G1 X164.759 Y169.169 E3.57357
G1 X160.831 Y165.241 E3.78576
G1 X159.965 Y165.241 E3.81882
G1 X164.759 Y170.035 E4.07777
G1 X164.759 Y170.901 E4.11084
G1 X159.099 Y165.241 E4.41655
G1 X158.234 Y165.241 E4.44962
G1 X164.759 Y171.766 E4.80209
G1 X164.759 Y172.550 E4.83201
G1 X167.006 Y174.797 E4.95339
G1 X166.924 Y174.797 E4.95654
G1 X155.202 Y163.076 E5.58967
G1 X155.202 Y163.941 E5.62274
G1 X166.058 Y174.797 E6.20910
G1 X165.192 Y174.797 E6.24217
G1 X155.202 Y164.807 E6.78176
G1 X155.202 Y165.673 E6.81483
G1 X164.326 Y174.797 E7.30765
G1 X163.460 Y174.797 E7.34072
G1 X155.202 Y166.539 E7.78677
G1 X155.202 Y167.404 E7.81984
G1 X162.595 Y174.797 E8.21912
G1 X161.729 Y174.796 E8.25219
G1 X155.202 Y168.270 E8.60470
G1 X155.202 Y169.136 E8.63777
G1 X160.863 Y174.796 E8.94351
G1 X159.997 Y174.796 E8.97658
G1 X155.202 Y170.002 E9.23555
G1 X155.202 Y170.868 E9.26862
G1 X159.131 Y174.796 E9.48082
G1 X158.265 Y174.796 E9.51389
G1 X155.202 Y171.733 E9.67933
G1 X155.202 Y172.599 E9.71239
G1 X157.399 Y174.796 E9.83106
G1 X156.533 Y174.796 E9.86413
G1 X155.202 Y173.465 E9.93602
G1 X155.202 Y174.331 E9.96909
G1 X155.667 Y174.796 E9.99420
G1 X168.496 Y175.019 F5400.000
G1 F1200.000
G1 X170.923 Y175.019 E10.12332
G1 X171.250 Y174.013 F5400.000
G1 F1200.000
G1 X171.250 Y172.013 E10.17853
G1 F4320.000
G1 X171.250 Y174.013 E9.12298
G1 E7.17853 F2400.00000
G92 E0
G1 X157.987 Y158.750 F5400.000
G1 E3.00000 F2400.00000
G1 F1200.000
G1 X155.987 Y158.750 E3.05521
G1 X154.981 Y159.077 F5400.000
G1 F1200.000
G1 X154.981 Y161.503 E3.18434
G1 F4320.000
G1 X154.981 Y159.077 E1.90357
G1 E0.18434 F2400.00000
G92 E0
G1 Z0.531 F5400.000
G1 X157.544 Y157.258 F5400.000
G1 E3.00000 F2400.00000
G1 F3600.000
G1 X157.544 Y150.456 E3.23312
G1 X150.456 Y150.456 E3.47606
G1 X150.456 Y159.252 E3.77756
G1 X151.258 Y159.252 E3.80502
G1 X151.258 Y157.258 E3.87340
G1 X157.544 Y157.258 E4.08887
G1 X156.872 Y153.278 F5400.000
G1 F3600.000
G1 X151.128 Y153.278 E4.28577
G1 X151.128 Y156.208 E4.38622
G1 X156.872 Y156.208 E4.58312
G1 X156.872 Y156.586 E4.59607
G1 X151.128 Y156.586 E4.79297
G1 X151.128 Y156.208 E4.80592
G1 F4320.000
G1 X151.128 Y156.586 E4.60652
G1 F4320.000
G1 X156.150 Y156.586 E1.95592
G1 E1.80592 F2400.00000
G92 E0
G1 X167.128 Y156.208 F5400.000
G1 E3.00000 F2400.00000
G1 F3600.000
G1 X167.128 Y156.586 E3.01295
G1 X172.872 Y156.586 E3.20985
G1 X172.872 Y156.208 E3.22280
G1 X167.128 Y156.208 E3.41970
G1 X167.128 Y153.278 E3.52015
G1 X172.872 Y153.278 E3.71705
G1 X173.544 Y156.456 F5400.000
G1 F3600.000
G1 X173.544 Y150.456 E3.92271
G1 X166.456 Y150.456 E4.16564
G1 X166.456 Y157.258 E4.39876
G1 X172.742 Y157.258 E4.61423
G1 X172.742 Y163.544 E4.82970
G1 X179.544 Y163.544 E5.06282
G1 X179.544 Y156.456 E5.30576
G1 X173.544 Y156.456 E5.51141
G1 X173.414 Y162.069 F5400.000
G1 F3600.000
G1 X173.414 Y162.872 E5.53893
G1 X178.872 Y162.872 E5.72602
G1 X178.872 Y162.069 E5.75354
G1 X173.414 Y162.069 E5.94063
G1 X173.414 Y159.139 E6.04107
G1 X178.872 Y159.139 E6.22816
G1 F4320.000
G1 X173.472 Y159.139 E3.37816
G1 E3.22816 F2400.00000
G92 E0
G1 X178.872 Y173.792 F5400.000
G1 E3.00000 F2400.00000
G1 F3600.000
G1 X173.414 Y173.792 E3.18709
G1 X173.414 Y176.722 E3.28754
G1 X178.872 Y176.722 E3.47462
G1 X178.872 Y178.872 E3.54831
G1 X173.414 Y178.872 E3.73540
G1 X173.414 Y176.722 E3.80908
G1 X179.544 Y179.544 F5400.000
G1 F3600.000
G1 X179.544 Y172.456 E4.05202
G1 X172.742 Y172.456 E4.28514
G1 X172.742 Y178.742 E4.50061
G1 X170.747 Y178.742 E4.56899
G1 X170.747 Y179.544 E4.59646
G1 X179.544 Y179.544 E4.89796
G1 F4320.000
G1 X174.144 Y179.544 E2.04796
G1 E1.89796 F2400.00000
G92 E0
G1 Z0.650 F5400.000
G1 X165.124 Y164.876 F5400.000
G1 E3.00000 F2400.00000
G1 F3600.000
G1 X165.124 Y172.070 E3.26805
G1 X167.930 Y174.876 E3.41589
G1 X170.624 Y174.876 E3.51627
G1 X170.624 Y175.388 E3.53537
G1 X155.061 Y175.388 E4.11524
G1 X154.900 Y175.367 E4.12130
G1 X154.800 Y175.327 E4.12529
G1 X154.725 Y175.271 E4.12879
G1 X154.634 Y175.112 E4.13561
G1 X154.612 Y174.952 E4.14164
G1 X154.612 Y159.376 E4.72199
