; generated by Slic3r 1.3.1-dev (Build 18ddd3a36dc69d81fb9b7440498bff9e1dde8b7e) on 2021-07-20 at 16:07:11

; external perimeters extrusion width = 0.49mm (3.88mm^3/s)
; perimeters extrusion width = 0.59mm (9.54mm^3/s)
; infill extrusion width = 0.56mm (11.95mm^3/s)
; solid infill extrusion width = 0.59mm (3.18mm^3/s)
; top infill extrusion width = 0.59mm (2.39mm^3/s)
; support material extrusion width = 0.49mm (7.75mm^3/s)

M107
G92 E0
M190 S45 ; set bed temperature and wait for it to be reached
M104 S226 ; set temperature
G28 ; home all axes
G1 Z5 F5000 ; lift nozzle

; Filament gcode

M109 S226 ; set temperature and wait for it to be reached
G21 ; set units to millimeters
G90 ; use absolute coordinates
M82 ; use absolute distances for extrusion
G92 E0
G1 E-3.00000 F2400.00000
G92 E0
G1 Z0.350 F5400.000
G1 X150.472 Y117.428 F5400.000
G1 E3.00000 F2400.00000
G1 F1800.000
G1 X152.391 Y116.173 E3.20854
G1 X154.972 Y115.638 E3.44818
G1 X161.251 Y115.609 E4.01912
G1 X169.216 Y115.609 E4.74338
G1 X175.031 Y115.638 E5.27212
G1 X177.287 Y116.046 E5.48067
G1 X179.270 Y117.199 E5.68921
G1 X180.905 Y119.263 E5.92863
G1 X189.916 Y137.006 E7.73821
G1 X190.253 Y137.736 E7.81126
G1 X190.677 Y138.815 E7.91668
G1 X191.068 Y140.083 E8.03731
G1 X191.261 Y140.890 E8.11280
G1 X191.462 Y142.031 E8.21812
G1 X197.825 Y196.140 E13.17218
G1 X197.870 Y196.913 E13.24261
G1 X197.870 Y204.115 E13.89744
G1 X197.473 Y206.374 E14.10599
G1 X196.507 Y208.140 E14.28907
G1 X195.257 Y209.774 E14.47610
G1 X194.201 Y210.867 E14.61431
G1 X192.952 Y211.894 E14.76139
G1 X190.954 Y213.022 E14.96993
G1 X188.855 Y213.400 E15.16390
G1 X142.297 Y214.167 E19.39797
G1 X140.032 Y213.807 E19.60652
G1 X137.982 Y212.661 E19.82005
G1 X135.687 Y210.776 E20.09013
G1 X134.774 Y209.863 E20.20749
G1 X133.875 Y208.769 E20.33629
G1 X133.149 Y207.683 E20.45505
G1 X132.910 Y207.235 E20.50119
G1 X132.130 Y204.115 E20.79365
G1 X132.130 Y196.913 E21.44848
G1 X132.175 Y196.140 E21.51891
G1 X138.470 Y142.576 E26.42300
G1 X138.538 Y142.031 E26.47296
G1 X138.674 Y141.213 E26.54835
G1 X138.932 Y140.082 E26.65379
G1 X139.164 Y139.288 E26.72910
G1 X139.618 Y138.041 E26.84971
G1 X140.084 Y137.006 E26.95288
G1 X149.095 Y119.263 E28.76246
G1 X150.431 Y117.482 E28.96487
G1 F4320.000
G1 X152.391 Y116.173 E27.72089
G1 F4320.000
G1 X154.972 Y115.638 E26.32997
G1 F4320.000
G1 X155.379 Y115.636 E26.11487
G1 E25.96487 F2400.00000
G92 E0
G1 X178.826 Y197.258 F5400.000
G1 E3.00000 F2400.00000
G1 F900.000
G1 X178.742 Y197.471 E3.02083
G1 X178.472 Y197.987 E3.07380
G1 X178.253 Y198.309 E3.10917
G1 X178.012 Y198.600 E3.14353
G1 X177.748 Y198.860 E3.17726
G1 X177.462 Y199.086 E3.21037
G1 X177.159 Y199.276 E3.24294
G1 X176.835 Y199.430 E3.27552
G1 X176.340 Y199.577 E3.32249
G1 X175.842 Y199.625 E3.36794
G1 X153.997 Y199.620 E5.35435
G1 X153.497 Y199.539 E5.40043
G1 X153.155 Y199.426 E5.43313
G1 X152.687 Y199.187 E5.48091
G1 X152.256 Y198.863 E5.52994
G1 X151.985 Y198.597 E5.56449
G1 X151.635 Y198.153 E5.61586
G1 X151.343 Y197.651 E5.66874
G1 X151.178 Y197.280 E5.70564
G1 X150.993 Y196.708 E5.76025
G1 X150.904 Y196.300 E5.79823
G1 X150.833 Y195.690 E5.85407
G1 X150.825 Y195.271 E5.89218
G1 X150.850 Y194.853 E5.93025
G1 X150.944 Y194.244 E5.98626
G1 X151.108 Y193.659 E6.04151
G1 X151.254 Y193.290 E6.07763
G1 X162.166 Y168.728 E8.52152
G1 X162.358 Y168.381 E8.55754
G1 X162.687 Y167.920 E8.60905
G1 X162.946 Y167.638 E8.64390
G1 X163.359 Y167.291 E8.69292
G1 X163.666 Y167.099 E8.72591
G1 X163.990 Y166.945 E8.75849
G1 X164.480 Y166.800 E8.80494
G1 X164.828 Y166.755 E8.83683
G1 X165.178 Y166.755 E8.86866
G1 X165.683 Y166.837 E8.91524
G1 X166.176 Y167.017 E8.96292
G1 X166.637 Y167.288 E9.01155
G1 X167.054 Y167.638 E9.06103
G1 X167.313 Y167.920 E9.09588
G1 X167.642 Y168.381 E9.14739
G1 X167.834 Y168.728 E9.18341
G1 X178.821 Y193.467 E11.64479
G1 X178.953 Y193.849 E11.68153
G1 X179.056 Y194.248 E11.71901
G1 X179.150 Y194.853 E11.77469
G1 X179.175 Y195.271 E11.81277
G1 X179.167 Y195.690 E11.85087
G1 X179.096 Y196.300 E11.90672
G1 X179.008 Y196.705 E11.94437
G1 X178.851 Y197.195 E11.99118
G1 X178.972 Y197.434 F5400.000
G1 F4320.000
G1 X178.742 Y197.471 E11.83465
G1 F4320.000
G1 X178.472 Y197.987 E11.52721
G1 F4320.000
G1 X178.253 Y198.309 E11.32192
G1 F4320.000
G1 X178.012 Y198.600 E11.12246
G1 F4320.000
G1 X177.748 Y198.860 E10.92670
G1 F4320.000
G1 X177.462 Y199.086 E10.73450
G1 F4320.000
G1 X177.159 Y199.276 E10.54549
G1 F4320.000
G1 X176.835 Y199.430 E10.35636
G1 F4320.000
G1 X176.340 Y199.577 E10.08373
G1 F4320.000
G1 X175.842 Y199.625 E9.81993
G1 F4320.000
G1 X174.556 Y199.625 E9.14118
G1 E8.99118 F2400.00000
G92 E0
G1 X181.181 Y193.936 F5400.000
G1 E3.00000 F2400.00000
G1 F1800.000
G1 X180.665 Y194.830 E3.09391
G1 X180.404 Y194.782 E3.11804
G1 X180.282 Y193.995 E3.19044
G1 X180.150 Y193.487 E3.23814
G1 X179.984 Y193.008 E3.28426
G1 X168.954 Y168.171 E5.75535
G1 X168.701 Y167.714 E5.80286
G1 X168.286 Y167.132 E5.86786
G1 X167.920 Y166.733 E5.91707
G1 X167.004 Y165.964 E6.02581
G1 X168.819 Y165.964 E6.19080
G1 X172.637 Y159.350 E6.88525
G1 X169.954 Y154.702 E7.37327
G1 X173.400 Y154.702 E7.68665
G1 X173.400 Y157.442 E7.93580
G1 X173.469 Y157.404 E7.94292
G1 X173.616 Y159.461 E8.13048
G1 X173.846 Y161.514 E8.31831
G1 X174.158 Y163.556 E8.50614
G1 X174.552 Y165.584 E8.69397
G1 X175.026 Y167.595 E8.88180
G1 X175.581 Y169.584 E9.06963
G1 X176.212 Y171.543 E9.25674
G1 X176.564 Y172.531 E9.35211
G1 X177.309 Y174.441 E9.53849
G1 X177.719 Y175.406 E9.63386
G1 X178.573 Y177.260 E9.81951
G1 X186.668 Y193.936 E11.50505
G1 X181.249 Y193.936 E11.99785
G1 F4320.000
G1 X180.665 Y194.830 E11.43413
G1 F4320.000
G1 X180.404 Y194.782 E11.29407
G1 F4320.000
G1 X180.282 Y193.995 E10.87385
G1 F4320.000
G1 X180.150 Y193.487 E10.59695
G1 F4320.000
G1 X179.984 Y193.008 E10.32931
G1 F4320.000
G1 X179.076 Y190.962 E9.14785
G1 E8.99785 F2400.00000
G92 E0
G1 X148.819 Y193.936 F5400.000
G1 E3.00000 F2400.00000
G1 F1800.000
G1 X143.331 Y193.936 E3.49894
G1 X151.427 Y177.260 E5.18448
G1 X152.281 Y175.406 E5.37013
G1 X152.691 Y174.441 E5.46550
G1 X153.436 Y172.531 E5.65188
G1 X153.788 Y171.543 E5.74725
G1 X154.419 Y169.584 E5.93436
G1 X154.974 Y167.595 E6.12219
G1 X155.448 Y165.584 E6.31002
G1 X155.842 Y163.556 E6.49785
G1 X156.154 Y161.514 E6.68568
G1 X156.384 Y159.461 E6.87352
G1 X156.531 Y157.404 E7.06108
G1 X156.600 Y157.442 E7.06820
G1 X156.600 Y154.702 E7.31734
G1 X160.046 Y154.702 E7.63072
G1 X157.363 Y159.350 E8.11874
G1 X161.181 Y165.964 E8.81319
G1 X162.996 Y165.964 E8.97818
G1 X162.080 Y166.733 E9.08692
G1 X161.714 Y167.132 E9.13613
G1 X161.299 Y167.714 E9.20112
G1 X161.046 Y168.171 E9.24862
G1 X150.101 Y192.807 E11.69987
G1 X149.922 Y193.261 E11.74424
G1 X149.721 Y193.979 E11.81208
G1 X149.596 Y194.782 E11.88594
G1 X149.335 Y194.830 E11.91007
G1 X148.852 Y193.994 E11.99784
G1 X148.458 Y194.561 F5400.000
G1 F1800.000
G1 X142.334 Y194.561 E12.55472
G1 X150.862 Y176.993 E14.33044
G1 X151.710 Y175.153 E14.51466
G1 X152.113 Y174.205 E14.60833
G1 X152.851 Y172.313 E14.79300
G1 X153.196 Y171.342 E14.88667
G1 X153.820 Y169.405 E15.07178
G1 X154.368 Y167.439 E15.25734
G1 X154.837 Y165.453 E15.44290
G1 X155.226 Y163.449 E15.62845
G1 X155.534 Y161.432 E15.81401
G1 X155.761 Y159.404 E15.99956
G1 X155.907 Y157.374 E16.18468
G1 X155.949 Y156.367 E16.27628
G1 X155.975 Y156.382 E16.27899
G1 X155.975 Y154.077 E16.48853
G1 X161.129 Y154.077 E16.95716
G1 X158.084 Y159.350 E17.51078
G1 X161.542 Y165.339 E18.13963
G1 X168.458 Y165.339 E18.76847
G1 X171.916 Y159.350 E19.39731
G1 X168.871 Y154.077 E19.95094
G1 X174.025 Y154.077 E20.41956
G1 X174.025 Y156.382 E20.62911
G1 X174.051 Y156.367 E20.63182
G1 X174.093 Y157.374 E20.72342
G1 X174.239 Y159.404 E20.90853
G1 X174.466 Y161.432 E21.09409
G1 X174.774 Y163.449 E21.27964
G1 X175.163 Y165.453 E21.46520
G1 X175.632 Y167.439 E21.65076
G1 X176.180 Y169.405 E21.83631
G1 X176.804 Y171.342 E22.02142
G1 X177.149 Y172.313 E22.11509
G1 X177.887 Y174.205 E22.29976
G1 X178.290 Y175.153 E22.39343
G1 X179.138 Y176.993 E22.57766
G1 X187.666 Y194.561 E24.35337
G1 X181.542 Y194.561 E24.91025
G1 X179.625 Y197.881 E25.25882
G1 X179.312 Y197.729 E25.29047
G1 X179.481 Y197.299 E25.33250
G1 X179.614 Y196.862 E25.37408
G1 X179.713 Y196.402 E25.41679
G1 X179.791 Y195.732 E25.47815
G1 X179.800 Y195.259 E25.52118
G1 X179.773 Y194.787 E25.56419
G1 X179.669 Y194.121 E25.62543
G1 X179.552 Y193.668 E25.66802
G1 X179.402 Y193.237 E25.70944
G1 X168.394 Y168.450 E28.17568
G1 X168.172 Y168.048 E28.21745
G1 X167.799 Y167.526 E28.27570
G1 X167.487 Y167.185 E28.31773
G1 X166.999 Y166.776 E28.37570
G1 X166.443 Y166.450 E28.43424
G1 X165.842 Y166.230 E28.49243
G1 X165.228 Y166.130 E28.54899
G1 X164.787 Y166.130 E28.58911
G1 X164.350 Y166.187 E28.62921
G1 X163.766 Y166.360 E28.68455
G1 X163.366 Y166.550 E28.72484
G1 X162.990 Y166.785 E28.76513
G1 X162.513 Y167.185 E28.82182
G1 X162.201 Y167.526 E28.86385
G1 X161.828 Y168.048 E28.92210
G1 X161.606 Y168.450 E28.96386
G1 X150.677 Y193.048 E31.41143
G1 X150.515 Y193.460 E31.45168
G1 X150.332 Y194.112 E31.51322
G1 X150.227 Y194.787 E31.57535
G1 X150.200 Y195.259 E31.61836
G1 X150.209 Y195.732 E31.66138
G1 X150.287 Y196.402 E31.72274
G1 X150.388 Y196.871 E31.76636
G1 X150.593 Y197.503 E31.82678
G1 X150.682 Y197.703 E31.84669
G1 X150.365 Y197.865 E31.87902
G1 X148.492 Y194.619 E32.21978
G1 F4320.000
G1 X143.092 Y194.568 E29.36978
G1 E29.21978 F2400.00000
G92 E0
G1 X161.903 Y164.714 F5400.000
G1 E3.00000 F2400.00000
G1 F450.000
G1 X158.806 Y159.350 E3.56323
G1 X161.903 Y153.986 E4.12646
G1 X168.097 Y153.986 E4.68969
G1 X171.194 Y159.350 E5.25292
G1 X168.097 Y164.714 E5.81615
G1 X161.970 Y164.714 E6.37325
G1 X161.513 Y164.939 F5400.000
G1 F4320.000
G1 X159.227 Y160.063 E3.52325
G1 E3.37325 F2400.00000
G92 E0
G1 X161.903 Y153.452 F5400.000
G1 E3.00000 F2400.00000
G1 F900.000
G1 X154.769 Y153.452 E3.64870
G1 X153.868 Y153.385 E3.73080
G1 X152.975 Y153.227 E3.81330
G1 X152.102 Y152.982 E3.89580
G1 X151.257 Y152.650 E3.97829
G1 X150.450 Y152.236 E4.06078
G1 X149.688 Y151.744 E4.14328
G1 X148.982 Y151.181 E4.22538
G1 X148.643 Y150.866 E4.26743
G1 X148.032 Y150.208 E4.34913
G1 X147.743 Y149.846 E4.39118
G1 X147.235 Y149.101 E4.47326
G1 X146.810 Y148.323 E4.55381
G1 X146.613 Y147.886 E4.59743
G1 X146.304 Y147.037 E4.67953
G1 X146.081 Y146.162 E4.76163
G1 X146.001 Y145.707 E4.80368
G1 X145.911 Y144.813 E4.88539
G1 X145.900 Y144.341 E4.92835
G1 X145.945 Y143.439 E5.01044
G1 X146.080 Y142.542 E5.09294
G1 X146.303 Y141.667 E5.17503
G1 X146.450 Y141.228 E5.21709
G1 X146.801 Y140.396 E5.29918
G1 X147.233 Y139.604 E5.38128
G1 X147.483 Y139.215 E5.42333
G1 X148.029 Y138.495 E5.50543
G1 X148.643 Y137.834 E5.58753
G1 X148.982 Y137.519 E5.62958
G1 X149.684 Y136.959 E5.71128
G1 X150.066 Y136.698 E5.75333
G1 X150.848 Y136.247 E5.83544
G1 X151.671 Y135.875 E5.91753
G1 X152.106 Y135.717 E5.95958
G1 X152.975 Y135.473 E6.04168
G1 X153.868 Y135.315 E6.12418
G1 X154.769 Y135.248 E6.20628
G1 X175.231 Y135.248 E8.06691
G1 X176.132 Y135.315 E8.14901
G1 X177.025 Y135.473 E8.23151
G1 X177.898 Y135.718 E8.31401
G1 X178.743 Y136.050 E8.39650
G1 X179.550 Y136.464 E8.47899
G1 X180.312 Y136.956 E8.56149
G1 X181.022 Y137.522 E8.64399
G1 X181.671 Y138.155 E8.72648
G1 X182.254 Y138.850 E8.80897
G1 X182.765 Y139.600 E8.89147
G1 X183.199 Y140.396 E8.97396
G1 X183.552 Y141.232 E9.05646
G1 X183.819 Y142.099 E9.13895
G1 X183.999 Y142.989 E9.22145
G1 X184.089 Y143.887 E9.30355
G1 X184.100 Y144.359 E9.34651
G1 X184.055 Y145.261 E9.42860
G1 X183.920 Y146.158 E9.51110
G1 X183.696 Y147.037 E9.59359
G1 X183.387 Y147.886 E9.67569
G1 X183.197 Y148.307 E9.71774
G1 X182.767 Y149.096 E9.79944
G1 X182.517 Y149.485 E9.84150
G1 X181.971 Y150.205 E9.92359
G1 X181.357 Y150.866 E10.00569
G1 X181.018 Y151.181 E10.04774
G1 X180.312 Y151.744 E10.12984
G1 X179.550 Y152.236 E10.21234
G1 X178.747 Y152.648 E10.29443
G1 X178.325 Y152.826 E10.33609
G1 X177.894 Y152.983 E10.37774
G1 X177.025 Y153.227 E10.45984
G1 X176.132 Y153.385 E10.54234
G1 X175.231 Y153.452 E10.62444
G1 X161.970 Y153.452 E11.83024
G1 X161.679 Y153.842 F5400.000
G1 F4320.000
G1 X156.570 Y153.452 E8.98024
G1 E8.83024 F2400.00000
G92 E0
G1 X156.521 Y133.998 F5400.000
G1 E3.00000 F2400.00000
G1 F450.000
G1 X156.579 Y133.772 E3.02124
G1 X156.600 Y133.446 E3.05090
G1 X156.608 Y131.050 E3.26878
G1 X173.402 Y131.060 E4.79588
G1 X173.409 Y133.724 E5.03819
G1 X173.479 Y133.998 E5.06388
G1 X156.588 Y133.998 E6.59980
G1 X155.557 Y134.623 F5400.000
G1 F1800.000
G1 X155.839 Y134.138 E6.65078
G1 X155.959 Y133.673 E6.69447
G1 X155.975 Y133.426 E6.71702
G1 X155.985 Y130.425 E6.98987
G1 X174.025 Y130.435 E8.63027
G1 X174.033 Y133.644 E8.92208
G1 X174.161 Y134.138 E8.96848
G1 X174.443 Y134.623 E9.01946
G1 X155.625 Y134.623 E10.73061
G1 F4320.000
G1 X155.839 Y134.138 E10.45095
G1 F4320.000
G1 X155.959 Y133.673 E10.19732
G1 F4320.000
G1 X155.975 Y133.426 E10.06649
G1 F4320.000
G1 X155.985 Y130.425 E8.48278
G1 F4320.000
G1 X157.126 Y130.426 E7.88061
G1 E7.73061 F2400.00000
G92 E0
G1 X152.627 Y200.567 F5400.000
G1 E3.00000 F2400.00000
G1 F1800.000
G1 X153.198 Y200.756 E3.05465
G1 X153.895 Y200.870 E3.11893
G1 X175.903 Y200.875 E5.12005
G1 X176.580 Y200.809 E5.18194
G1 X177.376 Y200.573 E5.25740
G1 X179.903 Y204.950 E5.71701
G1 X150.097 Y204.950 E8.42730
G1 X152.593 Y200.626 E8.88135
G1 X151.916 Y200.550 F5400.000
G1 F1800.000
G1 X150.902 Y198.794 E9.06571
G1 X151.191 Y198.598 E9.09742
G1 X151.519 Y199.014 E9.14559
G1 X151.847 Y199.338 E9.18751
G1 X152.355 Y199.719 E9.24525
G1 X152.914 Y200.004 E9.30226
G1 X153.347 Y200.147 E9.34379
G1 X153.946 Y200.245 E9.39897
G1 X175.873 Y200.250 E11.39274
G1 X176.460 Y200.193 E11.44640
G1 X177.059 Y200.015 E11.50320
G1 X177.459 Y199.825 E11.54349
G1 X177.824 Y199.597 E11.58258
G1 X178.162 Y199.328 E11.62190
G1 X178.473 Y199.023 E11.66153
G1 X178.792 Y198.638 E11.70697
G1 X179.075 Y198.835 E11.73831
G1 X178.084 Y200.550 E11.91842
G1 X180.986 Y205.575 E12.44604
G1 X149.014 Y205.575 E15.35315
G1 X151.882 Y200.608 E15.87464
G1 X151.194 Y200.550 F5400.000
G1 F900.000
G1 X148.097 Y195.186 E16.43787
G1 X141.336 Y195.186 E17.05269
G1 X150.297 Y176.726 E18.91858
G1 X151.138 Y174.900 E19.10138
G1 X151.534 Y173.969 E19.19334
G1 X152.265 Y172.094 E19.37631
G1 X152.604 Y171.142 E19.46827
G1 X153.222 Y169.225 E19.65139
G1 X153.763 Y167.283 E19.83467
G1 X154.226 Y165.321 E20.01795
G1 X154.610 Y163.343 E20.20124
G1 X154.914 Y161.350 E20.38452
G1 X155.139 Y159.347 E20.56780
G1 X155.283 Y157.338 E20.75092
G1 X155.325 Y156.328 E20.84286
G1 X155.338 Y155.315 E20.93503
G1 X155.350 Y155.321 E20.93627
G1 X155.350 Y154.012 E21.05532
G1 X154.208 Y153.979 E21.15917
G1 X153.325 Y153.858 E21.24022
G1 X152.382 Y153.643 E21.32817
G1 X151.931 Y153.504 E21.37113
G1 X151.031 Y153.151 E21.45900
G1 X150.171 Y152.710 E21.54687
G1 X149.768 Y152.463 E21.58983
G1 X148.984 Y151.899 E21.67769
G1 X148.259 Y151.260 E21.76556
G1 X147.929 Y150.922 E21.80852
G1 X147.305 Y150.178 E21.89679
G1 X147.029 Y149.795 E21.93975
G1 X146.526 Y148.970 E22.02761
G1 X146.108 Y148.103 E22.11509
G1 X145.778 Y147.195 E22.20296
G1 X145.650 Y146.740 E22.24592
G1 X145.458 Y145.793 E22.33379
G1 X145.362 Y144.836 E22.42126
G1 X145.362 Y143.864 E22.50964
G1 X145.458 Y142.907 E22.59711
G1 X145.650 Y141.960 E22.68498
G1 X145.778 Y141.505 E22.72794
G1 X146.110 Y140.593 E22.81621
G1 X146.304 Y140.162 E22.85916
G1 X146.766 Y139.313 E22.94703
G1 X147.308 Y138.519 E23.03451
G1 X147.929 Y137.778 E23.12238
G1 X148.262 Y137.437 E23.16573
G1 X148.612 Y137.113 E23.20908
G1 X149.371 Y136.507 E23.29736
G1 X149.761 Y136.241 E23.34031
G1 X150.598 Y135.758 E23.42818
G1 X151.479 Y135.361 E23.51605
G1 X151.923 Y135.199 E23.55901
G1 X152.857 Y134.936 E23.64728
G1 X153.322 Y134.842 E23.69039
G1 X154.321 Y134.707 E23.78212
G1 X154.639 Y134.584 E23.81309
G1 X154.811 Y134.474 E23.83163
G1 X155.060 Y134.235 E23.86300
G1 X155.255 Y133.898 E23.89843
G1 X155.339 Y133.574 E23.92888
G1 X155.360 Y130.359 E24.22128
G1 X155.412 Y130.181 E24.23807
G1 X155.518 Y130.016 E24.25595
G1 X155.742 Y129.855 E24.28101
G1 X156.025 Y129.800 E24.30721
